gaolecheng/EgoVLA_Release/ik_debug/Push-Box_room_1_table_2_episode_('episode_52.hdf5', 0.011941)_0_ik_debug.csv
step,left_pos_err_m,left_rot_err_deg,right_pos_err_m,right_rot_err_deg,left_joint_track_err,right_joint_track_err,left_near_limit_ratio,right_near_limit_ratio,left_near_limit_count,right_near_limit_count,left_worst_joint,left_worst_side,left_min_margin_rad,right_worst_joint,right_worst_side,right_min_margin_rad,left_joint_margin_rad_list,right_joint_margin_rad_list,ik_ignore_orientation,ik_active_arm
0,0.609573006144177,155.59701490291081,0.15608295379112289,118.3563936777387,0.002746850484982133,0.28861236572265625,0.0,0.2857142984867096,0,2,left_arm_joint1,lower,0.0172879695892334,right_arm_joint4,lower,-1.430511474609375e-06,0.017288;1.177741;0.349770;0.813189;2.354989;1.427613;1.960326,0.007052;0.015869;1.230154;-0.000001;0.073315;0.058552;0.659185,1,right
1,0.612327763092865,156.00059639113528,0.15919416291372548,115.84075540907574,0.0029731011018157005,0.29603999853134155,0.0,0.2857142984867096,0,2,left_arm_joint1,lower,0.01639389991760254,right_arm_joint4,lower,-1.1920928955078125e-06,0.016394;1.181358;0.348953;0.815897;2.354065;1.427547;1.972112,0.007979;0.041446;1.218892;-0.000001;0.080405;0.114032;0.576714,1,right
2,0.6147861722493343,156.46109890135332,0.15954235165481728,114.73808498011194,0.002715545240789652,0.2972710132598877,0.0,0.2857142984867096,0,2,left_arm_joint1,lower,0.015433311462402344,right_arm_joint4,lower,-1.1920928955078125e-06,0.015433;1.184853;0.348172;0.818802;2.353222;1.427602;1.982080,0.009218;0.073960;1.204852;-0.000001;0.079638;0.160100;0.487479,1,right
3,0.616939260498032,156.87952799044322,0.15990897937894658,112.7570574589571,0.0030669996049255133,0.2973771095275879,0.0,0.1428571492433548,0,1,left_arm_joint1,lower,0.014652490615844727,right_arm_joint4,lower,-4.76837158203125e-07,0.014652;1.188290;0.347158;0.821809;2.352315;1.427632;1.994373,0.010729;0.110649;1.185481;-0.000000;0.075130;0.196146;0.395434,1,right
4,0.6176565916654994,157.3882601069633,0.158824762322508,109.86526080828172,0.002777551067993045,0.2957419157028198,0.0,0.2857142984867096,0,2,left_arm_joint1,lower,0.013773918151855469,right_arm_joint4,lower,-7.152557373046875e-07,0.013774;1.191899;0.346335;0.824637;2.351367;1.427645;2.004717,0.009306;0.153021;1.167548;-0.000001;0.068396;0.226203;0.301703,1,right
5,0.6185003335805258,157.5258185339787,0.1607676909483638,109.91357587224495,0.0028062888886779547,0.29804086685180664,0.0,0.2857142984867096,0,2,left_arm_joint1,lower,0.0128326416015625,right_arm_joint4,lower,-2.384185791015625e-07,0.012833;1.195538;0.345572;0.827528;2.350330;1.427616;2.015061,0.007037;0.199725;1.144320;-0.000000;0.094371;0.248778;0.208500,1,right
6,0.6195645557570056,157.7911993826971,0.1581298004983514,109.30936611841054,0.0029015031177550554,0.2961358428001404,0.0,0.2857142984867096,0,2,left_arm_joint1,lower,0.011971712112426758,right_arm_joint4,lower,-4.76837158203125e-07,0.011972;1.199220;0.344759;0.830377;2.349344;1.427627;2.026169,0.005325;0.251501;1.123791;-0.000000;0.091721;0.263679;0.108469,1,right
7,0.6208472769517219,158.09253050506643,0.1560842053149368,109.86085846384026,0.0029772648122161627,0.2990919351577759,0.0,0.2857142984867096,0,2,left_arm_joint1,lower,0.01112675666809082,right_arm_joint4,lower,-2.384185791015625e-07,0.011127;1.202979;0.343950;0.833186;2.348319;1.427613;2.037750,0.000404;0.305685;1.101007;-0.000000;0.086439;0.274693;0.044711,1,right
8,0.6218996757612276,158.32734555767627,0.15295241911541566,108.47034360624168,0.003054095199331641,0.2999752461910248,0.0,0.2857142984867096,0,2,left_arm_joint1,lower,0.010324954986572266,right_arm_joint4,lower,2.384185791015625e-06,0.010325;1.206807;0.343129;0.835945;2.347283;1.427582;2.049851,0.000013;0.358313;1.077107;0.000002;0.065773;0.284595;0.018428,1,right
9,0.6228770666359535,158.59447707720648,0.151438263086945,108.68039283046839,0.0031762549187988043,0.30159100890159607,0.1428571492433548,0.4285714626312256,1,3,left_arm_joint1,lower,0.009593486785888672,right_arm_joint4,lower,3.337860107421875e-06,0.009593;1.210726;0.342274;0.838619;2.346235;1.427529;2.062806,0.000012;0.406921;1.052843;0.000003;0.054950;0.294204;0.007586,1,right
10,0.6232927333097203,158.97760714658256,0.15051988543795414,108.42945141019939,0.0033356123603880405,0.30265864729881287,0.1428571492433548,0.4285714626312256,1,3,left_arm_joint1,lower,0.008947134017944336,right_arm_joint4,lower,1.1920928955078125e-06,0.008947;1.214729;0.341363;0.841210;2.345180;1.427454;2.076872,0.000014;0.443478;1.033403;0.000001;0.052129;0.300933;0.003119,1,right
11,0.6238713343042177,159.3341962093253,0.15125905923787908,106.44702634224305,0.003529301844537258,0.30662742257118225,0.1428571492433548,0.4285714626312256,1,3,left_arm_joint1,lower,0.008407354354858398,right_arm_joint4,lower,0.0,0.008407;1.218824;0.340378;0.843713;2.344122;1.427356;2.092299,0.000021;0.452826;1.025734;0.000000;0.056393;0.306137;0.001266,1,right
12,0.6246538039150137,159.6591926635091,0.15268653557490888,106.55695867413853,0.003757034195587039,0.3082134425640106,0.1428571492433548,0.4285714626312256,1,3,left_arm_joint1,lower,0.008005142211914062,right_arm_joint4,lower,2.384185791015625e-07,0.008005;1.223028;0.339288;0.846094;2.343066;1.427229;2.109338,0.000019;0.450413;1.026714;0.000000;0.061872;0.306374;0.000509,1,right
13,0.6250931984866444,160.25229798339953,0.15414377237413598,108.3428703874523,0.0043747383169829845,0.3075052797794342,0.1428571492433548,0.4285714626312256,1,3,left_arm_joint1,lower,0.008056402206420898,right_arm_joint4,lower,4.76837158203125e-07,0.008056;1.227322;0.337893;0.848121;2.342288;1.427069;2.131257,0.000020;0.451249;1.026243;0.000000;0.061798;0.299091;0.000200,1,right
14,0.6253376630199057,160.7491885931481,0.15540877702070627,109.76793262966761,0.004084659740328789,0.3094460070133209,0.1428571492433548,0.4285714626312256,1,3,left_arm_joint1,lower,0.007836580276489258,right_arm_joint4,lower,4.76837158203125e-07,0.007837;1.231819;0.336657;0.850368;2.341138;1.426900;2.150330,0.000019;0.453004;1.026013;0.000000;0.058644;0.289936;0.000080,1,right
15,0.625455179626423,161.40055075400602,0.15703400645311955,110.5670922572942,0.004143353085964918,0.31219255924224854,0.1428571492433548,0.4285714626312256,1,3,left_arm_joint1,lower,0.0077152252197265625,right_arm_joint4,lower,2.384185791015625e-07,0.007715;1.236493;0.335467;0.852371;2.340038;1.426712;2.170056,0.000019;0.451763;1.026152;0.000000;0.061519;0.279639;0.000033,1,right
16,0.6257877044881672,162.0865523584994,0.15845377368635746,114.1596614608616,0.004307478666305542,0.3140622079372406,0.1428571492433548,0.4285714626312256,1,3,left_arm_joint1,lower,0.007718086242675781,right_arm_joint4,lower,2.384185791015625e-07,0.007718;1.241331;0.334205;0.854255;2.338928;1.426505;2.190905,0.000020;0.451178;1.026469;0.000000;0.060076;0.265928;0.000016,1,right
17,0.6262469262452789,162.8661660252391,0.1600429941230686,117.67646292561679,0.004504378419369459,0.31622594594955444,0.1428571492433548,0.4285714626312256,1,3,left_arm_joint1,lower,0.007858991622924805,right_arm_joint4,lower,4.76837158203125e-07,0.007859;1.246333;0.332863;0.855999;2.337817;1.426279;2.212871,0.000019;0.452349;1.026043;0.000000;0.060957;0.250774;0.000010,1,right
18,0.6267826579867206,163.664870413235,0.16116712012527679,120.78556395910887,0.004792200867086649,0.3190472722053528,0.1428571492433548,0.4285714626312256,1,3,left_arm_joint1,lower,0.008221626281738281,right_arm_joint4,lower,4.76837158203125e-07,0.008222;1.251488;0.331387;0.857559;2.336796;1.426040;2.236602,0.000019;0.451329;1.026386;0.000000;0.060275;0.236422;0.000007,1,right
19,0.6266938965676886,164.53840219008117,0.16177895525195288,122.61483077657405,0.00520407734438777,0.32064229249954224,0.1428571492433548,0.4285714626312256,1,3,left_arm_joint1,lower,0.008846759796142578,right_arm_joint4,lower,-4.76837158203125e-07,0.008847;1.256931;0.329740;0.858799;2.335794;1.425728;2.262761,0.000019;0.451436;1.026293;-0.000000;0.061485;0.223550;0.000005,1,right
20,0.626415004220055,165.3219163339443,0.16304745609137847,126.16410182069671,0.005153111182153225,0.3222085237503052,0.1428571492433548,0.4285714626312256,1,3,left_arm_joint1,lower,0.009480476379394531,right_arm_joint4,lower,2.384185791015625e-07,0.009480;1.262615;0.328127;0.859983;2.334672;1.425424;2.288292,0.000019;0.451643;1.026275;0.000000;0.060405;0.208950;0.000006,1,right
21,0.6256935733325701,166.09929991045558,0.1639573378833895,127.51257152696645,0.005191875621676445,0.32425305247306824,0.0,0.4285714626312256,0,3,left_arm_joint1,lower,0.010195732116699219,right_arm_joint4,lower,0.0,0.010196;1.268500;0.326503;0.861030;2.333495;1.425116;2.313880,0.000019;0.451652;1.026242;0.000000;0.061007;0.195557;0.000005,1,right
22,0.6249835546822406,166.84201294001457,0.16424671811888752,127.33809147597354,0.005290580913424492,0.32652658224105835,0.0,0.4285714626312256,0,3,left_arm_joint1,lower,0.01102900505065918,right_arm_joint4,lower,4.76837158203125e-07,0.011029;1.274564;0.324829;0.861956;2.332316;1.424807;2.339927,0.000018;0.451504;1.026282;0.000000;0.060847;0.186363;0.000006,1,right
23,0.6240675961100776,167.61139656393092,0.1644500158593688,126.77096760139882,0.005418283864855766,0.3280760645866394,0.0,0.4285714626312256,0,3,left_arm_joint1,lower,0.012010335922241211,right_arm_joint4,lower,9.5367431640625e-07,0.012010;1.280835;0.323081;0.862723;2.331136;1.424489;2.366591,0.000019;0.451814;1.026187;0.000001;0.060829;0.180296;0.000006,1,right
24,0.6236063092458153,168.41912102978154,0.1645513205698887,127.48006186789993,0.005566546227782965,0.329122394323349,0.0,0.4285714626312256,0,3,left_arm_joint1,lower,0.013148784637451172,right_arm_joint4,lower,2.384185791015625e-07,0.013149;1.287312;0.321240;0.863337;2.329922;1.424185;2.393968,0.000019;0.451761;1.026201;0.000000;0.060710;0.176414;0.000006,1,right
25,0.6229955401391493,169.31147260509206,0.16484458333819796,128.7948771788544,0.0056811487302184105,0.3297232985496521,0.0,0.4285714626312256,0,3,left_arm_joint1,lower,0.014452934265136719,right_arm_joint4,lower,2.384185791015625e-07,0.014453;1.293987;0.319298;0.863813;2.328702;1.423889;2.421822,0.000019;0.451742;1.026200;0.000000;0.060872;0.172941;0.000005,1,right
26,0.6219872508108175,170.34267833464776,0.16469026633914532,129.72829856472833,0.0057901060208678246,0.3289242684841156,0.0,0.4285714626312256,0,3,left_arm_joint1,lower,0.01592087745666504,right_arm_joint4,lower,7.152557373046875e-07,0.015921;1.300852;0.317261;0.864149;2.327494;1.423588;2.450139,0.000018;0.451734;1.026208;0.000001;0.060781;0.168795;0.000005,1,right
27,0.6211688697904421,171.48995475063134,0.1647278896333768,130.91233793265263,0.00586740905418992,0.3289181888103485,0.0,0.4285714626312256,0,3,left_arm_joint1,lower,0.017551422119140625,right_arm_joint4,lower,2.384185791015625e-07,0.017551;1.307897;0.315135;0.864346;2.326330;1.423264;2.478725,0.000019;0.451786;1.026189;0.000000;0.060827;0.165015;0.000005,1,right
28,0.6200668405539583,172.70763025876354,0.16518139083996972,132.6272776169714,0.0059744929894804955,0.32897064089775085,0.0,0.4285714626312256,0,3,left_arm_joint1,lower,0.019349336624145508,right_arm_joint4,lower,4.76837158203125e-07,0.019349;1.315112;0.312906;0.864421;2.325173;1.422955;2.507763,0.000019;0.451765;1.026197;0.000000;0.060806;0.160012;0.000005,1,right
29,0.6188865226590364,173.94105303783957,0.16559906997666596,133.0882888535658,0.0060617756098508835,0.32994309067726135,0.0,0.4285714626312256,0,3,left_arm_joint1,lower,0.02131175994873047,right_arm_joint4,lower,-2.384185791015625e-07,0.021312;1.322478;0.310570;0.864398;2.324034;1.422653;2.537067,0.000018;0.451753;1.026195;-0.000000;0.060888;0.155972;0.000005,1,right
30,0.6176729601345742,175.20399999048604,0.16591729662107912,132.95666705342532,0.0061734747141599655,0.33116087317466736,0.0,0.4285714626312256,0,3,left_arm_joint1,lower,0.02343606948852539,right_arm_joint4,lower,2.384185791015625e-07,0.023436;1.329988;0.308128;0.864281;2.322922;1.422350;2.566672,0.000018;0.451909;1.026124;0.000000;0.060937;0.153795;0.000004,1,right
31,0.6161694672165826,176.45578266047931,0.16594545253589604,131.93827262723977,0.0062339818105101585,0.331933856010437,0.0,0.4285714626312256,0,3,left_arm_joint1,lower,0.02572154998779297,right_arm_joint4,lower,0.0,0.025722;1.337626;0.305584;0.864082;2.321852;1.422056;2.596282,0.000019;0.452006;1.026091;0.000000;0.060827;0.153526;0.000001,1,right
32,0.6145230516417792,177.67032445571186,0.16608580652105015,131.8178026172483,0.006321809254586697,0.33172401785850525,0.0,0.4285714626312256,0,3,left_arm_joint1,lower,0.028164386749267578,right_arm_joint4,lower,0.0,0.028164;1.345379;0.302940;0.863815;2.320817;1.421764;2.626099,0.000019;0.451945;1.026110;0.000000;0.060882;0.152400;0.000001,1,right
33,0.6130485749412687,178.79728391217623,0.16568275613993902,130.6769874854039,0.0058340090326964855,0.33154362440109253,0.0,0.4285714626312256,0,3,left_arm_joint1,lower,0.029933452606201172,right_arm_joint4,lower,2.384185791015625e-07,0.029933;1.352821;0.300407;0.864094;2.319548;1.421051;2.652932,0.000019;0.451919;1.026112;0.000000;0.060933;0.152681;0.000002,1,right
34,0.6131781780080172,178.99394076509287,0.16508910491297327,129.4770121330984,0.0014513732166960835,0.33124589920043945,0.0,0.4285714626312256,0,3,left_arm_joint1,lower,0.028754472732543945,right_arm_joint4,lower,2.384185791015625e-07,0.028754;1.353698;0.299501;0.865060;2.319397;1.419617;2.657580,0.000018;0.452030;1.026079;0.000000;0.060856;0.154295;0.000001,1,right
35,0.6130805125938951,179.18025687569101,0.1646528290832335,128.67154006370214,0.0013841689797118306,0.33112096786499023,0.0,0.4285714626312256,0,3,left_arm_joint1,lower,0.027610301971435547,right_arm_joint4,lower,0.0,0.027610;1.354532;0.298590;0.866013;2.319250;1.418189;2.661852,0.000019;0.452055;1.026071;0.000000;0.060843;0.156939;0.000000,1,right
36,0.6133788959735471,179.33612667849144,0.16410372247165192,129.24722936803002,0.0014015224296599627,0.33009856939315796,0.0,0.4285714626312256,0,3,left_arm_joint1,lower,0.02646160125732422,right_arm_joint7,lower,0.0,0.026462;1.355383;0.297691;0.866972;2.319090;1.416763;2.666219,0.000019;0.452011;1.026085;0.000000;0.060870;0.159606;0.000000,1,right
37,0.6135718881415025,179.46713104776896,0.16362288764325897,130.2855009127491,0.00140417052898556,0.3292344808578491,0.0,0.4285714626312256,0,3,left_arm_joint1,lower,0.025316476821899414,right_arm_joint7,lower,-2.384185791015625e-07,0.025316;1.356243;0.296796;0.867954;2.318938;1.415339;2.670590,0.000019;0.452047;1.026070;0.000000;0.060877;0.162505;-0.000000,1,right
38,0.6136665028773743,179.63258108969788,0.16324363923171023,131.04192817563842,0.00146396248601377,0.3273615837097168,0.0,0.4285714626312256,0,3,left_arm_joint1,lower,0.02416229248046875,right_arm_joint4,lower,0.0,0.024162;1.357131;0.295918;0.868957;2.318770;1.413918;2.675325,0.000019;0.452032;1.026082;0.000000;0.060842;0.163814;0.000000,1,right
39,0.6138652710414901,179.86054830040345,0.16311456637975566,132.31015430296594,0.0015455612447112799,0.32594403624534607,0.0,0.4285714626312256,0,3,left_arm_joint1,lower,0.022975444793701172,right_arm_joint4,lower,0.0,0.022975;1.358045;0.295047;0.870007;2.318506;1.412554;2.680494,0.000019;0.451932;1.026116;0.000000;0.060893;0.163271;0.000001,1,right
40,0.6140452038734128,179.8249770140193,0.16308831872530172,133.93172228496874,0.00162337941583246,0.32536929845809937,0.0,0.4285714626312256,0,3,left_arm_joint1,lower,0.021776676177978516,right_arm_joint4,lower,4.76837158203125e-07,0.021777;1.358992;0.294187;0.871073;2.318157;1.411251;2.686135,0.000019;0.451939;1.026113;0.000000;0.060918;0.162118;0.000001,1,right
41,0.6139459967486653,179.48829052102192,0.1630976156463401,134.60073869699326,0.0016429850365966558,0.32492923736572266,0.0,0.4285714626312256,0,3,left_arm_joint1,lower,0.020578384399414062,right_arm_joint4,lower,4.76837158203125e-07,0.020578;1.359951;0.293336;0.872156;2.317803;1.409954;2.691894,0.000019;0.451967;1.026106;0.000000;0.060877;0.160476;0.000002,1,right
42,0.6137389322007467,179.20985487329037,0.1630903548406318,135.61090724954258,0.0016343594761565328,0.3241700530052185,0.0,0.4285714626312256,0,3,left_arm_joint1,lower,0.019399166107177734,right_arm_joint4,lower,7.152557373046875e-07,0.019399;1.360924;0.292498;0.873247;2.317448;1.408634;2.697577,0.000019;0.451897;1.026132;0.000001;0.060902;0.157638;0.000003,1,right
43,0.6132877371262894,178.98275420339002,0.16297331310895435,136.41435928977734,0.001803249237127602,0.32366371154785156,0.0,0.4285714626312256,0,3,left_arm_joint1,lower,0.018170833587646484,right_arm_joint4,lower,4.76837158203125e-07,0.018171;1.361895;0.291648;0.874399;2.317093;1.407389;2.704398,0.000019;0.451867;1.026140;0.000000;0.060942;0.154723;0.000003,1,right
44,0.6132439374086401,178.82717316544125,0.16302219217472388,137.4933598192495,0.0017748859245330095,0.32347068190574646,0.0,0.4285714626312256,0,3,left_arm_joint1,lower,0.01694965362548828,right_arm_joint4,lower,2.384185791015625e-07,0.016950;1.362902;0.290819;0.875552;2.316730;1.406139;2.711000,0.000018;0.451917;1.026126;0.000000;0.060905;0.151798;0.000003,1,right
45,0.6132760633509878,178.62379413752035,0.16281069533190787,137.93832152059213,0.0017844950780272484,0.3234913945198059,0.0,0.4285714626312256,0,3,left_arm_joint1,lower,0.01572251319885254,right_arm_joint4,lower,4.76837158203125e-07,0.015723;1.363950;0.290010;0.876719;2.316358;1.404902;2.717631,0.000018;0.451932;1.026118;0.000000;0.060914;0.150127;0.000003,1,right
46,0.6132045088171897,178.37475806329817,0.16236529831873997,138.27298862446673,0.0017955219373106956,0.32288914918899536,0.0,0.4285714626312256,0,3,left_arm_joint1,lower,0.014510393142700195,right_arm_joint4,lower,4.76837158203125e-07,0.014510;1.364999;0.289207;0.877901;2.315985;1.403642;2.724321,0.000018;0.451941;1.026115;0.000000;0.060909;0.149231;0.000003,1,right
47,0.6132023573239,178.1165094148763,0.1619729750052235,138.45480373189483,0.001848186831921339,0.32221490144729614,0.0,0.4285714626312256,0,3,left_arm_joint1,lower,0.013282299041748047,right_arm_joint4,lower,7.152557373046875e-07,0.013282;1.366069;0.288410;0.879114;2.315609;1.402425;2.731357,0.000018;0.451956;1.026111;0.000001;0.060901;0.148768;0.000002,1,right
48,0.6135410850024935,177.78050444526252,0.16122722152650082,138.80501637850796,0.0018667366821318865,0.32171422243118286,0.0,0.4285714626312256,0,3,left_arm_joint1,lower,0.01206064224243164,right_arm_joint4,lower,0.0,0.012061;1.367151;0.287623;0.880342;2.315230;1.401206;2.738508,0.000019;0.451981;1.026101;0.000000;0.060900;0.149985;0.000002,1,right
49,0.6141065854570412,177.51255044392914,0.16058399611036459,138.82903924741768,0.0018914854153990746,0.3212071359157562,0.0,0.4285714626312256,0,3,left_arm_joint1,lower,0.010835647583007812,right_arm_joint4,lower,2.384185791015625e-07,0.010836;1.368256;0.286848;0.881588;2.314847;1.399996;2.745803,0.000019;0.452053;1.026077;0.000000;0.060874;0.152490;0.000002,1,right
50,0.6150296077630516,177.25372417445578,0.16032508808522447,138.7465928058029,0.0018061527516692877,0.3203527331352234,0.1428571492433548,0.4285714626312256,1,3,left_arm_joint1,lower,0.009631633758544922,right_arm_joint4,lower,0.0,0.009632;1.369382;0.286086;0.882815;2.314453;1.398760;2.752498,0.000019;0.452049;1.026079;0.000000;0.060863;0.154614;0.000002,1,right
51,0.6159830160261374,176.84356525229632,0.1598614677501942,138.02201190493201,0.001890174113214016,0.31944704055786133,0.1428571492433548,0.4285714626312256,1,3,left_arm_joint1,lower,0.008429288864135742,right_arm_joint4,lower,2.384185791015625e-07,0.008429;1.370492;0.285321;0.884077;2.314064;1.397529;2.759770,0.000018;0.452019;1.026085;0.000000;0.060905;0.156884;0.000002,1,right
52,0.6165779817479315,176.37719307066004,0.15857045038022044,138.40675482888878,0.0019104715902358294,0.31834155321121216,0.1428571492433548,0.4285714626312256,1,3,left_arm_joint1,lower,0.0072290897369384766,right_arm_joint4,lower,2.384185791015625e-07,0.007229;1.371619;0.284562;0.885358;2.313672;1.396305;2.767160,0.000019;0.452091;1.026061;0.000000;0.060893;0.161504;0.000002,1,right
53,0.6168941688552233,175.98971959772518,0.1573968291829611,138.19839302750995,0.001929589780047536,0.31601667404174805,0.1428571492433548,0.4285714626312256,1,3,left_arm_joint1,lower,0.006039619445800781,right_arm_joint4,lower,2.384185791015625e-07,0.006040;1.372761;0.283814;0.886656;2.313274;1.395058;2.774645,0.000019;0.452107;1.026062;0.000000;0.060831;0.166050;0.000002,1,right
54,0.6174848484365979,175.5896616938113,0.15638761034833265,139.42295945335982,0.0020773198921233416,0.3135457932949066,0.1428571492433548,0.4285714626312256,1,3,left_arm_joint1,lower,0.004818916320800781,right_arm_joint4,lower,2.384185791015625e-07,0.004819;1.373914;0.283067;0.888022;2.312884;1.393885;2.783134,0.000019;0.452026;1.026090;0.000000;0.060879;0.169835;0.000001,1,right
55,0.6173192454435061,175.3057839893717,0.15562786464429354,139.6056481077317,0.0020420041400939226,0.31210458278656006,0.1428571492433548,0.4285714626312256,1,3,left_arm_joint1,lower,0.0035986900329589844,right_arm_joint4,lower,2.384185791015625e-07,0.003599;1.375121;0.282344;0.889385;2.312479;1.392712;2.791338,0.000019;0.452024;1.026093;0.000000;0.060879;0.173516;0.000003,1,right
56,0.6175280610310072,174.99168849654956,0.1548377520919288,139.7342588095751,0.0019790276419371367,0.31075963377952576,0.1428571492433548,0.4285714626312256,1,3,left_arm_joint1,lower,0.002391815185546875,right_arm_joint4,lower,-2.384185791015625e-07,0.002392;1.376356;0.281637;0.890736;2.312059;1.391525;2.799084,0.000019;0.452067;1.026083;-0.000000;0.060846;0.177465;0.000002,1,right
57,0.6177799577255337,174.65119045584234,0.15383606233694283,139.32894271428,0.0020466065034270287,0.3094242811203003,0.1428571492433548,0.4285714626312256,1,3,left_arm_joint1,lower,0.0011806488037109375,right_arm_joint4,lower,-2.384185791015625e-07,0.001181;1.377594;0.280925;0.892129;2.311644;1.390362;2.807279,0.000019;0.452051;1.026090;-0.000000;0.060847;0.182179;0.000001,1,right
58,0.6176998797310504,174.30196159123275,0.15278098360270856,139.0755372763549,0.002052396535873413,0.3072044551372528,0.1428571492433548,0.4285714626312256,1,3,left_arm_joint1,lower,9.5367431640625e-06,right_arm_joint4,lower,0.0,0.000010;1.378820;0.280242;0.893527;2.311230;1.389192;2.815585,0.000019;0.452021;1.026103;0.000000;0.060844;0.186505;0.000001,1,right
59,0.6176242101777016,173.9783283202965,0.1518368539487265,137.90598157624066,0.00165002909488976,0.30508559942245483,0.1428571492433548,0.4285714626312256,1,3,left_arm_joint1,lower,1.1920928955078125e-06,right_arm_joint7,lower,-2.384185791015625e-07,0.000001;1.379714;0.280442;0.894884;2.310679;1.387739;2.822671,0.000019;0.451973;1.026129;0.000000;0.060821;0.190077;-0.000000,1,right
60,0.6172443625094194,173.596568518989,0.15079867915470965,136.86072641974633,0.0016496671596542,0.3042483329772949,0.1428571492433548,0.4285714626312256,1,3,left_arm_joint1,lower,2.384185791015625e-07,right_arm_joint7,lower,-7.152557373046875e-07,0.000000;1.380639;0.280666;0.896261;2.310118;1.386312;2.829703,0.000019;0.451970;1.026130;0.000000;0.060834;0.194908;-0.000001,1,right
61,0.6171838207795551,173.35314408235382,0.14958356708864134,136.4375881989286,0.0017024768749251962,0.30264487862586975,0.1428571492433548,0.4285714626312256,1,3,left_arm_joint1,lower,1.1920928955078125e-06,right_arm_joint7,lower,-4.76837158203125e-07,0.000001;1.381576;0.280893;0.897664;2.309554;1.384883;2.837059,0.000019;0.451991;1.026129;0.000000;0.060786;0.200445;-0.000000,1,right
62,0.6175907981871694,173.15833736887825,0.14869173034471983,135.62341401473705,0.0018080282025039196,0.3007095456123352,0.1428571492433548,0.4285714626312256,1,3,left_arm_joint1,lower,7.3909759521484375e-06,right_arm_joint7,lower,-7.152557373046875e-07,0.000007;1.382521;0.281132;0.899127;2.308999;1.383519;2.845143,0.000019;0.451962;1.026142;-0.000000;0.060786;0.205546;-0.000001,1,right
63,0.6178290515605531,172.7997920243871,0.14749064766689624,133.5537425245578,0.0016829201485961676,0.2996818423271179,0.1428571492433548,0.4285714626312256,1,3,left_arm_joint1,lower,-1.1920928955078125e-06,right_arm_joint7,lower,-7.152557373046875e-07,-0.000001;1.383553;0.281405;0.900537;2.308408;1.382109;2.852198,0.000019;0.451957;1.026144;-0.000000;0.060803;0.212310;-0.000001,1,right
64,0.617741909534842,172.4885321876081,0.14662617827565622,132.8668769317392,0.0017824812093749642,0.3005644381046295,0.1428571492433548,0.4285714626312256,1,3,left_arm_joint1,lower,-9.5367431640625e-07,right_arm_joint7,lower,-9.5367431640625e-07,-0.000001;1.384555;0.281656;0.902001;2.307829;1.380703;2.859974,0.000019;0.452047;1.026105;-0.000000;0.060776;0.222467;-0.000001,1,right
65,0.6180775761095285,172.14997725527581,0.1460933094224384,132.6591136637992,0.0017764718504622579,0.29747432470321655,0.1428571492433548,0.4285714626312256,1,3,left_arm_joint1,lower,-2.6226043701171875e-06,right_arm_joint7,lower,-4.76837158203125e-07,-0.000003;1.385604;0.281930;0.903465;2.307279;1.379289;2.867658,0.000019;0.452081;1.026103;0.000000;0.060728;0.229292;-0.000000,1,right
66,0.6179923026752804,171.72688098200237,0.14552379753905098,132.1876599920228,0.0017978379037231207,0.2951980531215668,0.1428571492433548,0.4285714626312256,1,3,left_arm_joint1,lower,-3.0994415283203125e-06,right_arm_joint4,lower,-4.76837158203125e-07,-0.000003;1.386672;0.282213;0.904970;2.306736;1.377879;2.875433,0.000019;0.451961;1.026139;-0.000000;0.060794;0.234396;-0.000000,1,right
67,0.6177809933975164,171.27538149711543,0.1455870001320823,130.52820833455377,0.00182732951361686,0.29384928941726685,0.1428571492433548,0.4285714626312256,1,3,left_arm_joint1,lower,-3.0994415283203125e-06,right_arm_joint4,lower,-2.384185791015625e-07,-0.000003;1.387762;0.282505;0.906499;2.306191;1.376477;2.883366,0.000019;0.451944;1.026148;-0.000000;0.060809;0.237256;-0.000000,1,right
68,0.6177024364583111,171.07577825266316,0.14567947302248682,130.1375202126282,0.0018519164295867085,0.2950393259525299,0.1428571492433548,0.4285714626312256,1,3,left_arm_joint1,lower,-2.384185791015625e-06,right_arm_joint4,lower,-4.76837158203125e-07,-0.000002;1.388873;0.282802;0.908047;2.305646;1.375080;2.891430,0.000019;0.452034;1.026115;-0.000000;0.060791;0.241580;-0.000000,1,right
69,0.6173864595414362,170.84243773500867,0.14541729509702764,129.70318740021028,0.00188546534627676,0.2948762774467468,0.1428571492433548,0.4285714626312256,1,3,left_arm_joint1,lower,-1.9073486328125e-06,right_arm_joint7,lower,-7.152557373046875e-07,-0.000002;1.390010;0.283109;0.909621;2.305100;1.373692;2.899676,0.000019;0.452045;1.026125;0.000000;0.060715;0.246218;-0.000001,1,right
70,0.6166043992006546,170.60810888381366,0.14487414822820294,129.87123713054896,0.0019130685832351446,0.29234328866004944,0.1428571492433548,0.4285714626312256,1,3,left_arm_joint1,lower,-1.9073486328125e-06,right_arm_joint7,lower,-7.152557373046875e-07,-0.000002;1.391167;0.283423;0.911217;2.304553;1.372309;2.908071,0.000019;0.451867;1.026181;-0.000000;0.060782;0.248557;-0.000001,1,right
71,0.6159258188886664,170.238052454393,0.144911789938579,129.40727311411231,0.001940529327839613,0.2912679612636566,0.1428571492433548,0.4285714626312256,1,3,left_arm_joint1,lower,-2.384185791015625e-06,right_arm_joint4,lower,-7.152557373046875e-07,-0.000002;1.392349;0.283743;0.912834;2.304006;1.370934;2.916612,0.000019;0.451855;1.026187;-0.000001;0.060820;0.249218;-0.000000,1,right
72,0.6158370345449784,169.83202069751567,0.14507836366862667,129.49952804741332,0.0019740164279937744,0.2907458245754242,0.1428571492433548,0.4285714626312256,1,3,left_arm_joint1,lower,-2.6226043701171875e-06,right_arm_joint4,lower,-4.76837158203125e-07,-0.000003;1.393559;0.284073;0.914479;2.303457;1.369568;2.925332,0.000019;0.451854;1.026194;-0.000000;0.060756;0.248314;-0.000000,1,right
73,0.6157113589087194,169.47515438148358,0.1451827782540348,129.14023125399072,0.001999281346797943,0.2908216416835785,0.1428571492433548,0.4285714626312256,1,3,left_arm_joint1,lower,-2.86102294921875e-06,right_arm_joint4,lower,-4.76837158203125e-07,-0.000003;1.394789;0.284410;0.916142;2.302908;1.368207;2.934186,0.000018;0.451819;1.026204;-0.000000;0.060805;0.247149;-0.000000,1,right
74,0.6157043069446129,169.06453761552203,0.14524246259980372,128.5881642326172,0.0020310517866164446,0.2909604012966156,0.1428571492433548,0.4285714626312256,1,3,left_arm_joint1,lower,-2.86102294921875e-06,right_arm_joint4,lower,-7.152557373046875e-07,-0.000003;1.396047;0.284754;0.917832;2.302358;1.366856;2.943211,0.000019;0.451815;1.026205;-0.000001;0.060798;0.246043;-0.000000,1,right
75,0.6158710608328257,168.6604463258359,0.1454516028524871,127.76968115863498,0.0020632916130125523,0.29191458225250244,0.1428571492433548,0.4285714626312256,1,3,left_arm_joint1,lower,-2.86102294921875e-06,right_arm_joint7,lower,-7.152557373046875e-07,-0.000003;1.397329;0.285106;0.919546;2.301808;1.365512;2.952411,0.000019;0.451888;1.026175;-0.000000;0.060793;0.246038;-0.000001,1,right
76,0.6158822314481435,168.28171177970967,0.14550976471510071,126.66614387409902,0.00208853418007493,0.2919946312904358,0.1428571492433548,0.4285714626312256,1,3,left_arm_joint1,lower,-3.0994415283203125e-06,right_arm_joint4,lower,-4.76837158203125e-07,-0.000003;1.398637;0.285465;0.921282;2.301257;1.364176;2.961741,0.000019;0.451874;1.026184;-0.000000;0.060757;0.245865;-0.000000,1,right
77,0.6165028190926947,167.85691012377998,0.14559370182116183,126.29449744356077,0.002123806159943342,0.29199522733688354,0.1428571492433548,0.4285714626312256,1,3,left_arm_joint1,lower,-2.86102294921875e-06,right_arm_joint4,lower,-4.76837158203125e-07,-0.000003;1.399974;0.285832;0.923044;2.300705;1.362850;2.971263,0.000019;0.451831;1.026197;-0.000000;0.060811;0.245324;-0.000000,1,right
78,0.6167826576318094,167.32530055930332,0.1458230077472994,124.92744471938522,0.0021498778369277716,0.2921394407749176,0.1428571492433548,0.4285714626312256,1,3,left_arm_joint1,lower,-2.1457672119140625e-06,right_arm_joint4,lower,-7.152557373046875e-07,-0.000002;1.401335;0.286203;0.924831;2.300153;1.361531;2.980922,0.000019;0.451818;1.026204;-0.000001;0.060791;0.244029;-0.000000,1,right
79,0.6169285868707401,166.80535054133466,0.14606463017320964,123.07456641731174,0.0021835011430084705,0.2926286458969116,0.1428571492433548,0.4285714626312256,1,3,left_arm_joint1,lower,-3.0994415283203125e-06,right_arm_joint4,lower,-4.76837158203125e-07,-0.000003;1.402724;0.286582;0.926641;2.299599;1.360222;2.990764,0.000018;0.451797;1.026211;-0.000000;0.060792;0.242422;-0.000000,1,right
80,0.61721919678396,166.345043162376,0.14646597937456818,121.86731423529112,0.002213211264461279,0.2930205762386322,0.1428571492433548,0.4285714626312256,1,3,left_arm_joint1,lower,-3.5762786865234375e-06,right_arm_joint7,lower,-4.76837158203125e-07,-0.000004;1.404139;0.286968;0.928476;2.299046;1.358922;3.000767,0.000019;0.451761;1.026226;-0.000000;0.060794;0.239772;-0.000000,1,right
81,0.6175000803398426,165.83145594536919,0.14699925164911223,121.54158458524827,0.002243227791041136,0.29355382919311523,0.1428571492433548,0.4285714626312256,1,3,left_arm_joint1,lower,-3.814697265625e-06,right_arm_joint7,lower,-7.152557373046875e-07,-0.000004;1.405582;0.287358;0.930336;2.298491;1.357631;3.010930,0.000020;0.451698;1.026249;-0.000000;0.060810;0.235814;-0.000001,1,right
82,0.6178421005731728,165.38218887665514,0.14773271826169182,122.01137400622626,0.002293360885232687,0.29454267024993896,0.1428571492433548,0.4285714626312256,1,3,left_arm_joint1,lower,-2.1457672119140625e-06,right_arm_joint7,lower,-7.152557373046875e-07,-0.000002;1.407052;0.287757;0.932234;2.297897;1.356358;3.010451,0.000019;0.451674;1.026258;-0.000000;0.060813;0.230809;-0.000001,1,right
83,0.6183268136980987,164.93435390228146,0.1484311811685776,122.07420405070368,0.0023759265895932913,0.29567277431488037,0.1428571492433548,0.4285714626312256,1,3,left_arm_joint1,lower,-3.0994415283203125e-06,right_arm_joint7,lower,-4.76837158203125e-07,-0.000003;1.408551;0.288149;0.934147;2.297224;1.355153;2.999503,0.000019;0.451670;1.026260;-0.000000;0.060817;0.225358;-0.000000,1,right
84,0.6187349785789699,164.49994721566904,0.14912072715060204,121.48703202042758,0.0024040185380727053,0.29713326692581177,0.1428571492433548,0.4285714626312256,1,3,left_arm_joint1,lower,-3.0994415283203125e-06,right_arm_joint7,lower,-4.76837158203125e-07,-0.000003;1.410140;0.288610;0.936013;2.296507;1.353966;2.988494,0.000019;0.451679;1.026255;0.000000;0.060820;0.220186;-0.000000,1,right
85,0.6191429074960874,164.1049885023551,0.14982530139656158,120.7221781217538,0.0024003065191209316,0.29925981163978577,0.1428571492433548,0.4285714626312256,1,3,left_arm_joint1,lower,-2.86102294921875e-06,right_arm_joint7,lower,-7.152557373046875e-07,-0.000003;1.411737;0.289059;0.937887;2.295797;1.352762;2.977526,0.000019;0.451738;1.026230;-0.000000;0.060819;0.216565;-0.000001,1,right
86,0.6193519661209236,163.94865327306854,0.15011514212788585,119.9739264683425,0.0007858026656322181,0.30042657256126404,0.1428571492433548,0.4285714626312256,1,3,left_arm_joint1,lower,-9.5367431640625e-07,right_arm_joint7,lower,-7.152557373046875e-07,-0.000001;1.412297;0.288866;0.938815;2.295177;1.350952;2.976140,0.000019;0.451793;1.026208;0.000000;0.060790;0.214277;-0.000001,1,right
87,0.6191513826181398,163.8240644853237,0.1503487002463052,119.15588919876647,0.0006231032311916351,0.30146318674087524,0.1428571492433548,0.4285714626312256,1,3,left_arm_joint1,lower,-9.5367431640625e-07,right_arm_joint7,lower,-7.152557373046875e-07,-0.000001;1.412633;0.288536;0.939521;2.294557;1.349058;2.976618,0.000019;0.451820;1.026194;0.000000;0.060805;0.213273;-0.000001,1,right
88,0.6190323425096678,163.6330986906118,0.15037128606521685,118.27272399193465,0.0006373157957568765,0.3015666604042053,0.1428571492433548,0.4285714626312256,1,3,left_arm_joint1,lower,-1.1920928955078125e-06,right_arm_joint7,lower,-7.152557373046875e-07,-0.000001;1.413001;0.288223;0.940247;2.293905;1.347169;2.977130,0.000018;0.451810;1.026199;0.000000;0.060785;0.212349;-0.000001,1,right
89,0.6192953879908195,163.54116498577514,0.1503021999580175,119.44022712011416,0.0006433331873267889,0.3012162148952484,0.1428571492433548,0.4285714626312256,1,3,left_arm_joint1,lower,-7.152557373046875e-07,right_arm_joint7,lower,-9.5367431640625e-07,-0.000001;1.413397;0.287934;0.940988;2.293233;1.345307;2.977672,0.000019;0.451821;1.026195;0.000000;0.060806;0.211301;-0.000001,1,right
90,0.6191369881730268,163.25423167301867,0.15037300614391205,119.0533964013053,0.0006242043455131352,0.30140918493270874,0.1428571492433548,0.4285714626312256,1,3,left_arm_joint1,lower,-9.5367431640625e-07,right_arm_joint7,lower,-7.152557373046875e-07,-0.000001;1.413749;0.287598;0.941710;2.292665;1.343335;2.978092,0.000019;0.451813;1.026196;0.000000;0.060795;0.210420;-0.000001,1,right
91,0.618878890951826,163.1227157045133,0.15078483000473789,119.13566520478979,0.0006349305040203035,0.3023742139339447,0.1428571492433548,0.4285714626312256,1,3,left_arm_joint1,lower,-2.384185791015625e-07,right_arm_joint7,lower,-9.5367431640625e-07,-0.000000;1.414104;0.287265;0.942430;2.292043;1.341396;2.978567,0.000019;0.451861;1.026180;-0.000000;0.060804;0.209983;-0.000001,1,right
92,0.6186644461293804,163.07815235054898,0.15108416821603293,119.26629370950158,0.0004459907067939639,0.3030887544155121,0.1428571492433548,0.4285714626312256,1,3,left_arm_joint1,lower,9.5367431640625e-07,right_arm_joint4,lower,-4.76837158203125e-07,0.000001;1.414311;0.287082;0.942859;2.291778;1.340212;2.979420,0.000019;0.451872;1.026173;-0.000000;0.060784;0.209830;-0.000000,1,right
93,0.6187879457556137,163.055387057009,0.15113928420827302,119.0391468149035,0.00022606871789321303,0.3033129870891571,0.1428571492433548,0.4285714626312256,1,3,left_arm_joint1,lower,9.5367431640625e-07,right_arm_joint4,lower,-4.76837158203125e-07,0.000001;1.414391;0.286980;0.943126;2.291689;1.339325;2.979578,0.000019;0.451866;1.026175;-0.000000;0.060807;0.209912;-0.000000,1,right
94,0.6191464306014841,163.0896169032808,0.15139965532697167,119.30199303830449,0.00023056568170432,0.30390167236328125,0.1428571492433548,0.4285714626312256,1,3,left_arm_joint1,lower,9.5367431640625e-07,right_arm_joint4,lower,-4.76837158203125e-07,0.000001;1.414472;0.286877;0.943395;2.291597;1.338433;2.979755,0.000019;0.451913;1.026156;-0.000000;0.060804;0.210350;-0.000000,1,right
95,0.6193788726914677,163.15025306066786,0.1518320251778538,119.29008357570353,0.0002324288507224992,0.30445775389671326,0.1428571492433548,0.4285714626312256,1,3,left_arm_joint1,lower,4.76837158203125e-07,right_arm_joint7,lower,-7.152557373046875e-07,0.000000;1.414555;0.286774;0.943666;2.291506;1.337539;2.979939,0.000019;0.451914;1.026156;0.000000;0.060786;0.210290;-0.000001,1,right
96,0.619616605783086,163.24649789376218,0.15205602567059529,119.13948266080484,0.00023326970404013991,0.3049858808517456,0.1428571492433548,0.4285714626312256,1,3,left_arm_joint1,lower,7.152557373046875e-07,right_arm_joint7,lower,-7.152557373046875e-07,0.000001;1.414637;0.286671;0.943936;2.291415;1.336640;2.980127,0.000020;0.451898;1.026158;0.000000;0.060819;0.210425;-0.000001,1,right
97,0.6197516787243833,163.3481152518013,0.1523704555577688,118.69067861741468,0.00022128171985968947,0.30620187520980835,0.1428571492433548,0.4285714626312256,1,3,left_arm_joint1,lower,-7.152557373046875e-07,right_arm_joint7,lower,-4.76837158203125e-07,-0.000001;1.414722;0.286574;0.944206;2.291249;1.335782;2.980198,0.000019;0.451969;1.026130;0.000000;0.060811;0.211526;-0.000000,1,right
98,0.6197604348432346,163.500263596042,0.1525449863424338,118.38524623135973,0.00022008430096320808,0.30721884965896606,0.1428571492433548,0.4285714626312256,1,3,left_arm_joint1,lower,-2.384185791015625e-07,right_arm_joint7,lower,-4.76837158203125e-07,-0.000000;1.414797;0.286474;0.944451;2.290890;1.335021;2.980198,0.000019;0.452026;1.026109;-0.000000;0.060781;0.213650;-0.000000,1,right
99,0.6196611363671045,163.60918596474116,0.15267679260396935,118.17641328537401,0.00022218856611289084,0.30790412425994873,0.1428571492433548,0.4285714626312256,1,3,left_arm_joint1,lower,-2.384185791015625e-07,right_arm_joint4,lower,-4.76837158203125e-07,-0.000000;1.414871;0.286374;0.944697;2.290528;1.334259;2.980187,0.000019;0.452036;1.026103;-0.000000;0.060804;0.216387;-0.000000,1,right
100,0.619890703838305,163.65102644742458,0.15256901928201286,118.33325981891406,0.00022094484302215278,0.3072085380554199,0.1428571492433548,0.4285714626312256,1,3,left_arm_joint1,lower,-2.384185791015625e-07,right_arm_joint7,lower,-7.152557373046875e-07,-0.000000;1.414944;0.286274;0.944943;2.290166;1.333493;2.980187,0.000019;0.451995;1.026117;-0.000000;0.060793;0.218333;-0.000001,1,right
101,0.6204089821314455,163.74057713178692,0.15233771284510755,119.41197580172651,0.000222387068788521,0.3067123591899872,0.1428571492433548,0.4285714626312256,1,3,left_arm_joint1,lower,-2.384185791015625e-07,right_arm_joint7,lower,-7.152557373046875e-07,-0.000000;1.415019;0.286173;0.945190;2.289805;1.332725;2.980183,0.000020;0.452037;1.026100;-0.000000;0.060825;0.220545;-0.000001,1,right
102,0.620872466156524,163.7551769683565,0.15210039847917894,119.87757117287647,0.00022249083849601448,0.30565163493156433,0.1428571492433548,0.4285714626312256,1,3,left_arm_joint1,lower,-4.76837158203125e-07,right_arm_joint7,lower,-7.152557373046875e-07,-0.000000;1.415094;0.286071;0.945436;2.289441;1.331955;2.980183,0.000019;0.452025;1.026107;0.000000;0.060785;0.221974;-0.000001,1,right
103,0.6214045297215237,163.73390653339328,0.15213752152607293,119.95775987950036,0.00022340194846037775,0.30543723702430725,0.1428571492433548,0.4285714626312256,1,3,left_arm_joint1,lower,0.0,right_arm_joint4,lower,-7.152557373046875e-07,0.000000;1.415169;0.285971;0.945685;2.289078;1.331182;2.980185,0.000019;0.452025;1.026104;-0.000001;0.060837;0.223241;-0.000001,1,right
104,0.6222170371851968,163.70276928687727,0.15232785628618595,120.15034609110452,0.00022528906993102282,0.3053153157234192,0.1428571492433548,0.4285714626312256,1,3,left_arm_joint1,lower,-2.384185791015625e-07,right_arm_joint7,lower,-7.152557373046875e-07,-0.000000;1.415245;0.285868;0.945934;2.288713;1.330407;2.980195,0.000019;0.452039;1.026100;-0.000000;0.060813;0.223982;-0.000001,1,right
105,0.6228085101646573,163.67392714975983,0.1525638773022479,120.36976162418237,0.00022642688418272883,0.3054206073284149,0.1428571492433548,0.4285714626312256,1,3,left_arm_joint1,lower,0.0,right_arm_joint7,lower,-7.152557373046875e-07,0.000000;1.415320;0.285766;0.946182;2.288348;1.329630;2.980211,0.000019;0.452040;1.026097;-0.000000;0.060830;0.224387;-0.000001,1,right
106,0.6233487141460435,163.69791579971448,0.15274047414465095,120.70702059543568,0.00022546575928572565,0.30522820353507996,0.1428571492433548,0.4285714626312256,1,3,left_arm_joint1,lower,2.384185791015625e-07,right_arm_joint4,lower,-7.152557373046875e-07,0.000000;1.415396;0.285663;0.946433;2.287982;1.328851;2.980215,0.000019;0.452021;1.026102;-0.000001;0.060839;0.224038;-0.000001,1,right
107,0.6237160069356373,163.72977749710665,0.152944830515901,120.95139202865559,0.00022856199939269572,0.3055244982242584,0.1428571492433548,0.4285714626312256,1,3,left_arm_joint1,lower,2.384185791015625e-07,right_arm_joint7,lower,-9.5367431640625e-07,0.000000;1.415473;0.285559;0.946684;2.287613;1.328068;2.980231,0.000019;0.452039;1.026093;-0.000000;0.060859;0.223856;-0.000001,1,right
108,0.6238414790456973,163.8172491992063,0.1531620106828826,121.07080677417534,0.00022806014749221504,0.30571433901786804,0.1428571492433548,0.4285714626312256,1,3,left_arm_joint1,lower,-2.384185791015625e-07,right_arm_joint7,lower,-7.152557373046875e-07,-0.000000;1.415550;0.285455;0.946936;2.287243;1.327282;2.980224,0.000019;0.452052;1.026091;-0.000000;0.060838;0.223380;-0.000001,1,right
109,0.6237534499279431,163.92986761584532,0.15338656549854857,120.7673255972525,0.00022861735487822443,0.3060736656188965,0.1428571492433548,0.4285714626312256,1,3,left_arm_joint1,lower,4.76837158203125e-07,right_arm_joint7,lower,-7.152557373046875e-07,0.000000;1.415628;0.285352;0.947191;2.286872;1.326494;2.980218,0.000019;0.452036;1.026093;0.000000;0.060861;0.222806;-0.000001,1,right
110,0.6237888118680419,164.07427458572232,0.15372293929355663,120.6745834160483,0.0002290851407451555,0.30685925483703613,0.1428571492433548,0.4285714626312256,1,3,left_arm_joint1,lower,-2.384185791015625e-07,right_arm_joint7,lower,-7.152557373046875e-07,-0.000000;1.415706;0.285246;0.947444;2.286501;1.325703;2.980222,0.000020;0.452063;1.026082;-0.000000;0.060863;0.222550;-0.000001,1,right
111,0.6239449404276715,164.15571285813598,0.15393030156830673,120.54575212294995,0.00023009363212622702,0.3072453737258911,0.1428571492433548,0.4285714626312256,1,3,left_arm_joint1,lower,-2.384185791015625e-07,right_arm_joint7,lower,-7.152557373046875e-07,-0.000000;1.415786;0.285142;0.947700;2.286129;1.324912;2.980215,0.000019;0.452076;1.026077;0.000000;0.060848;0.222295;-0.000001,1,right
112,0.6241263619445224,164.19966440850985,0.15423386143181508,120.19052377602446,0.00022940445342101157,0.30805888772010803,0.1428571492433548,0.4285714626312256,1,3,left_arm_joint1,lower,-2.384185791015625e-07,right_arm_joint7,lower,-9.5367431640625e-07,-0.000000;1.415864;0.285037;0.947954;2.285756;1.324119;2.980212,0.000018;0.452091;1.026069;0.000000;0.060864;0.222507;-0.000001,1,right
113,0.6246504755283837,164.25428154523217,0.15370826809393792,119.78878769533594,0.00023090468312148005,0.30798307061195374,0.1428571492433548,0.4285714626312256,1,3,left_arm_joint1,lower,0.0,right_arm_joint7,lower,-9.5367431640625e-07,0.000000;1.415943;0.284932;0.948211;2.285384;1.323324;2.980205,0.000019;0.452116;1.026058;0.000000;0.060854;0.224153;-0.000001,1,right
114,0.6249511117051335,164.3317870777403,0.15367004827979883,120.069948801535,0.00023138683172874153,0.3081744313240051,0.1428571492433548,0.4285714626312256,1,3,left_arm_joint1,lower,-2.384185791015625e-07,right_arm_joint7,lower,-7.152557373046875e-07,-0.000000;1.416022;0.284825;0.948466;2.285011;1.322527;2.980196,0.000018;0.452181;1.026036;0.000000;0.060841;0.226341;-0.000001,1,right
115,0.6254102682275048,164.36540208468125,0.15354896170460575,120.04884647897782,0.00023314198188018054,0.3082157075405121,0.1428571492433548,0.4285714626312256,1,3,left_arm_joint1,lower,0.0,right_arm_joint7,lower,-9.5367431640625e-07,0.000000;1.416102;0.284720;0.948725;2.284635;1.321726;2.980186,0.000018;0.452174;1.026038;-0.000000;0.060847;0.229021;-0.000001,1,right
116,0.6257754922874017,164.37610180481755,0.1533038562070888,120.06051203125625,0.0002340929931961,0.3077322542667389,0.1428571492433548,0.4285714626312256,1,3,left_arm_joint1,lower,-2.384185791015625e-07,right_arm_joint7,lower,-7.152557373046875e-07,-0.000000;1.416183;0.284613;0.948983;2.284257;1.320921;2.980176,0.000019;0.452168;1.026039;0.000000;0.060852;0.231712;-0.000001,1,right
117,0.6261715163567093,164.36044778514557,0.15298365773858869,120.20111047876192,0.0002348625275772065,0.30724018812179565,0.1428571492433548,0.4285714626312256,1,3,left_arm_joint1,lower,2.384185791015625e-07,right_arm_joint7,lower,-7.152557373046875e-07,0.000000;1.416265;0.284505;0.949244;2.283879;1.320114;2.980167,0.000019;0.452187;1.026033;0.000000;0.060849;0.234658;-0.000001,1,right
118,0.6262390868802532,164.32887310118232,0.152434615546515,120.5053955165296,0.00023587846953887492,0.3058973252773285,0.1428571492433548,0.4285714626312256,1,3,left_arm_joint1,lower,-2.384185791015625e-07,right_arm_joint7,lower,-9.5367431640625e-07,-0.000000;1.416346;0.284397;0.949503;2.283499;1.319306;2.980154,0.000019;0.452172;1.026040;0.000000;0.060834;0.237263;-0.000001,1,right
119,0.6261737456868415,164.3280096547506,0.15196573320944728,120.95846293033675,0.0002361669176025316,0.3043650984764099,0.1428571492433548,0.4285714626312256,1,3,left_arm_joint1,lower,-4.76837158203125e-07,right_arm_joint7,lower,-7.152557373046875e-07,-0.000000;1.416428;0.284289;0.949764;2.283119;1.318494;2.980144,0.000019;0.452117;1.026061;0.000000;0.060851;0.238889;-0.000001,1,right
120,0.625938381262874,164.29072271648263,0.15158520995644742,121.26626684417141,0.0002375708136241883,0.30340561270713806,0.1428571492433548,0.4285714626312256,1,3,left_arm_joint1,lower,0.0,right_arm_joint7,lower,-7.152557373046875e-07,0.000000;1.416511;0.284180;0.950027;2.282738;1.317680;2.980130,0.000019;0.452089;1.026073;0.000000;0.060858;0.240077;-0.000001,1,right
121,0.6256634902629764,164.29104491362432,0.15122082538365533,121.37586536605018,0.0002378166827838868,0.3025783598423004,0.1428571492433548,0.4285714626312256,1,3,left_arm_joint1,lower,0.0,right_arm_joint7,lower,-7.152557373046875e-07,0.000000;1.416593;0.284071;0.950290;2.282357;1.316864;2.980118,0.000019;0.452086;1.026077;-0.000000;0.060838;0.240935;-0.000001,1,right
122,0.625699714817836,164.30082499573444,0.151015794117824,121.31850868701387,0.00023856121697463095,0.30222639441490173,0.1428571492433548,0.4285714626312256,1,3,left_arm_joint1,lower,0.0,right_arm_joint7,lower,-7.152557373046875e-07,0.000000;1.416677;0.283963;0.950554;2.281973;1.316046;2.980105,0.000019;0.452077;1.026082;-0.000000;0.060838;0.241723;-0.000001,1,right
123,0.6256052367944063,164.28940110199906,0.15094103056443753,121.4170298211463,0.00024021152057684958,0.3026168942451477,0.1428571492433548,0.4285714626312256,1,3,left_arm_joint1,lower,0.0,right_arm_joint7,lower,-1.1920928955078125e-06,0.000000;1.416761;0.283853;0.950820;2.281588;1.315223;2.980092,0.000019;0.452107;1.026071;0.000000;0.060843;0.243235;-0.000001,1,right
124,0.625728433386828,164.27090654525108,0.150681313488883,121.50670855035469,0.00024097041750792414,0.30227407813072205,0.1428571492433548,0.4285714626312256,1,3,left_arm_joint1,lower,-4.76837158203125e-07,right_arm_joint7,lower,-9.5367431640625e-07,-0.000000;1.416846;0.283742;0.951087;2.281202;1.314398;2.980079,0.000019;0.452096;1.026077;-0.000000;0.060817;0.244790;-0.000001,1,right
125,0.6257946285080709,164.2631830147505,0.15044594467419464,121.44044840405091,0.00024123703769873828,0.3025737702846527,0.1428571492433548,0.4285714626312256,1,3,left_arm_joint1,lower,0.0,right_arm_joint7,lower,-4.76837158203125e-07,0.000000;1.416930;0.283631;0.951353;2.280816;1.313571;2.980066,0.000019;0.452121;1.026066;0.000000;0.060845;0.247394;-0.000000,1,right
126,0.6256435168944267,164.2241130467568,0.15022686238560423,121.30675348267955,0.000242081077885814,0.3022401034832001,0.1428571492433548,0.4285714626312256,1,3,left_arm_joint1,lower,0.0,right_arm_joint7,lower,-7.152557373046875e-07,0.000000;1.417015;0.283520;0.951620;2.280427;1.312742;2.980051,0.000019;0.452145;1.026060;-0.000000;0.060806;0.250140;-0.000001,1,right
127,0.6255275666315699,164.20351281931192,0.14983147455963505,121.3293457097123,0.00024284263781737536,0.30107587575912476,0.1428571492433548,0.4285714626312256,1,3,left_arm_joint1,lower,0.0,right_arm_joint7,lower,-9.5367431640625e-07,0.000000;1.417101;0.283408;0.951888;2.280039;1.311911;2.980036,0.000019;0.452096;1.026078;-0.000000;0.060821;0.252241;-0.000001,1,right
128,0.6253413351683371,164.19663704119407,0.1497611869078642,121.19317878878388,0.00024351637694053352,0.3005917966365814,0.1428571492433548,0.4285714626312256,1,3,left_arm_joint1,lower,-4.76837158203125e-07,right_arm_joint7,lower,-9.5367431640625e-07,-0.000000;1.417187;0.283297;0.952157;2.279650;1.311078;2.980022,0.000019;0.452087;1.026080;-0.000000;0.060839;0.253852;-0.000001,1,right
129,0.6252746340319918,164.20425755487653,0.14968309019199916,120.81064106813771,0.00024405868316534907,0.30020713806152344,0.1428571492433548,0.4285714626312256,1,3,left_arm_joint1,lower,-7.152557373046875e-07,right_arm_joint7,lower,-1.1920928955078125e-06,-0.000001;1.417274;0.283184;0.952427;2.279261;1.310242;2.980007,0.000019;0.452079;1.026086;-0.000000;0.060813;0.255000;-0.000001,1,right
130,0.6252554493648149,164.21155057328357,0.14978258421737714,120.81292129050829,0.0002451001782901585,0.30044522881507874,0.1428571492433548,0.4285714626312256,1,3,left_arm_joint1,lower,-4.76837158203125e-07,right_arm_joint7,lower,-1.1920928955078125e-06,-0.000000;1.417360;0.283071;0.952697;2.278869;1.309402;2.979993,0.000018;0.452103;1.026077;0.000000;0.060825;0.256241;-0.000001,1,right
131,0.6250820089732753,164.23322851705947,0.14990200916186056,120.84484460217406,0.00024655036395415664,0.30026084184646606,0.1428571492433548,0.4285714626312256,1,3,left_arm_joint1,lower,2.384185791015625e-07,right_arm_joint7,lower,-1.430511474609375e-06,0.000000;1.417448;0.282958;0.952970;2.278475;1.308560;2.979978,0.000019;0.452059;1.026097;0.000000;0.060783;0.256738;-0.000001,1,right
132,0.6248547421549356,164.21008286670144,0.15015365905034117,120.77369302430797,0.0002473220229148865,0.30056998133659363,0.1428571492433548,0.4285714626312256,1,3,left_arm_joint1,lower,-2.384185791015625e-07,right_arm_joint7,lower,-1.430511474609375e-06,-0.000000;1.417536;0.282844;0.953242;2.278080;1.307715;2.979962,0.000019;0.452047;1.026098;0.000000;0.060821;0.256890;-0.000001,1,right
133,0.6246571662914305,164.21313317104756,0.15033682780078708,120.8940226796657,0.000248119788011536,0.30063432455062866,0.1428571492433548,0.4285714626312256,1,3,left_arm_joint1,lower,0.0,right_arm_joint7,lower,-1.1920928955078125e-06,0.000000;1.417626;0.282728;0.953516;2.277685;1.306867;2.979947,0.000019;0.452034;1.026105;0.000000;0.060801;0.256360;-0.000001,1,right
134,0.6245044854989636,164.2134805653512,0.15046499047576314,120.879421941868,0.00024849604233168066,0.3006051778793335,0.1428571492433548,0.4285714626312256,1,3,left_arm_joint1,lower,-2.384185791015625e-07,right_arm_joint7,lower,-1.430511474609375e-06,-0.000000;1.417714;0.282614;0.953790;2.277288;1.306016;2.979932,0.000018;0.452012;1.026110;-0.000000;0.060834;0.255221;-0.000001,1,right
135,0.6244231589271151,164.21649562722175,0.1507080911245889,120.95104769509534,0.00011269376409472898,0.30101171135902405,0.1428571492433548,0.4285714626312256,1,3,left_arm_joint1,lower,0.0,right_arm_joint7,lower,-1.430511474609375e-06,0.000000;1.417754;0.282562;0.953912;2.277109;1.305636;2.979916,0.000019;0.452032;1.026100;0.000000;0.060856;0.254064;-0.000001,1,right
136,0.6244454070664064,164.25699697109414,0.15087558858871575,121.04681707435174,3.547008645909955e-06,0.30114683508872986,0.1428571492433548,0.4285714626312256,1,3,left_arm_joint1,lower,7.152557373046875e-07,right_arm_joint7,lower,-1.1920928955078125e-06,0.000001;1.417755;0.282563;0.953914;2.277111;1.305633;2.979901,0.000019;0.452028;1.026104;-0.000000;0.060830;0.252528;-0.000001,1,right
137,0.6244604760361662,164.28677663410937,0.1509105956363555,121.08245048674979,3.1388233310281066e-06,0.30151113867759705,0.1428571492433548,0.4285714626312256,1,3,left_arm_joint1,lower,0.0,right_arm_joint7,lower,-1.1920928955078125e-06,0.000000;1.417754;0.282562;0.953913;2.277109;1.305633;2.979885,0.000019;0.452037;1.026096;0.000000;0.060862;0.251695;-0.000001,1,right
138,0.6245001397850596,164.32600763728297,0.1508765057952892,121.29664539673122,2.6731620437203674e-06,0.3014044165611267,0.1428571492433548,0.4285714626312256,1,3,left_arm_joint1,lower,2.384185791015625e-07,right_arm_joint7,lower,-1.1920928955078125e-06,0.000000;1.417755;0.282562;0.953914;2.277110;1.305632;2.979870,0.000019;0.452049;1.026095;0.000000;0.060831;0.250824;-0.000001,1,right
139,0.6247552013395947,164.38358868261747,0.15089829307736496,121.68911943939685,2.534794020903064e-06,0.3012715280056,0.1428571492433548,0.4285714626312256,1,3,left_arm_joint1,lower,-2.384185791015625e-07,right_arm_joint7,lower,-9.5367431640625e-07,-0.000000;1.417755;0.282562;0.953914;2.277110;1.305632;2.979854,0.000019;0.452038;1.026098;0.000000;0.060850;0.249767;-0.000001,1,right
140,0.6248969175306898,164.46153098102403,0.15101579535687687,121.95501589696144,2.777470172077301e-06,0.30156707763671875,0.1428571492433548,0.4285714626312256,1,3,left_arm_joint1,lower,2.384185791015625e-07,right_arm_joint7,lower,-9.5367431640625e-07,0.000000;1.417754;0.282562;0.953913;2.277111;1.305634;2.979839,0.000019;0.452044;1.026093;-0.000000;0.060854;0.249004;-0.000001,1,right
141,0.6249179747913433,164.48865981240348,0.15111145634330173,121.93088016980428,2.520957195883966e-06,0.30170518159866333,0.1428571492433548,0.4285714626312256,1,3,left_arm_joint1,lower,2.384185791015625e-07,right_arm_joint7,lower,-9.5367431640625e-07,0.000000;1.417754;0.282563;0.953913;2.277110;1.305634;2.979824,0.000019;0.452065;1.026087;0.000000;0.060840;0.248288;-0.000001,1,right
142,0.6251878253514784,164.5119255160892,0.15126300808203694,121.80057620823422,2.4810433387756348e-06,0.30217382311820984,0.1428571492433548,0.4285714626312256,1,3,left_arm_joint1,lower,2.384185791015625e-07,right_arm_joint7,lower,-9.5367431640625e-07,0.000000;1.417754;0.282563;0.953914;2.277110;1.305633;2.979808,0.000018;0.452077;1.026081;0.000000;0.060853;0.248024;-0.000001,1,right
143,0.6252150557319658,164.5798211544066,0.15139262179403096,121.85577758609935,2.5629999527154723e-06,0.302410751581192,0.1428571492433548,0.4285714626312256,1,3,left_arm_joint1,lower,0.0,right_arm_joint7,lower,-1.1920928955078125e-06,0.000000;1.417754;0.282562;0.953913;2.277109;1.305632;2.979793,0.000019;0.452080;1.026079;0.000000;0.060849;0.247764;-0.000001,1,right
144,0.6250646408031754,164.59294167205354,0.15157990321822165,121.68158230826413,2.7460712317406433e-06,0.30251312255859375,0.1428571492433548,0.4285714626312256,1,3,left_arm_joint1,lower,2.384185791015625e-07,right_arm_joint7,lower,-9.5367431640625e-07,0.000000;1.417755;0.282563;0.953913;2.277110;1.305633;2.979778,0.000019;0.452055;1.026090;0.000000;0.060846;0.246807;-0.000001,1,right
145,0.6250768555396962,164.61129559141202,0.15181257873698464,121.4862467698132,2.5555493721185485e-06,0.3030775487422943,0.1428571492433548,0.4285714626312256,1,3,left_arm_joint1,lower,2.384185791015625e-07,right_arm_joint7,lower,-7.152557373046875e-07,0.000000;1.417754;0.282563;0.953914;2.277110;1.305633;2.979762,0.000018;0.452077;1.026078;0.000000;0.060874;0.246302;-0.000001,1,right
146,0.6250983986305767,164.63994305799562,0.1519468658231237,121.4917869224526,2.555017090344336e-06,0.3031218647956848,0.1428571492433548,0.4285714626312256,1,3,left_arm_joint1,lower,2.384185791015625e-07,right_arm_joint7,lower,-9.5367431640625e-07,0.000000;1.417754;0.282562;0.953913;2.277110;1.305633;2.979747,0.000018;0.452077;1.026080;0.000000;0.060836;0.245381;-0.000001,1,right
147,0.6250690632839017,164.62239522774243,0.15205407981669092,121.3085794970896,2.6593252187012695e-06,0.3032824695110321,0.1428571492433548,0.4285714626312256,1,3,left_arm_joint1,lower,-2.384185791015625e-07,right_arm_joint7,lower,-9.5367431640625e-07,-0.000000;1.417754;0.282562;0.953912;2.277110;1.305633;2.979731,0.000019;0.452059;1.026085;0.000000;0.060871;0.244433;-0.000001,1,right
148,0.6251001319787999,164.5935013764006,0.15198391193586833,120.96674472280912,2.322452473890735e-06,0.3035694658756256,0.1428571492433548,0.4285714626312256,1,3,left_arm_joint1,lower,-2.384185791015625e-07,right_arm_joint7,lower,-9.5367431640625e-07,-0.000000;1.417753;0.282562;0.953913;2.277110;1.305634;2.979716,0.000019;0.452087;1.026074;-0.000000;0.060863;0.244406;-0.000001,1,right
149,0.6252299804004949,164.6116673226591,0.15189098098277284,120.43669775199173,2.6449563392816344e-06,0.30376550555229187,0.1428571492433548,0.4285714626312256,1,3,left_arm_joint1,lower,-2.384185791015625e-07,right_arm_joint7,lower,-9.5367431640625e-07,-0.000000;1.417754;0.282562;0.953913;2.277110;1.305632;2.979701,0.000018;0.452134;1.026058;0.000000;0.060841;0.245060;-0.000001,1,right
150,0.6253230510240745,164.62528999575747,0.15164453337341868,120.02016279792566,2.6454883936821716e-06,0.3034021854400635,0.1428571492433548,0.4285714626312256,1,3,left_arm_joint1,lower,0.0,right_arm_joint7,lower,-9.5367431640625e-07,0.000000;1.417754;0.282563;0.953913;2.277111;1.305634;2.979686,0.000019;0.452113;1.026066;0.000000;0.060841;0.245889;-0.000001,1,right
151,0.625380336033754,164.67373296589912,0.15132979081251993,119.89908497602863,2.427292884021881e-06,0.30288439989089966,0.1428571492433548,0.4285714626312256,1,3,left_arm_joint1,lower,2.384185791015625e-07,right_arm_joint7,lower,-9.5367431640625e-07,0.000000;1.417755;0.282562;0.953914;2.277111;1.305634;2.979671,0.000019;0.452104;1.026067;0.000000;0.060866;0.246907;-0.000001,1,right
152,0.6255071657607935,164.68459420271466,0.15111312590534226,119.8242788872362,2.510313606762793e-06,0.30255550146102905,0.1428571492433548,0.4285714626312256,1,3,left_arm_joint1,lower,2.384185791015625e-07,right_arm_joint7,lower,-7.152557373046875e-07,0.000000;1.417755;0.282563;0.953914;2.277110;1.305634;2.979655,0.000019;0.452131;1.026060;0.000000;0.060838;0.248152;-0.000001,1,right
153,0.6255416618304598,164.6816120863443,0.1507732102826567,119.96432434566853,2.6364411951362854e-06,0.30170345306396484,0.1428571492433548,0.4285714626312256,1,3,left_arm_joint1,lower,-7.152557373046875e-07,right_arm_joint7,lower,-1.1920928955078125e-06,-0.000001;1.417755;0.282562;0.953914;2.277110;1.305633;2.979640,0.000019;0.452112;1.026069;0.000000;0.060835;0.249151;-0.000001,1,right
154,0.625617249642467,164.66883330140666,0.1504996185158459,120.25117256950863,2.8679414754151367e-06,0.30094560980796814,0.1428571492433548,0.4285714626312256,1,3,left_arm_joint1,lower,-2.384185791015625e-07,right_arm_joint7,lower,-1.1920928955078125e-06,-0.000000;1.417754;0.282562;0.953913;2.277109;1.305632;2.979625,0.000019;0.452087;1.026077;0.000000;0.060859;0.249851;-0.000001,1,right
155,0.6257303914252506,164.62466238389078,0.15043433936290643,120.68397374630078,2.7732126000046264e-06,0.30047956109046936,0.1428571492433548,0.4285714626312256,1,3,left_arm_joint1,lower,2.384185791015625e-07,right_arm_joint7,lower,-9.5367431640625e-07,0.000000;1.417754;0.282563;0.953913;2.277110;1.305634;2.979609,0.000019;0.452078;1.026083;0.000000;0.060839;0.250017;-0.000001,1,right
156,0.625509698124444,164.5602251323568,0.15027256152839505,120.857556567833,2.6034458642243408e-06,0.30020734667778015,0.1428571492433548,0.4285714626312256,1,3,left_arm_joint1,lower,0.0,right_arm_joint7,lower,-9.5367431640625e-07,0.000000;1.417754;0.282563;0.953914;2.277111;1.305634;2.979594,0.000019;0.452085;1.026080;0.000000;0.060850;0.250362;-0.000001,1,right
157,0.6254430312728236,164.48796694402722,0.1501194428051555,120.94060586538174,2.748199904090143e-06,0.29992955923080444,0.1428571492433548,0.4285714626312256,1,3,left_arm_joint1,lower,-2.384185791015625e-07,right_arm_joint7,lower,-7.152557373046875e-07,-0.000000;1.417754;0.282562;0.953914;2.277110;1.305632;2.979579,0.000019;0.452085;1.026081;-0.000000;0.060842;0.250739;-0.000001,1,right
158,0.6254162031786681,164.42757320038714,0.15013611339054758,121.06475973006872,2.8807139642594848e-06,0.2998613119125366,0.1428571492433548,0.4285714626312256,1,3,left_arm_joint1,lower,2.384185791015625e-07,right_arm_joint7,lower,-7.152557373046875e-07,0.000000;1.417755;0.282563;0.953914;2.277110;1.305634;2.979564,0.000019;0.452093;1.026077;0.000000;0.060847;0.251091;-0.000001,1,right
159,0.6252349378810976,164.36874130689486,0.1500174744041307,120.95777008329941,2.9174345854698913e-06,0.2996422350406647,0.1428571492433548,0.4285714626312256,1,3,left_arm_joint1,lower,0.0,right_arm_joint7,lower,-9.5367431640625e-07,0.000000;1.417754;0.282562;0.953913;2.277110;1.305632;2.979549,0.000019;0.452070;1.026086;-0.000000;0.060840;0.251293;-0.000001,1,right
160,0.6250340046027105,164.31884516386626,0.1498336309601301,120.82740630636175,2.5369226932525635e-06,0.299475759267807,0.1428571492433548,0.4285714626312256,1,3,left_arm_joint1,lower,0.0,right_arm_joint7,lower,-9.5367431640625e-07,0.000000;1.417755;0.282562;0.953914;2.277110;1.305633;2.979534,0.000019;0.452076;1.026084;-0.000000;0.060853;0.251806;-0.000001,1,right
161,0.6248336441609454,164.30683579197722,0.14963516868275692,120.67598910278508,2.6705010895966552e-06,0.29913243651390076,0.1428571492433548,0.4285714626312256,1,3,left_arm_joint1,lower,-2.384185791015625e-07,right_arm_joint7,lower,-9.5367431640625e-07,-0.000000;1.417754;0.282562;0.953913;2.277110;1.305632;2.979519,0.000019;0.452088;1.026081;-0.000000;0.060828;0.252388;-0.000001,1,right
162,0.6248998237850489,164.28791827167692,0.14935340898319835,120.61998952546861,2.433679128444055e-06,0.2987947463989258,0.1428571492433548,0.4285714626312256,1,3,left_arm_joint1,lower,-2.384185791015625e-07,right_arm_joint7,lower,-9.5367431640625e-07,-0.000000;1.417754;0.282562;0.953913;2.277110;1.305633;2.979503,0.000019;0.452081;1.026084;0.000000;0.060840;0.253278;-0.000001,1,right
163,0.6249774835431249,164.266581291361,0.14914663172700598,120.82118046211205,2.3330962903855834e-06,0.2983948886394501,0.1428571492433548,0.4285714626312256,1,3,left_arm_joint1,lower,-4.76837158203125e-07,right_arm_joint7,lower,-9.5367431640625e-07,-0.000000;1.417755;0.282562;0.953913;2.277110;1.305633;2.979488,0.000020;0.452087;1.026082;0.000000;0.060837;0.254241;-0.000001,1,right
164,0.6250983250725644,164.27590257394564,0.1489545150803148,121.02365310198621,2.3362892989098327e-06,0.29836979508399963,0.1428571492433548,0.4285714626312256,1,3,left_arm_joint1,lower,-2.384185791015625e-07,right_arm_joint7,lower,-9.5367431640625e-07,-0.000000;1.417754;0.282562;0.953913;2.277111;1.305633;2.979473,0.000020;0.452105;1.026076;0.000000;0.060832;0.255762;-0.000001,1,right
165,0.6252976425865933,164.27175436850072,0.14883385746121688,121.25456299420505,2.3581087589263916e-06,0.297603964805603,0.1428571492433548,0.4285714626312256,1,3,left_arm_joint1,lower,-4.76837158203125e-07,right_arm_joint7,lower,-1.1920928955078125e-06,-0.000000;1.417754;0.282562;0.953913;2.277110;1.305632;2.979458,0.000018;0.452087;1.026088;0.000000;0.060793;0.256544;-0.000001,1,right
166,0.6254690811280176,164.23147506527118,0.14867196039414918,121.31986288207898,2.3852503545640502e-06,0.2971171736717224,0.1428571492433548,0.4285714626312256,1,3,left_arm_joint1,lower,-2.384185791015625e-07,right_arm_joint7,lower,-7.152557373046875e-07,-0.000000;1.417754;0.282562;0.953914;2.277110;1.305632;2.979444,0.000019;0.452055;1.026100;-0.000000;0.060819;0.257148;-0.000001,1,right
167,0.6255228469540101,164.17456434801656,0.1485428825975934,121.30823583442552,2.747135567915393e-06,0.29665738344192505,0.1428571492433548,0.4285714626312256,1,3,left_arm_joint1,lower,2.384185791015625e-07,right_arm_joint7,lower,-7.152557373046875e-07,0.000000;1.417754;0.282563;0.953914;2.277110;1.305633;2.979428,0.000019;0.452085;1.026101;-0.000000;0.060758;0.257517;-0.000001,1,right
168,0.6255350058436228,164.12404287723518,0.14856312433068203,121.28047550105894,2.602913582450128e-06,0.2965300679206848,0.1428571492433548,0.4285714626312256,1,3,left_arm_joint1,lower,2.384185791015625e-07,right_arm_joint4,lower,-4.76837158203125e-07,0.000000;1.417754;0.282562;0.953913;2.277110;1.305634;2.979414,0.000020;0.452028;1.026119;-0.000000;0.060705;0.257583;-0.000000,1,right
169,0.625501161044335,164.09198532411048,0.14850756455258632,121.3250610156277,2.5768365503608948e-06,0.29643282294273376,0.1428571492433548,0.4285714626312256,1,3,left_arm_joint1,lower,-7.152557373046875e-07,right_arm_joint7,lower,-7.152557373046875e-07,-0.000001;1.417754;0.282562;0.953913;2.277110;1.305633;2.979398,0.000020;0.452021;1.026123;-0.000000;0.060760;0.257605;-0.000001,1,right
170,0.6254072956379,164.0593769791598,0.14857078971137094,121.35978447275158,2.667840135472943e-06,0.2963921129703522,0.1428571492433548,0.4285714626312256,1,3,left_arm_joint1,lower,4.76837158203125e-07,right_arm_joint7,lower,-4.76837158203125e-07,0.000000;1.417754;0.282563;0.953914;2.277110;1.305634;2.979383,0.000020;0.452010;1.026126;0.000000;0.060728;0.257282;-0.000000,1,right
171,0.6253359346532684,164.02516887891204,0.14860677791662277,121.39078596231744,2.71999419965141e-06,0.2965056002140045,0.1428571492433548,0.4285714626312256,1,3,left_arm_joint1,lower,0.0,right_arm_joint7,lower,-1.1920928955078125e-06,0.000000;1.417754;0.282562;0.953913;2.277110;1.305632;2.979369,0.000020;0.452026;1.026123;-0.000000;0.060771;0.257129;-0.000001,1,right
172,0.6252468336015798,163.97476707946365,0.14869041770826452,121.20465346967985,2.35225479627843e-06,0.2967846989631653,0.1428571492433548,0.4285714626312256,1,3,left_arm_joint1,lower,-2.384185791015625e-07,right_arm_joint7,lower,-7.152557373046875e-07,-0.000000;1.417754;0.282562;0.953914;2.277109;1.305632;2.979354,0.000019;0.452066;1.026105;-0.000000;0.060812;0.257027;-0.000001,1,right
173,0.6250918995987818,163.97049678761044,0.14868849235437448,121.11268404300878,2.537454975026776e-06,0.2969398498535156,0.1428571492433548,0.4285714626312256,1,3,left_arm_joint1,lower,-2.384185791015625e-07,right_arm_joint7,lower,-1.1920928955078125e-06,-0.000000;1.417754;0.282562;0.953912;2.277110;1.305633;2.979339,0.000019;0.452019;1.026112;0.000000;0.060790;0.257071;-0.000001,1,right
174,0.624948763383542,163.95780978618777,0.1486672322218442,121.07881561010478,2.745539177340106e-06,0.29708439111709595,0.1428571492433548,0.4285714626312256,1,3,left_arm_joint1,lower,4.76837158203125e-07,right_arm_joint7,lower,-7.152557373046875e-07,0.000000;1.417755;0.282562;0.953914;2.277110;1.305633;2.979324,0.000019;0.452091;1.026100;-0.000000;0.060776;0.257389;-0.000001,1,right
175,0.6250515586155924,163.94813365051203,0.14872796974108174,121.20248782904899,2.675290716069867e-06,0.29740461707115173,0.1428571492433548,0.4285714626312256,1,3,left_arm_joint1,lower,0.0,right_arm_joint7,lower,-7.152557373046875e-07,0.000000;1.417754;0.282562;0.953913;2.277110;1.305633;2.979309,0.000020;0.452049;1.026111;-0.000000;0.060684;0.258024;-0.000001,1,right
176,0.6250477235671372,163.9382942256138,0.14875906650411438,121.17130027979344,2.5135066152870422e-06,0.2976638078689575,0.1428571492433548,0.4285714626312256,1,3,left_arm_joint1,lower,4.76837158203125e-07,right_arm_joint7,lower,-4.76837158203125e-07,0.000000;1.417755;0.282562;0.953914;2.277110;1.305633;2.979294,0.000020;0.452067;1.026108;0.000000;0.060711;0.258878;-0.000000,1,right
177,0.6249535052704657,163.933512608795,0.1487851956267895,121.22265298262735,2.722655153775122e-06,0.2976394295692444,0.1428571492433548,0.4285714626312256,1,3,left_arm_joint1,lower,-2.384185791015625e-07,right_arm_joint7,lower,-9.5367431640625e-07,-0.000000;1.417754;0.282562;0.953913;2.277110;1.305633;2.979279,0.000020;0.452041;1.026121;0.000000;0.060650;0.259549;-0.000001,1,right
178,0.6249724754492975,163.94987815400444,0.14892316781969092,121.33913112567397,2.647617066031671e-06,0.29803380370140076,0.1428571492433548,0.4285714626312256,1,3,left_arm_joint1,lower,4.76837158203125e-07,right_arm_joint7,lower,-9.5367431640625e-07,0.000000;1.417754;0.282563;0.953913;2.277110;1.305634;2.979264,0.000019;0.452067;1.026114;0.000000;0.060655;0.260353;-0.000001,1,right
179,0.6247678808628697,163.94680327732272,0.14883503548137955,121.42820409241016,2.743410277616931e-06,0.2979224920272827,0.1428571492433548,0.4285714626312256,1,3,left_arm_joint1,lower,-2.384185791015625e-07,right_arm_joint7,lower,-9.5367431640625e-07,-0.000000;1.417755;0.282562;0.953914;2.277110;1.305632;2.979249,0.000020;0.452040;1.026126;0.000000;0.060616;0.261090;-0.000001,1,right
180,0.6245929762982845,163.96511873775103,0.14892179177338055,121.42063736729715,2.305954694747925e-06,0.2980331778526306,0.1428571492433548,0.4285714626312256,1,3,left_arm_joint1,lower,-7.152557373046875e-07,right_arm_joint7,lower,-9.5367431640625e-07,-0.000001;1.417754;0.282562;0.953914;2.277110;1.305632;2.979234,0.000019;0.452064;1.026120;0.000000;0.060609;0.261683;-0.000001,1,right
181,0.6245289993877683,163.9657512291523,0.14893249647886095,121.3737533511682,2.534794020903064e-06,0.29809337854385376,0.1428571492433548,0.4285714626312256,1,3,left_arm_joint1,lower,2.384185791015625e-07,right_arm_joint7,lower,-7.152557373046875e-07,0.000000;1.417754;0.282563;0.953914;2.277110;1.305633;2.979220,0.000019;0.452066;1.026121;0.000000;0.060581;0.262246;-0.000001,1,right
182,0.6244258387717581,163.94930567882614,0.14891882169533996,121.46318978790751,2.789178097373224e-06,0.29780709743499756,0.1428571492433548,0.4285714626312256,1,3,left_arm_joint1,lower,-4.76837158203125e-07,right_arm_joint7,lower,-2.384185791015625e-07,-0.000000;1.417754;0.282562;0.953914;2.277109;1.305632;2.979205,0.000019;0.452055;1.026126;0.000000;0.060575;0.262300;-0.000000,1,right
183,0.6244008640092268,163.90404180656301,0.14895422843443792,121.43783769994698,2.850379360097577e-06,0.29781875014305115,0.1428571492433548,0.4285714626312256,1,3,left_arm_joint1,lower,0.0,right_arm_joint7,lower,-2.384185791015625e-07,0.000000;1.417754;0.282563;0.953913;2.277110;1.305634;2.979190,0.000019;0.452048;1.026128;0.000000;0.060592;0.262231;-0.000000,1,right
184,0.624243687958334,163.83847378391536,0.1489080509283679,121.34397356100206,2.575772214186145e-06,0.29763326048851013,0.1428571492433548,0.4285714626312256,1,3,left_arm_joint1,lower,-2.384185791015625e-07,right_arm_joint7,lower,-1.1920928955078125e-06,-0.000000;1.417754;0.282562;0.953914;2.277110;1.305632;2.979175,0.000019;0.452023;1.026137;0.000000;0.060581;0.261787;-0.000001,1,right
185,0.6240512907531002,163.7942332536477,0.14893832767465226,121.30407924086866,2.5443735012231627e-06,0.29783713817596436,0.1428571492433548,0.4285714626312256,1,3,left_arm_joint1,lower,4.76837158203125e-07,right_arm_joint7,lower,-9.5367431640625e-07,0.000000;1.417754;0.282563;0.953914;2.277111;1.305634;2.979160,0.000019;0.452015;1.026140;0.000000;0.060606;0.261476;-0.000001,1,right
186,0.6239584112936323,163.8050854904624,0.1490107609671592,121.38589346320751,2.471996367603424e-06,0.29816144704818726,0.1428571492433548,0.4285714626312256,1,3,left_arm_joint1,lower,2.384185791015625e-07,right_arm_joint7,lower,-9.5367431640625e-07,0.000000;1.417754;0.282563;0.953914;2.277110;1.305633;2.979146,0.000019;0.452036;1.026132;0.000000;0.060607;0.261519;-0.000001,1,right
187,0.6239215162043232,163.80100260517182,0.14901255407944242,121.47955373133227,2.5763044959603576e-06,0.29825544357299805,0.1428571492433548,0.4285714626312256,1,3,left_arm_joint1,lower,-4.76837158203125e-07,right_arm_joint7,lower,-9.5367431640625e-07,-0.000000;1.417754;0.282562;0.953913;2.277110;1.305632;2.979131,0.000019;0.452031;1.026133;0.000000;0.060581;0.261602;-0.000001,1,right
188,0.6236920791842914,163.79632674088572,0.1489990670609644,121.42405487942014,2.5667252430139342e-06,0.2982994318008423,0.1428571492433548,0.4285714626312256,1,3,left_arm_joint1,lower,-7.152557373046875e-07,right_arm_joint7,lower,-9.5367431640625e-07,-0.000001;1.417754;0.282562;0.953914;2.277110;1.305634;2.979116,0.000019;0.452023;1.026137;-0.000000;0.060599;0.261672;-0.000001,1,right
189,0.6235398344030587,163.794198423353,0.14906162314924698,121.36016529505662,2.5917377115547424e-06,0.29869285225868225,0.1428571492433548,0.4285714626312256,1,3,left_arm_joint1,lower,0.0,right_arm_joint7,lower,-9.5367431640625e-07,0.000000;1.417754;0.282562;0.953914;2.277109;1.305632;2.979102,0.000019;0.452062;1.026123;0.000000;0.060589;0.262270;-0.000001,1,right
190,0.6234882101571412,163.79742893951723,0.148958514378391,121.44815536229845,2.6502780201553833e-06,0.29802796244621277,0.1428571492433548,0.4285714626312256,1,3,left_arm_joint1,lower,4.76837158203125e-07,right_arm_joint7,lower,-7.152557373046875e-07,0.000000;1.417754;0.282563;0.953914;2.277110;1.305634;2.979087,0.000019;0.452025;1.026139;0.000000;0.060552;0.261935;-0.000001,1,right
191,0.623465578907502,163.75053464541054,0.14903189237292555,121.38355400970327,2.3118088847695617e-06,0.2980712056159973,0.1428571492433548,0.4285714626312256,1,3,left_arm_joint1,lower,4.76837158203125e-07,right_arm_joint7,lower,-9.5367431640625e-07,0.000000;1.417755;0.282562;0.953914;2.277111;1.305633;2.979073,0.000019;0.452005;1.026142;-0.000000;0.060619;0.261436;-0.000001,1,right
192,0.6232669121065668,163.72896289454818,0.1491531475870984,121.28983665782893,2.9930047276138794e-06,0.2982499301433563,0.1428571492433548,0.4285714626312256,1,3,left_arm_joint1,lower,0.0,right_arm_joint7,lower,-9.5367431640625e-07,0.000000;1.417754;0.282562;0.953913;2.277109;1.305632;2.979057,0.000019;0.452015;1.026140;0.000000;0.060602;0.260975;-0.000001,1,right
193,0.6233175414015656,163.72837219471586,0.1491558903478718,121.26788023320023,2.4565629246353637e-06,0.29824644327163696,0.1428571492433548,0.4285714626312256,1,3,left_arm_joint1,lower,0.0,right_arm_joint7,lower,-1.1920928955078125e-06,0.000000;1.417754;0.282562;0.953913;2.277110;1.305633;2.979042,0.000019;0.452010;1.026139;-0.000000;0.060623;0.260555;-0.000001,1,right
194,0.6233455009144734,163.71668931447724,0.1491982963841879,121.3151760742207,2.1835523966728942e-06,0.2982064187526703,0.1428571492433548,0.4285714626312256,1,3,left_arm_joint1,lower,2.384185791015625e-07,right_arm_joint7,lower,-1.1920928955078125e-06,0.000000;1.417754;0.282562;0.953913;2.277110;1.305633;2.979028,0.000019;0.451986;1.026144;0.000000;0.060642;0.259892;-0.000001,1,right
195,0.6233642342129554,163.69249699496828,0.1492028225606221,121.35244427634652,2.605042482173303e-06,0.2984382212162018,0.1428571492433548,0.4285714626312256,1,3,left_arm_joint1,lower,-2.384185791015625e-07,right_arm_joint7,lower,-1.1920928955078125e-06,-0.000000;1.417754;0.282562;0.953914;2.277110;1.305633;2.979013,0.000019;0.452016;1.026132;0.000000;0.060664;0.259713;-0.000001,1,right
196,0.623261444650846,163.7120244907345,0.14926856851790737,121.4206942049913,2.366091621297528e-06,0.29848384857177734,0.1428571492433548,0.4285714626312256,1,3,left_arm_joint1,lower,2.384185791015625e-07,right_arm_joint7,lower,-1.1920928955078125e-06,0.000000;1.417754;0.282563;0.953913;2.277110;1.305633;2.978998,0.000019;0.452007;1.026135;-0.000000;0.060649;0.259290;-0.000001,1,right
197,0.623144323874964,163.7403202023603,0.1491062215668098,121.5332552386562,2.6300551780877868e-06,0.29802432656288147,0.1428571492433548,0.4285714626312256,1,3,left_arm_joint1,lower,0.0,right_arm_joint7,lower,-9.5367431640625e-07,0.000000;1.417753;0.282562;0.953913;2.277109;1.305632;2.978984,0.000019;0.451985;1.026140;-0.000000;0.060689;0.258611;-0.000001,1,right
198,0.623156400147553,163.7551557342639,0.14922425054527455,121.64774912714404,2.4884939193725586e-06,0.2983096241950989,0.1428571492433548,0.4285714626312256,1,3,left_arm_joint1,lower,-2.384185791015625e-07,right_arm_joint7,lower,-9.5367431640625e-07,-0.000000;1.417754;0.282562;0.953913;2.277109;1.305633;2.978969,0.000019;0.452011;1.026130;-0.000001;0.060703;0.258202;-0.000001,1,right
199,0.6230659946912047,163.78717459557598,0.14926693674566885,121.82063837567094,2.393232989561511e-06,0.29825907945632935,0.1428571492433548,0.4285714626312256,1,3,left_arm_joint1,lower,0.0,right_arm_joint7,lower,-9.5367431640625e-07,0.000000;1.417754;0.282562;0.953914;2.277109;1.305633;2.978953,0.000020;0.452004;1.026132;-0.000000;0.060708;0.257581;-0.000001,1,right
200,0.6230598249756023,163.80753522590626,0.14926281201374667,122.08624859235735,2.514570951461792e-06,0.2981434762477875,0.1428571492433548,0.4285714626312256,1,3,left_arm_joint1,lower,-2.384185791015625e-07,right_arm_joint7,lower,-1.1920928955078125e-06,-0.000000;1.417755;0.282562;0.953913;2.277110;1.305631;2.978940,0.000019;0.451976;1.026139;0.000000;0.060770;0.256865;-0.000001,1,right
201,0.6231215497255181,163.82226645057463,0.1491503108732025,122.1691838296879,2.5635320071160095e-06,0.2978144884109497,0.1428571492433548,0.4285714626312256,1,3,left_arm_joint1,lower,-2.384185791015625e-07,right_arm_joint7,lower,-1.1920928955078125e-06,-0.000000;1.417754;0.282563;0.953913;2.277110;1.305634;2.978925,0.000019;0.451999;1.026119;0.000000;0.060865;0.255985;-0.000001,1,right
202,0.6232174184843606,163.8280143240548,0.14919387186478233,122.36742931212623,2.43155022872088e-06,0.29776468873023987,0.1428571492433548,0.4285714626312256,1,3,left_arm_joint1,lower,-2.384185791015625e-07,right_arm_joint7,lower,-9.5367431640625e-07,-0.000000;1.417754;0.282562;0.953913;2.277109;1.305632;2.978911,0.000019;0.452021;1.026112;0.000000;0.060799;0.255001;-0.000001,1,right
203,0.6233462196272849,163.83578941752543,0.14932540444374726,122.54927107424423,2.3155341750680236e-06,0.29791128635406494,0.1428571492433548,0.4285714626312256,1,3,left_arm_joint1,lower,-2.384185791015625e-07,right_arm_joint7,lower,-9.5367431640625e-07,-0.000000;1.417754;0.282562;0.953913;2.277110;1.305633;2.978896,0.000019;0.452026;1.026107;-0.000000;0.060849;0.253906;-0.000001,1,right
204,0.623377767921782,163.83948130377217,0.14953527623569607,122.68633600993932,2.1963248855172424e-06,0.29838839173316956,0.1428571492433548,0.4285714626312256,1,3,left_arm_joint1,lower,0.0,right_arm_joint7,lower,-1.1920928955078125e-06,0.000000;1.417754;0.282562;0.953913;2.277110;1.305633;2.978882,0.000019;0.452037;1.026101;0.000000;0.060847;0.253164;-0.000001,1,right
205,0.6234755440646745,163.84962484939504,0.14955915156023064,122.71022326185152,2.404408860456897e-06,0.29825982451438904,0.1428571492433548,0.4285714626312256,1,3,left_arm_joint1,lower,0.0,right_arm_joint7,lower,-1.1920928955078125e-06,0.000000;1.417754;0.282562;0.953913;2.277110;1.305632;2.978868,0.000018;0.452022;1.026109;-0.000001;0.060830;0.252018;-0.000001,1,right
206,0.6235235774482705,163.86794773618047,0.14970850226087962,122.75457482710073,2.4996697902679443e-06,0.2986290156841278,0.1428571492433548,0.4285714626312256,1,3,left_arm_joint1,lower,-2.384185791015625e-07,right_arm_joint7,lower,-4.76837158203125e-07,-0.000000;1.417754;0.282562;0.953914;2.277110;1.305633;2.978853,0.000018;0.452025;1.026106;0.000000;0.060853;0.251068;-0.000000,1,right
207,0.6236146586027365,163.8947421194803,0.14970738041086257,122.78590615171805,2.359173322474817e-06,0.29867011308670044,0.1428571492433548,0.4285714626312256,1,3,left_arm_joint1,lower,2.384185791015625e-07,right_arm_joint4,lower,-4.76837158203125e-07,0.000000;1.417754;0.282562;0.953913;2.277110;1.305632;2.978839,0.000019;0.452034;1.026103;-0.000000;0.060839;0.250281;-0.000000,1,right
208,0.6235997172380863,163.92818906589483,0.14981818372596897,122.706244834022,2.388975644862512e-06,0.29901036620140076,0.1428571492433548,0.4285714626312256,1,3,left_arm_joint1,lower,0.0,right_arm_joint7,lower,-4.76837158203125e-07,0.000000;1.417755;0.282562;0.953914;2.277110;1.305633;2.978825,0.000020;0.452054;1.026095;-0.000000;0.060844;0.249829;-0.000000,1,right
209,0.6235007530912551,163.95690089681173,0.1497671565136932,122.73215661067917,2.262847829115344e-06,0.2989271283149719,0.1428571492433548,0.4285714626312256,1,3,left_arm_joint1,lower,-2.384185791015625e-07,right_arm_joint7,lower,-4.76837158203125e-07,-0.000000;1.417754;0.282562;0.953913;2.277110;1.305632;2.978811,0.000019;0.452044;1.026099;0.000000;0.060837;0.249384;-0.000000,1,right
210,0.6236377509573177,163.98402448352832,0.1496703308091361,122.6779853968504,2.3001007320999634e-06,0.2990209758281708,0.1428571492433548,0.4285714626312256,1,3,left_arm_joint1,lower,0.0,right_arm_joint4,lower,-4.76837158203125e-07,0.000000;1.417754;0.282562;0.953913;2.277110;1.305633;2.978797,0.000019;0.452058;1.026092;-0.000000;0.060850;0.249617;-0.000000,1,right
211,0.623691468038737,163.98529187749494,0.14958687831428374,122.73252778174107,2.5465021735726623e-06,0.29886341094970703,0.1428571492433548,0.4285714626312256,1,3,left_arm_joint1,lower,-2.384185791015625e-07,right_arm_joint7,lower,-4.76837158203125e-07,-0.000000;1.417754;0.282562;0.953913;2.277109;1.305633;2.978782,0.000019;0.452073;1.026090;-0.000000;0.060827;0.249871;-0.000000,1,right
212,0.6236757146010248,164.00582600029134,0.14939030744866738,122.68508179707733,2.5768365503608948e-06,0.29866689443588257,0.1428571492433548,0.4285714626312256,1,3,left_arm_joint1,lower,-4.76837158203125e-07,right_arm_joint7,lower,-4.76837158203125e-07,-0.000000;1.417754;0.282563;0.953913;2.277110;1.305633;2.978766,0.000019;0.452053;1.026095;-0.000000;0.060841;0.250352;-0.000000,1,right
213,0.6237746035132812,164.03483112185174,0.14926412313099127,122.67370518608448,2.435275519019342e-06,0.2988102436065674,0.1428571492433548,0.4285714626312256,1,3,left_arm_joint1,lower,0.0,right_arm_joint7,lower,-4.76837158203125e-07,0.000000;1.417755;0.282562;0.953914;2.277110;1.305632;2.978752,0.000020;0.452080;1.026086;-0.000000;0.060837;0.251370;-0.000000,1,right
214,0.6238624315586915,164.04569706115032,0.14915963052727216,122.74055414718234,2.4986054540931946e-06,0.29847896099090576,0.1428571492433548,0.4285714626312256,1,3,left_arm_joint1,lower,-2.384185791015625e-07,right_arm_joint7,lower,-7.152557373046875e-07,-0.000000;1.417755;0.282563;0.953914;2.277110;1.305633;2.978737,0.000019;0.452081;1.026087;0.000000;0.060818;0.252178;-0.000001,1,right
215,0.6240466547632738,164.06078922296018,0.14907203677520048,122.81577283593064,2.5837550765572814e-06,0.29835832118988037,0.1428571492433548,0.4285714626312256,1,3,left_arm_joint1,lower,7.152557373046875e-07,right_arm_joint7,lower,-9.5367431640625e-07,0.000001;1.417754;0.282562;0.953914;2.277110;1.305632;2.978723,0.000019;0.452066;1.026090;0.000000;0.060840;0.253053;-0.000001,1,right
216,0.6240735350237423,164.0408544289846,0.14913081253229618,122.79742276513126,2.455498588460614e-06,0.29869338870048523,0.1428571492433548,0.4285714626312256,1,3,left_arm_joint1,lower,2.384185791015625e-07,right_arm_joint7,lower,-9.5367431640625e-07,0.000000;1.417754;0.282563;0.953914;2.277110;1.305633;2.978708,0.000020;0.452091;1.026081;0.000000;0.060837;0.254266;-0.000001,1,right
217,0.6240293275277752,164.05167066425562,0.14909004753664892,122.7751219630194,2.236770797026111e-06,0.29844722151756287,0.1428571492433548,0.4285714626312256,1,3,left_arm_joint1,lower,-2.384185791015625e-07,right_arm_joint7,lower,-1.1920928955078125e-06,-0.000000;1.417754;0.282562;0.953913;2.277110;1.305633;2.978694,0.000019;0.452088;1.026084;-0.000000;0.060817;0.255175;-0.000001,1,right
218,0.6240710562091987,164.060707481561,0.14902372445675938,122.85063318983197,2.4943481093941955e-06,0.29837271571159363,0.1428571492433548,0.4285714626312256,1,3,left_arm_joint1,lower,-4.76837158203125e-07,right_arm_joint7,lower,-1.430511474609375e-06,-0.000000;1.417754;0.282562;0.953914;2.277110;1.305632;2.978679,0.000019;0.452072;1.026091;0.000000;0.060823;0.256075;-0.000001,1,right
219,0.6240289602932252,164.0616004910687,0.14894208992073585,122.9104094799972,2.4565629246353637e-06,0.2982950210571289,0.1428571492433548,0.4285714626312256,1,3,left_arm_joint1,lower,4.76837158203125e-07,right_arm_joint7,lower,-1.1920928955078125e-06,0.000000;1.417755;0.282562;0.953914;2.277110;1.305633;2.978665,0.000019;0.452067;1.026095;0.000000;0.060802;0.257012;-0.000001,1,right
220,0.6239244797680862,164.0584337636552,0.1489121741776965,122.76232350011092,2.6864665869652526e-06,0.2983202338218689,0.1428571492433548,0.4285714626312256,1,3,left_arm_joint1,lower,-2.384185791015625e-07,right_arm_joint7,lower,-9.5367431640625e-07,-0.000000;1.417753;0.282563;0.953913;2.277109;1.305632;2.978651,0.000020;0.452107;1.026094;-0.000000;0.060743;0.258028;-0.000001,1,right
221,0.6237630095727698,164.05111759507915,0.14878521932854918,122.49442277864254,2.5507595182716614e-06,0.29821914434432983,0.1428571492433548,0.4285714626312256,1,3,left_arm_joint1,lower,0.0,right_arm_joint7,lower,-9.5367431640625e-07,0.000000;1.417754;0.282562;0.953913;2.277110;1.305632;2.978637,0.000019;0.452042;1.026119;-0.000000;0.060644;0.259147;-0.000001,1,right
222,0.6237613343085303,164.0511084596594,0.14860930669155137,122.21642701073753,2.2197409634827636e-06,0.29804107546806335,0.1428571492433548,0.4285714626312256,1,3,left_arm_joint1,lower,0.0,right_arm_joint7,lower,-9.5367431640625e-07,0.000000;1.417754;0.282562;0.953913;2.277109;1.305633;2.978623,0.000019;0.452047;1.026123;0.000000;0.060662;0.260478;-0.000001,1,right
223,0.6236868213968236,164.03750354488147,0.14851274447294424,121.95640202761523,2.611428726595477e-06,0.29750901460647583,0.1428571492433548,0.4285714626312256,1,3,left_arm_joint1,lower,-2.384185791015625e-07,right_arm_joint7,lower,-9.5367431640625e-07,-0.000000;1.417755;0.282563;0.953914;2.277111;1.305633;2.978609,0.000019;0.452026;1.026134;0.000000;0.060594;0.261244;-0.000001,1,right
224,0.6236375622874798,164.0526508980837,0.14843552993481948,121.69623851733488,2.5534204723953735e-06,0.2972334027290344,0.1428571492433548,0.4285714626312256,1,3,left_arm_joint1,lower,0.0,right_arm_joint7,lower,-7.152557373046875e-07,0.000000;1.417754;0.282562;0.953913;2.277110;1.305632;2.978595,0.000019;0.452038;1.026134;0.000000;0.060595;0.261763;-0.000001,1,right
225,0.6235663971370133,164.08432266361598,0.14837993896684848,121.63507379650041,2.452837634336902e-06,0.296919047832489,0.1428571492433548,0.4285714626312256,1,3,left_arm_joint1,lower,-4.76837158203125e-07,right_arm_joint7,lower,-1.1920928955078125e-06,-0.000000;1.417755;0.282562;0.953914;2.277110;1.305632;2.978580,0.000019;0.452036;1.026134;0.000000;0.060575;0.262061;-0.000001,1,right
226,0.6236849101758527,164.06776938477375,0.14836276594144132,121.52871407444987,2.3229847556649474e-06,0.2968827188014984,0.1428571492433548,0.4285714626312256,1,3,left_arm_joint1,lower,-4.76837158203125e-07,right_arm_joint7,lower,-7.152557373046875e-07,-0.000000;1.417755;0.282562;0.953914;2.277110;1.305633;2.978566,0.000019;0.452059;1.026128;0.000000;0.060580;0.262500;-0.000001,1,right
227,0.6237350025357062,164.05209290127522,0.14838590727220283,121.62883953265289,2.5369226932525635e-06,0.2965349555015564,0.1428571492433548,0.4285714626312256,1,3,left_arm_joint1,lower,0.0,right_arm_joint7,lower,-7.152557373046875e-07,0.000000;1.417754;0.282562;0.953913;2.277109;1.305632;2.978552,0.000019;0.452029;1.026139;0.000000;0.060557;0.262197;-0.000001,1,right
228,0.6238271886510324,164.0253434150244,0.14854716678900629,121.76363599188922,2.3426755433320068e-06,0.2967190742492676,0.1428571492433548,0.4285714626312256,1,3,left_arm_joint1,lower,2.384185791015625e-07,right_arm_joint7,lower,-7.152557373046875e-07,0.000000;1.417754;0.282562;0.953913;2.277109;1.305633;2.978538,0.000019;0.452034;1.026135;0.000000;0.060612;0.261818;-0.000001,1,right
229,0.623968814820293,164.000897890866,0.14864910806287535,121.92129477594656,2.249543285870459e-06,0.29696956276893616,0.1428571492433548,0.4285714626312256,1,3,left_arm_joint1,lower,0.0,right_arm_joint7,lower,-9.5367431640625e-07,0.000000;1.417754;0.282562;0.953913;2.277109;1.305633;2.978523,0.000019;0.452039;1.026131;0.000000;0.060589;0.261652;-0.000001,1,right
230,0.6240558433872236,163.96377266432103,0.1488431981106386,121.94015917780654,2.3118088847695617e-06,0.29734742641448975,0.1428571492433548,0.4285714626312256,1,3,left_arm_joint1,lower,7.152557373046875e-07,right_arm_joint7,lower,-9.5367431640625e-07,0.000001;1.417754;0.282562;0.953914;2.277109;1.305632;2.978510,0.000019;0.452049;1.026127;0.000000;0.060606;0.261459;-0.000001,1,right
231,0.6240574991768062,163.93137643464485,0.14891463358587176,121.83876049064024,2.6449563392816344e-06,0.29762399196624756,0.1428571492433548,0.4285714626312256,1,3,left_arm_joint1,lower,4.76837158203125e-07,right_arm_joint7,lower,-9.5367431640625e-07,0.000000;1.417754;0.282563;0.953914;2.277110;1.305633;2.978495,0.000019;0.452039;1.026128;0.000000;0.060614;0.261525;-0.000001,1,right
232,0.6240377936170388,163.89088218460054,0.1490071597378403,121.68532577371249,2.298504114151001e-06,0.2979139983654022,0.1428571492433548,0.4285714626312256,1,3,left_arm_joint1,lower,2.384185791015625e-07,right_arm_joint7,lower,-7.152557373046875e-07,0.000000;1.417754;0.282562;0.953914;2.277110;1.305633;2.978481,0.000019;0.452058;1.026122;0.000000;0.060605;0.261747;-0.000001,1,right
233,0.6238885305882941,163.84833072144258,0.14896851410465653,121.60582288487913,2.502863026165869e-06,0.29784107208251953,0.1428571492433548,0.4285714626312256,1,3,left_arm_joint1,lower,-2.384185791015625e-07,right_arm_joint7,lower,-7.152557373046875e-07,-0.000000;1.417754;0.282563;0.953913;2.277110;1.305633;2.978466,0.000019;0.452049;1.026126;0.000000;0.060592;0.261854;-0.000001,1,right
234,0.6238138296306243,163.8332249465984,0.14906152013247215,121.62697894805991,2.181955778723932e-06,0.2980014979839325,0.1428571492433548,0.4285714626312256,1,3,left_arm_joint1,lower,0.0,right_arm_joint7,lower,-7.152557373046875e-07,0.000000;1.417754;0.282562;0.953913;2.277110;1.305632;2.978453,0.000019;0.452061;1.026122;0.000000;0.060597;0.261932;-0.000001,1,right
235,0.6238532764678844,163.8199753670697,0.14892316111288084,121.77048545680795,2.6119607809960144e-06,0.2976672649383545,0.1428571492433548,0.4285714626312256,1,3,left_arm_joint1,lower,2.384185791015625e-07,right_arm_joint7,lower,-7.152557373046875e-07,0.000000;1.417755;0.282563;0.953914;2.277110;1.305633;2.978438,0.000019;0.452036;1.026132;0.000000;0.060590;0.261821;-0.000001,1,right
236,0.6240575708964834,163.8189563175379,0.14891387679789103,121.8824249515963,2.351722741877893e-06,0.2975149154663086,0.1428571492433548,0.4285714626312256,1,3,left_arm_joint1,lower,-2.384185791015625e-07,right_arm_joint7,lower,-9.5367431640625e-07,-0.000000;1.417755;0.282562;0.953914;2.277110;1.305632;2.978424,0.000019;0.452028;1.026135;0.000000;0.060601;0.261460;-0.000001,1,right
237,0.6240960690049814,163.8037974020777,0.14901758191284267,121.96549095900471,2.4586915969848633e-06,0.29761895537376404,0.1428571492433548,0.4285714626312256,1,3,left_arm_joint1,lower,-2.384185791015625e-07,right_arm_joint7,lower,-9.5367431640625e-07,-0.000000;1.417754;0.282562;0.953913;2.277109;1.305632;2.978410,0.000019;0.452033;1.026130;0.000000;0.060621;0.261024;-0.000001,1,right
238,0.6240210107499126,163.81360980442253,0.14908854161866703,122.19893293011384,2.1377845769166015e-06,0.2976800203323364,0.1428571492433548,0.4285714626312256,1,3,left_arm_joint1,lower,0.0,right_arm_joint7,lower,-9.5367431640625e-07,0.000000;1.417754;0.282562;0.953913;2.277110;1.305632;2.978396,0.000019;0.452009;1.026138;-0.000000;0.060625;0.260434;-0.000001,1,right
239,0.624127007589011,163.80518347165744,0.14914984782463123,122.39349628526087,2.493815827619983e-06,0.2976700961589813,0.1428571492433548,0.4285714626312256,1,3,left_arm_joint1,lower,-2.384185791015625e-07,right_arm_joint7,lower,-9.5367431640625e-07,-0.000000;1.417754;0.282562;0.953914;2.277109;1.305632;2.978382,0.000019;0.452007;1.026136;0.000000;0.060664;0.259645;-0.000001,1,right
240,0.6241437191162043,163.81273548810245,0.14933892539404053,122.45832358227241,2.297439777976251e-06,0.29810917377471924,0.1428571492433548,0.4285714626312256,1,3,left_arm_joint1,lower,-2.384185791015625e-07,right_arm_joint7,lower,-9.5367431640625e-07,-0.000000;1.417754;0.282562;0.953913;2.277109;1.305632;2.978368,0.000019;0.452036;1.026121;-0.000000;0.060675;0.259186;-0.000001,1,right
241,0.6240931205135831,163.8160174133112,0.14940310659581224,122.46130679569025,2.2160156731843017e-06,0.2982443571090698,0.1428571492433548,0.4285714626312256,1,3,left_arm_joint1,lower,-2.384185791015625e-07,right_arm_joint4,lower,-4.76837158203125e-07,-0.000000;1.417753;0.282563;0.953913;2.277109;1.305632;2.978354,0.000019;0.452029;1.026122;-0.000000;0.060685;0.258656;-0.000000,1,right
242,0.6239933029062307,163.82907160700677,0.1494134277955897,122.38861419914329,2.25646158469317e-06,0.29834049940109253,0.1428571492433548,0.4285714626312256,1,3,left_arm_joint1,lower,0.0,right_arm_joint7,lower,-4.76837158203125e-07,0.000000;1.417754;0.282562;0.953914;2.277109;1.305632;2.978341,0.000019;0.452014;1.026126;0.000000;0.060719;0.258110;-0.000000,1,right
243,0.623864819016152,163.8309696647562,0.14951452518467692,122.36248258973569,2.474657321727136e-06,0.29861077666282654,0.1428571492433548,0.4285714626312256,1,3,left_arm_joint1,lower,-2.384185791015625e-07,right_arm_joint4,lower,-4.76837158203125e-07,-0.000000;1.417755;0.282562;0.953914;2.277109;1.305632;2.978325,0.000019;0.452027;1.026118;-0.000000;0.060731;0.257774;-0.000000,1,right
244,0.6237911540903508,163.8056100308429,0.14960257795465934,122.33798373696013,2.30701925829635e-06,0.2989203631877899,0.1428571492433548,0.4285714626312256,1,3,left_arm_joint1,lower,0.0,right_arm_joint7,lower,-9.5367431640625e-07,0.000000;1.417754;0.282562;0.953914;2.277110;1.305632;2.978312,0.000019;0.452052;1.026110;-0.000000;0.060722;0.257727;-0.000001,1,right
245,0.6237896270654786,163.79240649842745,0.1496495000525323,122.25209889101036,2.5353263026772765e-06,0.29897063970565796,0.1428571492433548,0.4285714626312256,1,3,left_arm_joint1,lower,-4.76837158203125e-07,right_arm_joint4,lower,-7.152557373046875e-07,-0.000000;1.417754;0.282563;0.953914;2.277110;1.305633;2.978297,0.000020;0.452031;1.026117;-0.000001;0.060732;0.257466;-0.000001,1,right
246,0.6237744138272919,163.7772282452653,0.14970732539578585,122.20871446469188,2.13299495044339e-06,0.29922008514404297,0.1428571492433548,0.4285714626312256,1,3,left_arm_joint1,lower,-2.384185791015625e-07,right_arm_joint7,lower,-7.152557373046875e-07,-0.000000;1.417754;0.282562;0.953914;2.277110;1.305633;2.978283,0.000020;0.452047;1.026109;-0.000000;0.060755;0.257549;-0.000001,1,right
247,0.6239476508104486,163.76234539868992,0.14954491107597434,122.1844077277259,2.3299030544876587e-06,0.2987821698188782,0.1428571492433548,0.4285714626312256,1,3,left_arm_joint1,lower,0.0,right_arm_joint7,lower,-7.152557373046875e-07,0.000000;1.417754;0.282563;0.953913;2.277110;1.305633;2.978269,0.000020;0.452017;1.026121;-0.000000;0.060729;0.257235;-0.000001,1,right
248,0.6240361877174444,163.7456591806664,0.1495817674766374,122.07138999311798,2.3261777641891968e-06,0.29905423521995544,0.1428571492433548,0.4285714626312256,1,3,left_arm_joint1,lower,-2.384185791015625e-07,right_arm_joint7,lower,-9.5367431640625e-07,-0.000000;1.417754;0.282562;0.953913;2.277111;1.305633;2.978255,0.000019;0.452038;1.026112;-0.000001;0.060764;0.257289;-0.000001,1,right
249,0.6240395232281192,163.7464267349806,0.14948661820295306,122.07660923396043,2.51084566116333e-06,0.2991282045841217,0.1428571492433548,0.4285714626312256,1,3,left_arm_joint1,lower,0.0,right_arm_joint7,lower,-7.152557373046875e-07,0.000000;1.417754;0.282562;0.953914;2.277110;1.305633;2.978240,0.000019;0.452065;1.026105;-0.000000;0.060724;0.257874;-0.000001,1,right
250,0.6241331517699036,163.7475703128199,0.14944059158807205,122.26944550361495,2.4129237772285705e-06,0.29877930879592896,0.1428571492433548,0.4285714626312256,1,3,left_arm_joint1,lower,-4.76837158203125e-07,right_arm_joint7,lower,-7.152557373046875e-07,-0.000000;1.417754;0.282562;0.953913;2.277109;1.305632;2.978227,0.000019;0.452033;1.026118;-0.000000;0.060704;0.257907;-0.000001,1,right
251,0.6243132998719343,163.70643124529198,0.14936622098869715,122.57377932787408,3.0989094739197753e-06,0.29845723509788513,0.1428571492433548,0.4285714626312256,1,3,left_arm_joint1,lower,4.76837158203125e-07,right_arm_joint7,lower,-7.152557373046875e-07,0.000000;1.417755;0.282563;0.953914;2.277111;1.305634;2.978213,0.000019;0.452017;1.026122;-0.000000;0.060737;0.257730;-0.000001,1,right
252,0.6243303325691941,163.65561545429352,0.14940771847892564,122.82688983528972,2.5954630018532043e-06,0.29837003350257874,0.1428571492433548,0.4285714626312256,1,3,left_arm_joint1,lower,-4.76837158203125e-07,right_arm_joint7,lower,-9.5367431640625e-07,-0.000000;1.417754;0.282563;0.953914;2.277110;1.305633;2.978199,0.000020;0.452007;1.026125;0.000000;0.060736;0.257165;-0.000001,1,right
253,0.6242535750893706,163.613140403288,0.14938599903061545,122.90144640986976,2.489558482920984e-06,0.29827234148979187,0.1428571492433548,0.4285714626312256,1,3,left_arm_joint1,lower,0.0,right_arm_joint7,lower,-7.152557373046875e-07,0.000000;1.417754;0.282562;0.953913;2.277109;1.305632;2.978186,0.000018;0.451982;1.026121;0.000000;0.060836;0.256458;-0.000001,1,right
254,0.6241206979710856,163.56942508959253,0.1495339270879342,122.84720609747724,2.5800297862588195e-06,0.29858100414276123,0.1428571492433548,0.4285714626312256,1,3,left_arm_joint1,lower,4.76837158203125e-07,right_arm_joint7,lower,-9.5367431640625e-07,0.000000;1.417754;0.282563;0.953914;2.277111;1.305633;2.978173,0.000018;0.452048;1.026100;-0.000000;0.060830;0.255868;-0.000001,1,right
255,0.6241460260214187,163.54853533360819,0.14964293177806387,122.71877708700865,2.1047890186309814e-06,0.29887592792510986,0.1428571492433548,0.4285714626312256,1,3,left_arm_joint1,lower,4.76837158203125e-07,right_arm_joint7,lower,-7.152557373046875e-07,0.000000;1.417754;0.282563;0.953914;2.277110;1.305633;2.978159,0.000019;0.452043;1.026099;0.000000;0.060813;0.255355;-0.000001,1,right
256,0.6240318225414117,163.55350753572296,0.1497264730183412,122.46965039125871,2.694449449336389e-06,0.29915982484817505,0.1428571492433548,0.4285714626312256,1,3,left_arm_joint1,lower,-2.384185791015625e-07,right_arm_joint7,lower,-1.1920928955078125e-06,-0.000000;1.417754;0.282562;0.953913;2.277109;1.305633;2.978143,0.000019;0.452047;1.026097;0.000000;0.060850;0.255038;-0.000001,1,right
257,0.6238869840460076,163.55222319705314,0.14977772126330205,122.14499554667648,2.0366694570839172e-06,0.2995166778564453,0.1428571492433548,0.4285714626312256,1,3,left_arm_joint1,lower,-2.384185791015625e-07,right_arm_joint7,lower,-1.1920928955078125e-06,-0.000000;1.417754;0.282562;0.953913;2.277110;1.305633;2.978131,0.000019;0.452055;1.026093;-0.000000;0.060832;0.255064;-0.000001,1,right
258,0.6237964766474571,163.53721313133028,0.14972153077422617,121.9449934131753,2.0654074432968628e-06,0.29951030015945435,0.1428571492433548,0.4285714626312256,1,3,left_arm_joint1,lower,0.0,right_arm_joint7,lower,-1.1920928955078125e-06,0.000000;1.417754;0.282562;0.953913;2.277110;1.305634;2.978118,0.000019;0.452068;1.026090;0.000000;0.060828;0.255268;-0.000001,1,right
259,0.6237017148341994,163.50913079004363,0.14966400157138812,121.77260713559703,2.061682152998401e-06,0.2996724843978882,0.1428571492433548,0.4285714626312256,1,3,left_arm_joint1,lower,2.384185791015625e-07,right_arm_joint7,lower,-1.1920928955078125e-06,0.000000;1.417754;0.282562;0.953913;2.277110;1.305634;2.978105,0.000019;0.452073;1.026088;0.000000;0.060825;0.255918;-0.000001,1,right
