gaolecheng/EgoVLA_Release/ik_debug/Push-Box_room_1_table_2_episode_('episode_52.hdf5', 0.011941)_0_ik_debug.csv
step,left_pos_err_m,left_rot_err_deg,right_pos_err_m,right_rot_err_deg,left_joint_track_err,right_joint_track_err,left_near_limit_ratio,right_near_limit_ratio,left_near_limit_count,right_near_limit_count,left_worst_joint,left_worst_side,left_min_margin_rad,right_worst_joint,right_worst_side,right_min_margin_rad,left_joint_margin_rad_list,right_joint_margin_rad_list,ik_ignore_orientation,ik_active_arm
0,0.4594643937612853,141.54883203101642,0.12355062345539881,138.05140086764973,4.246405296726152e-05,0.3171284794807434,0.1428571492433548,0.4285714626312256,1,3,left_arm_joint3,upper,0.008778095245361328,right_arm_joint7,lower,-1.1920928955078125e-06,0.516949;0.899914;0.008778;0.386894;2.111707;1.141470;2.393508,0.000029;0.028206;1.186682;-0.000000;0.087289;0.054161;-0.000001,1,right
1,0.4614216922548974,142.77347070079043,0.13131955874863,133.66403594079756,4.2855743231484666e-05,0.33481523394584656,0.1428571492433548,0.4285714626312256,1,3,left_arm_joint3,upper,0.008845329284667969,right_arm_joint7,lower,2.384185791015625e-07,0.517040;0.899893;0.008845;0.386883;2.111757;1.141515;2.393523,0.000567;0.048357;1.174780;0.000005;0.098632;0.024142;0.000000,1,right
2,0.46307707160091516,143.3721244046061,0.1366662212736578,133.6302386153738,4.268544216756709e-05,0.3468966782093048,0.1428571492433548,0.5714285969734192,1,4,left_arm_joint3,upper,0.008913516998291016,right_arm_joint7,lower,-2.384185791015625e-07,0.517132;0.899872;0.008914;0.386873;2.111808;1.141557;2.393538,0.005341;0.068353;1.164017;0.000004;0.098385;0.009566;-0.000000,1,right
3,0.46468392133009156,143.73165258185145,0.14126580863359453,133.12618856293076,4.3017524149036035e-05,0.3553774952888489,0.1428571492433548,0.5714285969734192,1,4,left_arm_joint3,upper,0.008981704711914062,right_arm_joint7,lower,-2.384185791015625e-07,0.517224;0.899852;0.008982;0.386863;2.111858;1.141603;2.393553,0.006860;0.091307;1.153454;0.000004;0.087620;0.007000;-0.000000,1,right
4,0.4656243362570734,143.79829343648746,0.14468798949903539,131.36981758808932,4.341772728366777e-05,0.3600490689277649,0.1428571492433548,0.4285714626312256,1,3,left_arm_joint3,upper,0.00904989242553711,right_arm_joint7,lower,-1.6689300537109375e-06,0.517315;0.899829;0.009050;0.386852;2.111908;1.141647;2.393568,0.007154;0.127314;1.139290;0.000001;0.070935;0.016962;-0.000002,1,right
5,0.46629510768086374,143.6157916388913,0.1482744629925162,129.68047428134915,4.294940663385205e-05,0.36657068133354187,0.1428571492433548,0.4285714626312256,1,3,left_arm_joint3,upper,0.009118080139160156,right_arm_joint7,lower,-2.1457672119140625e-06,0.517407;0.899808;0.009118;0.386842;2.111959;1.141691;2.393583,0.006828;0.166953;1.120817;0.000003;0.064123;0.033774;-0.000002,1,right
6,0.4666541634288111,143.3689435410154,0.15070852718794892,129.53480577072852,4.304307003621943e-05,0.37141746282577515,0.1428571492433548,0.4285714626312256,1,3,left_arm_joint3,upper,0.009186744689941406,right_arm_joint7,lower,-1.430511474609375e-06,0.517499;0.899787;0.009187;0.386831;2.112010;1.141734;2.393599,0.006412;0.208485;1.100462;0.000002;0.075579;0.052359;-0.000001,1,right
7,0.46675636717889685,143.13903865439437,0.15199577370173237,130.11429591126637,4.3281488615320995e-05,0.3730357587337494,0.1428571492433548,0.4285714626312256,1,3,left_arm_joint3,upper,0.009255170822143555,right_arm_joint7,lower,-2.1457672119140625e-06,0.517591;0.899766;0.009255;0.386821;2.112061;1.141779;2.393613,0.004612;0.257815;1.079174;0.000002;0.068501;0.072991;-0.000002,1,right
8,0.46657332890980896,142.8885832475417,0.15346002340002093,126.80664672462969,4.2855743231484666e-05,0.37267005443573,0.1428571492433548,0.4285714626312256,1,3,left_arm_joint3,upper,0.009323358535766602,right_arm_joint7,lower,-7.152557373046875e-07,0.517684;0.899745;0.009323;0.386811;2.112110;1.141823;2.393628,0.000420;0.312274;1.055978;0.000001;0.064551;0.095409;-0.000001,1,right
9,0.4660827301074714,142.70902202289778,0.15320680916666488,124.38328810095513,4.366466237115674e-05,0.368913471698761,0.1428571492433548,0.4285714626312256,1,3,left_arm_joint3,upper,0.009392023086547852,right_arm_joint4,lower,9.5367431640625e-07,0.517776;0.899722;0.009392;0.386799;2.112162;1.141866;2.393643,0.000009;0.369541;1.033057;0.000001;0.054686;0.120065;0.000008,1,right
10,0.46592083233300025,142.41040384424403,0.15222175152374198,128.85712099742605,4.341772728366777e-05,0.365726113319397,0.1428571492433548,0.4285714626312256,1,3,left_arm_joint3,upper,0.009460687637329102,right_arm_joint4,lower,2.384185791015625e-06,0.517869;0.899702;0.009461;0.386789;2.112213;1.141912;2.393658,0.000012;0.407992;1.013477;0.000002;0.048866;0.141374;0.000010,1,right
11,0.46597175369421623,142.10322615483256,0.15121800837048627,135.02382268341123,4.3170795834157616e-05,0.3618740141391754,0.1428571492433548,0.4285714626312256,1,3,left_arm_joint3,upper,0.00952911376953125,right_arm_joint4,lower,9.5367431640625e-07,0.517962;0.899680;0.009529;0.386779;2.112264;1.141957;2.393672,0.000012;0.431180;0.999434;0.000001;0.047020;0.149312;0.000007,1,right
12,0.46613189424107704,141.88670716789161,0.15049016634161735,132.24511505973652,4.344327317085117e-05,0.3619877099990845,0.1428571492433548,0.4285714626312256,1,3,left_arm_joint3,upper,0.009598970413208008,right_arm_joint4,lower,1.9073486328125e-06,0.518054;0.899660;0.009599;0.386768;2.112315;1.142001;2.393687,0.000011;0.440509;0.996427;0.000002;0.046065;0.158115;0.000015,1,right
13,0.4662229644258701,141.6988600558579,0.1505134820676955,128.39162419593237,4.338366852607578e-05,0.3594791293144226,0.1428571492433548,0.4285714626312256,1,3,left_arm_joint3,upper,0.009668111801147461,right_arm_joint4,lower,2.384185791015625e-06,0.518147;0.899638;0.009668;0.386758;2.112366;1.142045;2.393702,0.000013;0.437983;0.997391;0.000002;0.044474;0.158921;0.000015,1,right
14,0.466093664215627,141.54967760528922,0.1499508467896733,129.07055540248808,4.3656145862769336e-05,0.3572603762149811,0.1428571492433548,0.4285714626312256,1,3,left_arm_joint3,upper,0.009737014770507812,right_arm_joint4,lower,1.6689300537109375e-06,0.518241;0.899617;0.009737;0.386747;2.112417;1.142090;2.393717,0.000012;0.440174;0.996541;0.000002;0.045111;0.160028;0.000017,1,right
15,0.4660634758674644,141.39246500510285,0.14879301787626129,130.76368649320938,4.3570998968789354e-05,0.35612815618515015,0.1428571492433548,0.4285714626312256,1,3,left_arm_joint3,upper,0.009805440902709961,right_arm_joint4,lower,1.6689300537109375e-06,0.518333;0.899594;0.009805;0.386736;2.112469;1.142134;2.393732,0.000014;0.432423;0.999482;0.000002;0.046748;0.159451;0.000016,1,right
16,0.4658318182621114,141.2632623030633,0.14698527387105634,133.76616516402717,4.367317524156533e-05,0.3515026271343231,0.1428571492433548,0.4285714626312256,1,3,left_arm_joint3,upper,0.009874343872070312,right_arm_joint4,lower,1.9073486328125e-06,0.518426;0.899573;0.009874;0.386725;2.112520;1.142179;2.393747,0.000015;0.428321;1.001625;0.000002;0.047414;0.154166;0.000018,1,right
17,0.46596118219581356,141.19969510447353,0.14531063871429586,136.475186393654,4.39286268374417e-05,0.3493884205818176,0.1428571492433548,0.4285714626312256,1,3,left_arm_joint3,upper,0.009943962097167969,right_arm_joint4,lower,4.76837158203125e-07,0.518520;0.899551;0.009944;0.386714;2.112571;1.142225;2.393761,0.000015;0.426109;1.002336;0.000000;0.048580;0.148208;0.000018,1,right
18,0.46603847755711053,141.18480201578106,0.1441113406456859,139.10664495564265,4.3851989175891504e-05,0.3486670255661011,0.0,0.4285714626312256,0,3,left_arm_joint3,upper,0.010013580322265625,right_arm_joint4,lower,7.152557373046875e-07,0.518614;0.899529;0.010014;0.386704;2.112622;1.142270;2.393776,0.000014;0.425078;1.002641;0.000001;0.049083;0.142219;0.000017,1,right
19,0.46615081399212716,141.17411772008822,0.14326030128775818,142.47704948246795,4.361357059678994e-05,0.34870970249176025,0.0,0.4285714626312256,0,3,left_arm_joint3,upper,0.010083198547363281,right_arm_joint4,lower,7.152557373046875e-07,0.518707;0.899508;0.010083;0.386693;2.112675;1.142314;2.393790,0.000014;0.424843;1.002678;0.000001;0.049201;0.137119;0.000018,1,right
20,0.4668893109969873,141.23187226317557,0.1421958807275361,146.4935275776223,4.3851989175891504e-05,0.3486189544200897,0.0,0.4285714626312256,0,3,left_arm_joint3,upper,0.010153055191040039,right_arm_joint4,lower,4.76837158203125e-07,0.518800;0.899486;0.010153;0.386683;2.112727;1.142359;2.393805,0.000014;0.424600;1.002731;0.000000;0.049197;0.132343;0.000018,1,right
21,0.4679224836747669,141.27695458576255,0.14046918622124172,151.762159043806,4.3911593820666894e-05,0.34898173809051514,0.0,0.4285714626312256,0,3,left_arm_joint3,upper,0.010222434997558594,right_arm_joint4,lower,0.0,0.518895;0.899464;0.010222;0.386671;2.112778;1.142404;2.393819,0.000014;0.424034;1.002900;0.000000;0.049278;0.127304;0.000017,1,right
22,0.4698246566599965,141.42532296863288,0.14010196760653476,126.36035031546383,4.393713970785029e-05,0.3514893651008606,0.0,0.4285714626312256,0,3,left_arm_joint3,upper,0.010291576385498047,right_arm_joint4,lower,2.384185791015625e-07,0.518989;0.899442;0.010292;0.386661;2.112829;1.142450;2.393834,0.000015;0.423912;1.002913;0.000000;0.049294;0.123972;0.000017,1,right
23,0.4704141385783351,141.5287441509723,0.13925524653228483,161.40842414037667,4.402229023980908e-05,0.3530973792076111,0.0,0.4285714626312256,0,3,left_arm_joint3,upper,0.010361433029174805,right_arm_joint4,lower,7.152557373046875e-07,0.519083;0.899421;0.010361;0.386650;2.112881;1.142495;2.393849,0.000015;0.423625;1.003009;0.000001;0.049350;0.119561;0.000016,1,right
24,0.47097024944351285,141.61395206382784,0.138531541603514,137.52251208373488,4.4005260861013085e-05,0.3541945517063141,0.0,0.4285714626312256,0,3,left_arm_joint3,upper,0.010432004928588867,right_arm_joint4,lower,2.384185791015625e-07,0.519177;0.899399;0.010432;0.386639;2.112933;1.142540;2.393863,0.000015;0.422772;1.003310;0.000000;0.049570;0.114975;0.000016,1,right
25,0.47132365018224304,141.70847922776272,0.13799536461809514,166.7425257874047,4.4235162931727245e-05,0.35475149750709534,0.0,0.4285714626312256,0,3,left_arm_joint3,upper,0.010501623153686523,right_arm_joint4,lower,7.152557373046875e-07,0.519271;0.899377;0.010502;0.386629;2.112985;1.142585;2.393878,0.000015;0.422137;1.003523;0.000001;0.049805;0.110626;0.000017,1,right
26,0.4714635138757928,141.81225840703956,0.13738822236773857,168.05216477234674,4.4030803110217676e-05,0.35538068413734436,0.0,0.4285714626312256,0,3,left_arm_joint3,upper,0.010571956634521484,right_arm_joint4,lower,-2.384185791015625e-07,0.519366;0.899355;0.010572;0.386618;2.113037;1.142630;2.393893,0.000015;0.421890;1.003589;-0.000000;0.049917;0.106185;0.000019,1,right
27,0.4714759753999172,141.90575896048645,0.13671087469286303,168.8054314929681,4.434585935086943e-05,0.3560105264186859,0.0,0.4285714626312256,0,3,left_arm_joint3,upper,0.010642290115356445,right_arm_joint4,lower,0.0,0.519460;0.899333;0.010642;0.386607;2.113089;1.142676;2.393907,0.000015;0.421616;1.003676;0.000000;0.049962;0.102161;0.000019,1,right
28,0.4714184951501365,141.952660283163,0.13620509613405313,169.04108552049547,4.445655213203281e-05,0.35649457573890686,0.0,0.4285714626312256,0,3,left_arm_joint3,upper,0.010712862014770508,right_arm_joint4,lower,0.0,0.519556;0.899310;0.010713;0.386596;2.113142;1.142721;2.393920,0.000015;0.421266;1.003798;0.000000;0.050031;0.098282;0.000020,1,right
29,0.47165073313614553,141.9616769583602,0.13580959322974717,169.00975253147908,4.431179695529863e-05,0.35757705569267273,0.0,0.4285714626312256,0,3,left_arm_joint3,upper,0.01078343391418457,right_arm_joint4,lower,-4.76837158203125e-07,0.519651;0.899289;0.010783;0.386586;2.113194;1.142767;2.393935,0.000015;0.421156;1.003819;-0.000000;0.050051;0.095418;0.000019,1,right
30,0.4719102736269197,141.97032206385143,0.13538426625789723,168.59933014034425,4.428625470609404e-05,0.35848721861839294,0.0,0.4285714626312256,0,3,left_arm_joint3,upper,0.010854005813598633,right_arm_joint4,lower,-4.76837158203125e-07,0.519746;0.899266;0.010854;0.386575;2.113247;1.142812;2.393949,0.000015;0.421244;1.003771;-0.000000;0.050005;0.093354;0.000019,1,right
31,0.4721402766840688,141.996366800015,0.134823315417193,168.73466024368972,4.447358151082881e-05,0.3587566316127777,0.0,0.4285714626312256,0,3,left_arm_joint3,upper,0.010924339294433594,right_arm_joint4,lower,-7.152557373046875e-07,0.519840;0.899243;0.010924;0.386564;2.113299;1.142857;2.393963,0.000015;0.421215;1.003779;-0.000001;0.049967;0.091613;0.000019,1,right
32,0.4728918688550426,141.99387341610674,0.13424335931832404,169.016355525433,4.4694970711134374e-05,0.3593507409095764,0.0,0.4285714626312256,0,3,left_arm_joint3,upper,0.010995149612426758,right_arm_joint4,lower,-2.384185791015625e-07,0.519936;0.899222;0.010995;0.386552;2.113352;1.142904;2.393977,0.000014;0.421262;1.003752;-0.000000;0.049927;0.090756;0.000018,1,right
33,0.4736919740165053,141.9216531256668,0.13347400985315086,169.4167204563365,4.473754597711377e-05,0.3595797121524811,0.0,0.4285714626312256,0,3,left_arm_joint3,upper,0.011066436767578125,right_arm_joint4,lower,-4.76837158203125e-07,0.520032;0.899199;0.011066;0.386542;2.113405;1.142949;2.393992,0.000014;0.421465;1.003666;-0.000000;0.049856;0.090494;0.000019,1,right
34,0.47414556632634125,141.89618750362618,0.13181701612292684,170.59758175580671,4.4558732042787597e-05,0.35880181193351746,0.0,0.4285714626312256,0,3,left_arm_joint3,upper,0.011137723922729492,right_arm_joint4,lower,7.152557373046875e-07,0.520128;0.899178;0.011138;0.386531;2.113457;1.142996;2.394006,0.000012;0.419757;1.002485;0.000001;0.049066;0.086314;0.000015,1,right
35,0.47434262314109565,141.8749248568592,0.13049698155806908,171.96631065099837,4.479715062188916e-05,0.3581836521625519,0.0,0.4285714626312256,0,3,left_arm_joint3,upper,0.011208534240722656,right_arm_joint4,lower,2.384185791015625e-07,0.520223;0.899155;0.011209;0.386520;2.113510;1.143041;2.394021,0.000014;0.416294;1.003853;0.000000;0.048580;0.080991;0.000020,1,right
36,0.4746289545491319,141.90897419018896,0.12969280386837853,173.20246444804735,4.51632913609501e-05,0.35800397396087646,0.0,0.4285714626312256,0,3,left_arm_joint3,upper,0.011280298233032227,right_arm_joint4,lower,-2.384185791015625e-07,0.520319;0.899133;0.011280;0.386509;2.113563;1.143088;2.394037,0.000014;0.415775;1.003970;-0.000000;0.048842;0.076433;0.000022,1,right
37,0.47486945095556893,141.9198790062771,0.12954607044267816,173.9293011417205,4.465239544515498e-05,0.3592994809150696,0.0,0.4285714626312256,0,3,left_arm_joint3,upper,0.011350870132446289,right_arm_joint4,lower,2.384185791015625e-07,0.520416;0.899111;0.011351;0.386498;2.113616;1.143134;2.394051,0.000014;0.416807;1.003582;0.000000;0.048643;0.073699;0.000022,1,right
38,0.475085679391353,141.9432351915845,0.12951817179354733,174.425113419168,4.51547784905415e-05,0.3608631491661072,0.0,0.4285714626312256,0,3,left_arm_joint3,upper,0.011422872543334961,right_arm_joint4,lower,-4.76837158203125e-07,0.520511;0.899088;0.011423;0.386487;2.113669;1.143179;2.394066,0.000013;0.417240;1.003431;-0.000000;0.048331;0.072509;0.000023,1,right
39,0.4753379455540954,142.0043592474337,0.12961656555597537,174.84219359830902,4.483120937948115e-05,0.3619939386844635,0.0,0.4285714626312256,0,3,left_arm_joint3,upper,0.011493682861328125,right_arm_joint4,lower,0.0,0.520608;0.899065;0.011494;0.386476;2.113722;1.143226;2.394079,0.000014;0.417253;1.003424;0.000000;0.048214;0.071991;0.000022,1,right
40,0.4753739290752416,142.0052114791371,0.13028457775384192,175.2957067429668,4.483120937948115e-05,0.36330586671829224,0.0,0.4285714626312256,0,3,left_arm_joint3,upper,0.011565208435058594,right_arm_joint4,lower,0.0,0.520704;0.899044;0.011565;0.386465;2.113775;1.143273;2.394093,0.000014;0.417714;1.003255;0.000000;0.048071;0.072998;0.000021,1,right
41,0.475503612270792,141.97765097193542,0.13063563015686439,175.50916080596895,4.479715062188916e-05,0.36381131410598755,0.0,0.4285714626312256,0,3,left_arm_joint3,upper,0.011637687683105469,right_arm_joint4,lower,2.384185791015625e-07,0.520801;0.899021;0.011638;0.386455;2.113828;1.143318;2.394105,0.000014;0.418378;1.003030;0.000000;0.047845;0.074790;0.000021,1,right
42,0.4756663960219014,142.00008254979588,0.13098754617685382,175.1856238076581,4.4924872781848535e-05,0.3642207086086273,0.0,0.4285714626312256,0,3,left_arm_joint3,upper,0.01170802116394043,right_arm_joint4,lower,7.152557373046875e-07,0.520897;0.898998;0.011708;0.386443;2.113882;1.143364;2.394120,0.000014;0.419049;1.002804;0.000001;0.047599;0.077443;0.000022,1,right
43,0.47596314172400894,142.04050532228038,0.1309497462070706,175.45554872001847,4.5589040382765234e-05,0.3639393150806427,0.0,0.4285714626312256,0,3,left_arm_joint3,upper,0.01178121566772461,right_arm_joint4,lower,7.152557373046875e-07,0.520993;0.898976;0.011781;0.386432;2.113935;1.143411;2.394135,0.000014;0.419258;1.002750;0.000001;0.047477;0.079257;0.000022,1,right
44,0.47645924494745673,142.04120974475745,0.13032638955332979,175.6458384102713,4.540170994005166e-05,0.36346736550331116,0.0,0.4285714626312256,0,3,left_arm_joint3,upper,0.011852741241455078,right_arm_joint4,lower,4.76837158203125e-07,0.521091;0.898953;0.011853;0.386421;2.113990;1.143457;2.394149,0.000014;0.419204;1.002774;0.000000;0.047505;0.080706;0.000023,1,right
45,0.4768032949477724,141.99213723392663,0.1291083129846021,175.75656519701963,4.520586662692949e-05,0.3620480000972748,0.0,0.4285714626312256,0,3,left_arm_joint3,upper,0.011924505233764648,right_arm_joint4,lower,-2.384185791015625e-07,0.521187;0.898930;0.011925;0.386410;2.114043;1.143505;2.394163,0.000014;0.418565;1.003008;-0.000000;0.047716;0.080260;0.000023,1,right
46,0.4769659380016256,142.0008193562157,0.1278596757097803,175.65641297452296,4.543577233562246e-05,0.3607380986213684,0.0,0.4285714626312256,0,3,left_arm_joint3,upper,0.011996746063232422,right_arm_joint4,lower,4.76837158203125e-07,0.521285;0.898906;0.011997;0.386398;2.114097;1.143550;2.394177,0.000013;0.417556;1.003351;0.000000;0.048078;0.078292;0.000023,1,right
47,0.47703060458688124,142.0248199459333,0.12691264345997844,175.50455216777306,4.577637082547881e-05,0.35978052020072937,0.0,0.4285714626312256,0,3,left_arm_joint3,upper,0.012069225311279297,right_arm_joint4,lower,2.384185791015625e-07,0.521383;0.898884;0.012069;0.386387;2.114150;1.143598;2.394192,0.000014;0.417142;1.003476;0.000000;0.048314;0.076254;0.000022,1,right
48,0.47743728832568144,142.05714199139985,0.12543327150979072,175.2410478408475,4.5333592424867675e-05,0.3584611713886261,0.0,0.4285714626312256,0,3,left_arm_joint3,upper,0.012141227722167969,right_arm_joint4,lower,0.0,0.521481;0.898863;0.012141;0.386376;2.114203;1.143645;2.394207,0.000013;0.416916;1.003544;0.000000;0.048446;0.073137;0.000021,1,right
49,0.4777986641271691,142.1132353880826,0.12410087297011092,174.72667154922226,4.5393197069643065e-05,0.3576466143131256,0.0,0.4285714626312256,0,3,left_arm_joint3,upper,0.012214183807373047,right_arm_joint4,lower,2.384185791015625e-07,0.521578;0.898840;0.012214;0.386366;2.114258;1.143691;2.394222,0.000013;0.416377;1.003721;0.000000;0.048593;0.069054;0.000022,1,right
50,0.47809289306926117,142.18544825201667,0.123167023297552,174.59758456063133,4.598924351739697e-05,0.35737502574920654,0.0,0.4285714626312256,0,3,left_arm_joint3,upper,0.01228785514831543,right_arm_joint4,lower,-2.384185791015625e-07,0.521676;0.898816;0.012288;0.386354;2.114312;1.143738;2.394234,0.000013;0.416137;1.003788;-0.000000;0.048675;0.065526;0.000022,1,right
51,0.4782592510549018,142.2406047186318,0.12256493268441149,174.83870101466186,4.555498162517324e-05,0.3575974404811859,0.0,0.4285714626312256,0,3,left_arm_joint3,upper,0.012359857559204102,right_arm_joint4,lower,0.0,0.521775;0.898794;0.012360;0.386343;2.114367;1.143785;2.394248,0.000014;0.416251;1.003731;0.000000;0.048642;0.062756;0.000022,1,right
52,0.47836380936087014,142.15618683290987,0.12290839708574212,176.19607020524757,4.598072700900957e-05,0.3589368760585785,0.0,0.4285714626312256,0,3,left_arm_joint3,upper,0.012433052062988281,right_arm_joint4,lower,0.0,0.521873;0.898770;0.012433;0.386331;2.114421;1.143831;2.394262,0.000014;0.416646;1.003579;0.000000;0.048473;0.061964;0.000023,1,right
53,0.47849497544835873,142.08553063608176,0.12317578575220611,154.99942140081978,4.598924351739697e-05,0.35925737023353577,0.0,0.4285714626312256,0,3,left_arm_joint3,upper,0.012505769729614258,right_arm_joint4,lower,0.0,0.521971;0.898747;0.012506;0.386319;2.114475;1.143880;2.394276,0.000013;0.416474;1.003631;0.000000;0.048378;0.062067;0.000024,1,right
54,0.47865165762809386,142.04418931620233,0.12357192105065964,178.71235255507486,4.604884816217236e-05,0.3598190248012543,0.0,0.4285714626312256,0,3,left_arm_joint3,upper,0.012578248977661133,right_arm_joint4,lower,0.0,0.522069;0.898724;0.012578;0.386308;2.114529;1.143927;2.394291,0.000014;0.416592;1.003575;0.000000;0.048347;0.063445;0.000026,1,right
55,0.4788546041408706,141.99108524166687,0.12404146398020716,157.67947841356965,4.57848836958874e-05,0.3600984513759613,0.0,0.4285714626312256,0,3,left_arm_joint3,upper,0.012651681900024414,right_arm_joint4,lower,4.76837158203125e-07,0.522167;0.898701;0.012652;0.386298;2.114584;1.143974;2.394307,0.000014;0.417315;1.003298;0.000000;0.048149;0.065996;0.000025,1,right
56,0.47917599672120115,141.99589983863513,0.12443088746055833,179.68857410607953,4.621914558811113e-05,0.3589937090873718,0.0,0.4285714626312256,0,3,left_arm_joint3,upper,0.012725591659545898,right_arm_joint4,lower,1.6689300537109375e-06,0.522266;0.898679;0.012726;0.386286;2.114638;1.144020;2.394322,0.000011;0.418151;1.001577;0.000002;0.046565;0.067631;0.000023,1,right
57,0.4795840412667089,141.9922915688989,0.12472265153406925,179.18943934503312,4.629577961168252e-05,0.3579446077346802,0.0,0.4285714626312256,0,3,left_arm_joint3,upper,0.012798309326171875,right_arm_joint4,lower,1.1920928955078125e-06,0.522364;0.898655;0.012798;0.386275;2.114693;1.144069;2.394337,0.000013;0.418790;1.001427;0.000001;0.045350;0.069205;0.000021,1,right
58,0.47995850035907645,142.01579034835137,0.1243753548024634,178.2624685351041,4.590409298543818e-05,0.3563871681690216,0.0,0.4285714626312256,0,3,left_arm_joint3,upper,0.012871742248535156,right_arm_joint4,lower,1.430511474609375e-06,0.522463;0.898632;0.012872;0.386264;2.114748;1.144115;2.394350,0.000014;0.419961;1.001042;0.000001;0.044889;0.070629;0.000020,1,right
59,0.48034361065470027,142.05870476545385,0.12407523655744016,177.20127461577877,4.605736103258096e-05,0.35489001870155334,0.0,0.4285714626312256,0,3,left_arm_joint3,upper,0.012945890426635742,right_arm_joint4,lower,1.9073486328125e-06,0.522563;0.898610;0.012946;0.386253;2.114802;1.144164;2.394363,0.000013;0.420183;1.000982;0.000002;0.044528;0.071114;0.000020,1,right
60,0.4808427145634986,142.03729967027988,0.12271343762947984,176.72246412432295,4.6576773456763476e-05,0.35306987166404724,0.0,0.4285714626312256,0,3,left_arm_joint3,upper,0.013019323348999023,right_arm_joint4,lower,1.9073486328125e-06,0.522662;0.898585;0.013019;0.386241;2.114857;1.144210;2.394378,0.000013;0.418970;1.001440;0.000002;0.044907;0.069737;0.000020,1,right
61,0.4812912132624684,141.99509918493916,0.12160495260637538,176.29221177606038,4.617657032213174e-05,0.3518661558628082,0.0,0.4285714626312256,0,3,left_arm_joint3,upper,0.013093233108520508,right_arm_joint4,lower,1.430511474609375e-06,0.522762;0.898563;0.013093;0.386230;2.114913;1.144258;2.394392,0.000013;0.417755;1.001823;0.000001;0.045583;0.067858;0.000019,1,right
62,0.481618335600675,141.93216817242086,0.12071994243742404,176.0351059235295,4.635538425645791e-05,0.3512590527534485,0.0,0.4285714626312256,0,3,left_arm_joint3,upper,0.013167142868041992,right_arm_joint4,lower,1.1920928955078125e-06,0.522861;0.898538;0.013167;0.386219;2.114968;1.144306;2.394405,0.000013;0.416628;1.002207;0.000001;0.046220;0.066343;0.000019,1,right
63,0.4820351151972968,141.87431246232384,0.12047002642478398,175.97393452873092,4.681519203586504e-05,0.3514162600040436,0.0,0.4285714626312256,0,3,left_arm_joint3,upper,0.013242006301879883,right_arm_joint4,lower,9.5367431640625e-07,0.522961;0.898515;0.013242;0.386207;2.115023;1.144353;2.394420,0.000013;0.416381;1.002257;0.000001;0.046545;0.065773;0.000021,1,right
64,0.4820690619702294,141.72060031558027,0.1213228164280126,176.12773605488294,4.6142511564539745e-05,0.3527124524116516,0.0,0.4285714626312256,0,3,left_arm_joint3,upper,0.013314962387084961,right_arm_joint4,lower,9.5367431640625e-07,0.523060;0.898493;0.013315;0.386196;2.115077;1.144403;2.394432,0.000013;0.417855;1.001719;0.000001;0.046106;0.067538;0.000021,1,right
65,0.4820814657163184,141.61678368625928,0.12240761393072025,176.36810148776527,4.668746987590566e-05,0.35308995842933655,0.0,0.4285714626312256,0,3,left_arm_joint3,upper,0.013389110565185547,right_arm_joint4,lower,1.1920928955078125e-06,0.523160;0.898468;0.013389;0.386184;2.115133;1.144450;2.394446,0.000013;0.419898;1.001032;0.000001;0.045094;0.070385;0.000021,1,right
66,0.4818483511942596,141.5551837309367,0.12361890945575696,176.5695206234305,4.6491626562783495e-05,0.35292941331863403,0.0,0.4285714626312256,0,3,left_arm_joint3,upper,0.013463020324707031,right_arm_joint4,lower,1.1920928955078125e-06,0.523260;0.898445;0.013463;0.386173;2.115188;1.144498;2.394461,0.000014;0.421844;1.000395;0.000001;0.043979;0.073134;0.000020,1,right
67,0.4815520454975349,141.50848571621935,0.12548340674243422,176.69780458281426,4.676410389947705e-05,0.35398146510124207,0.0,0.4285714626312256,0,3,left_arm_joint3,upper,0.01353764533996582,right_arm_joint4,lower,1.9073486328125e-06,0.523360;0.898422;0.013538;0.386162;2.115244;1.144545;2.394476,0.000013;0.424291;0.997359;0.000002;0.043173;0.078459;0.000018,1,right
68,0.481138468915181,141.56910833328928,0.12798178964076515,176.7167061273545,4.675558739108965e-05,0.3553754985332489,0.0,0.4285714626312256,0,3,left_arm_joint3,upper,0.013611555099487305,right_arm_joint4,lower,2.86102294921875e-06,0.523460;0.898397;0.013612;0.386150;2.115299;1.144593;2.394490,0.000010;0.434352;0.991982;0.000003;0.043230;0.084516;0.000019,1,right
69,0.4804446042822783,141.56923631417337,0.13012260849359938,175.69491385324656,4.617657032213174e-05,0.356791228055954,0.0,0.4285714626312256,0,3,left_arm_joint3,upper,0.013686418533325195,right_arm_joint4,lower,3.5762786865234375e-06,0.523560;0.898375;0.013686;0.386139;2.115355;1.144643;2.394500,0.000012;0.445680;0.980954;0.000004;0.043854;0.093062;0.000020,1,right
70,0.48009153267182625,141.5291903777848,0.13098821005644387,175.24686796902768,4.631281262845732e-05,0.35651862621307373,0.0,0.4285714626312256,0,3,left_arm_joint3,upper,0.013761043548583984,right_arm_joint4,lower,2.6226043701171875e-06,0.523661;0.898351;0.013761;0.386127;2.115410;1.144689;2.394511,0.000010;0.458426;0.972607;0.000003;0.046128;0.102247;0.000014,1,right
71,0.47980410645694305,141.4943005156532,0.13104323131899284,174.31691966896315,4.6976976591395214e-05,0.35514703392982483,0.0,0.4285714626312256,0,3,left_arm_joint3,upper,0.013835430145263672,right_arm_joint4,lower,2.384185791015625e-06,0.523762;0.898328;0.013835;0.386116;2.115466;1.144737;2.394526,0.000007;0.472422;0.965163;0.000002;0.046690;0.107159;0.000018,1,right
72,0.4797031007955068,141.46465914088526,0.1314620357191563,173.87935578112834,4.737717972602695e-05,0.356797993183136,0.0,0.4285714626312256,0,3,left_arm_joint3,upper,0.013911008834838867,right_arm_joint4,lower,2.86102294921875e-06,0.523862;0.898303;0.013911;0.386104;2.115522;1.144785;2.394540,0.000011;0.478767;0.958122;0.000003;0.047276;0.113750;0.000010,1,right
73,0.479580064707761,141.39351204478803,0.13175221414102675,173.66721711473585,4.6951430704211816e-05,0.3563823997974396,0.0,0.4285714626312256,0,3,left_arm_joint3,upper,0.013985157012939453,right_arm_joint4,lower,3.5762786865234375e-06,0.523963;0.898280;0.013985;0.386093;2.115578;1.144834;2.394555,0.000012;0.480692;0.956086;0.000004;0.047318;0.118399;0.000010,1,right
74,0.47960172422968494,141.34042121308025,0.1321097150399613,173.3159146538537,4.739420910482295e-05,0.35496434569358826,0.0,0.4285714626312256,0,3,left_arm_joint3,upper,0.01406097412109375,right_arm_joint4,lower,3.5762786865234375e-06,0.524064;0.898256;0.014061;0.386081;2.115634;1.144883;2.394568,0.000011;0.487382;0.950362;0.000004;0.047986;0.119796;0.000017,1,right
75,0.4797301890772655,141.2440982238753,0.13284842149190038,173.31009796821272,4.734312096843496e-05,0.3560931384563446,0.0,0.4285714626312256,0,3,left_arm_joint3,upper,0.014137029647827148,right_arm_joint4,lower,1.9073486328125e-06,0.524166;0.898232;0.014137;0.386069;2.115690;1.144931;2.394583,0.000016;0.493469;0.944662;0.000002;0.049120;0.120549;0.000005,1,right
76,0.479561609536139,141.11650323561048,0.13313073703266842,173.577667642209,4.713024463853799e-05,0.3559305965900421,0.0,0.4285714626312256,0,3,left_arm_joint3,upper,0.014211893081665039,right_arm_joint4,lower,3.0994415283203125e-06,0.524267;0.898208;0.014212;0.386058;2.115746;1.144980;2.394596,0.000009;0.505158;0.937960;0.000003;0.046966;0.121842;0.000006,1,right
77,0.479402736724995,141.03211780241506,0.13383404559374149,174.28914251585954,4.751341839437373e-05,0.3568740785121918,0.0,0.4285714626312256,0,3,left_arm_joint3,upper,0.014287948608398438,right_arm_joint4,lower,2.86102294921875e-06,0.524369;0.898184;0.014288;0.386046;2.115803;1.145029;2.394609,0.000011;0.507638;0.935877;0.000003;0.045737;0.123169;0.000005,1,right
78,0.4792657875400467,141.00771224383382,0.1343867883989439,174.91252187812913,4.745381374959834e-05,0.35643187165260315,0.0,0.4285714626312256,0,3,left_arm_joint3,upper,0.014362573623657227,right_arm_joint4,lower,3.5762786865234375e-06,0.524472;0.898160;0.014363;0.386034;2.115860;1.145079;2.394621,0.000012;0.506675;0.936152;0.000004;0.046098;0.123369;0.000006,1,right
79,0.47916072246673574,141.0268391390487,0.13497320544871783,175.22879864599074,4.747935963678174e-05,0.35600385069847107,0.0,0.4285714626312256,0,3,left_arm_joint3,upper,0.014439105987548828,right_arm_joint4,lower,5.245208740234375e-06,0.524573;0.898136;0.014439;0.386022;2.115916;1.145127;2.394636,0.000014;0.510854;0.932760;0.000005;0.044844;0.124221;0.000008,1,right
80,0.47923158401411897,141.03812553016735,0.13531039675867215,175.01918100410845,4.760708179674111e-05,0.3562379777431488,0.0,0.4285714626312256,0,3,left_arm_joint3,upper,0.014514446258544922,right_arm_joint4,lower,5.0067901611328125e-06,0.524675;0.898112;0.014514;0.386011;2.115972;1.145176;2.394651,0.000010;0.517659;0.926640;0.000005;0.045467;0.124736;0.000006,1,right
81,0.48007489104685686,140.98086267531147,0.13391171296889473,174.95662277925808,4.7292029194068164e-05,0.3552783131599426,0.0,0.4285714626312256,0,3,left_arm_joint3,upper,0.01459050178527832,right_arm_joint4,lower,3.5762786865234375e-06,0.524778;0.898088;0.014591;0.385999;2.116029;1.145224;2.394665,0.000012;0.526222;0.921243;0.000004;0.045959;0.122056;0.000011,1,right
82,0.48060107255405204,140.86260490649124,0.1340207177379468,175.14249833676217,4.768371945829131e-05,0.35749533772468567,0.0,0.4285714626312256,0,3,left_arm_joint3,upper,0.014666557312011719,right_arm_joint4,lower,5.0067901611328125e-06,0.524879;0.898064;0.014667;0.385988;2.116085;1.145274;2.394679,0.000013;0.526205;0.920293;0.000005;0.046019;0.120158;0.000011,1,right
83,0.48090019383901894,140.837019732659,0.1341931032345761,175.38460253431995,4.7700748837087303e-05,0.3575870096683502,0.0,0.4285714626312256,0,3,left_arm_joint3,upper,0.014741897583007812,right_arm_joint4,lower,4.0531158447265625e-06,0.524981;0.898039;0.014742;0.385976;2.116142;1.145322;2.394693,0.000011;0.524149;0.920828;0.000004;0.047643;0.118355;0.000009,1,right
84,0.48111857327211544,140.8208977411189,0.13460778988540079,175.2734998848007,4.759005241794512e-05,0.35750705003738403,0.0,0.4285714626312256,0,3,left_arm_joint3,upper,0.014818191528320312,right_arm_joint4,lower,3.5762786865234375e-06,0.525084;0.898016;0.014818;0.385965;2.116199;1.145371;2.394708,0.000011;0.528414;0.919130;0.000004;0.046795;0.118591;0.000010,1,right
85,0.48113127961768914,140.78571527623942,0.1349636403635445,175.19910719665094,4.7760353481862694e-05,0.357739120721817,0.0,0.4285714626312256,0,3,left_arm_joint3,upper,0.014893770217895508,right_arm_joint4,lower,3.814697265625e-06,0.525186;0.897992;0.014894;0.385953;2.116255;1.145421;2.394721,0.000010;0.532351;0.916107;0.000004;0.046570;0.118883;0.000013,1,right
86,0.4810994492080649,140.72038508321054,0.13545177916839352,175.04638679938,4.7666686441516504e-05,0.3586322069168091,0.0,0.4285714626312256,0,3,left_arm_joint3,upper,0.014969825744628906,right_arm_joint4,lower,3.337860107421875e-06,0.525288;0.897967;0.014970;0.385941;2.116312;1.145469;2.394734,0.000009;0.534463;0.912592;0.000003;0.047214;0.119451;0.000011,1,right
87,0.4809019749062279,140.67335200677962,0.1356427026438722,175.16698421270198,4.7240941057680175e-05,0.3584529459476471,0.0,0.4285714626312256,0,3,left_arm_joint3,upper,0.015046358108520508,right_arm_joint4,lower,1.9073486328125e-06,0.525391;0.897943;0.015046;0.385929;2.116369;1.145518;2.394744,0.000010;0.534323;0.912031;0.000002;0.047261;0.120458;0.000010,1,right
88,0.4808594103356018,140.58037494913148,0.1357125335975496,175.3197741436406,4.777738286065869e-05,0.35834845900535583,0.0,0.4285714626312256,0,3,left_arm_joint3,upper,0.015122652053833008,right_arm_joint4,lower,2.6226043701171875e-06,0.525494;0.897918;0.015123;0.385917;2.116426;1.145568;2.394756,0.000012;0.531189;0.912754;0.000003;0.047703;0.121236;0.000009,1,right
89,0.48081436412119855,140.54159604227132,0.1355946092581789,175.38894980269131,4.8305308155249804e-05,0.35656264424324036,0.0,0.4285714626312256,0,3,left_arm_joint3,upper,0.015199661254882812,right_arm_joint4,lower,2.384185791015625e-06,0.525597;0.897894;0.015200;0.385906;2.116484;1.145617;2.394771,0.000010;0.533939;0.912051;0.000002;0.047283;0.121951;0.000010,1,right
90,0.4806428745843534,140.5441902169349,0.13551529076828253,175.47943741138863,4.7470843128394336e-05,0.35652226209640503,0.0,0.4285714626312256,0,3,left_arm_joint3,upper,0.015275955200195312,right_arm_joint4,lower,2.1457672119140625e-06,0.525701;0.897871;0.015276;0.385894;2.116540;1.145667;2.394782,0.000012;0.531822;0.912614;0.000002;0.047438;0.121795;0.000009,1,right
91,0.48061398356386664,140.56148641222518,0.13534126242241698,175.5103011567321,4.829679528484121e-05,0.3556724190711975,0.0,0.4285714626312256,0,3,left_arm_joint3,upper,0.01535344123840332,right_arm_joint4,lower,3.0994415283203125e-06,0.525804;0.897845;0.015353;0.385882;2.116598;1.145716;2.394796,0.000010;0.533116;0.912231;0.000003;0.047416;0.120924;0.000010,1,right
92,0.480597310793105,140.5591878120395,0.1350332230899205,175.33813820382593,4.816906948690303e-05,0.3559038043022156,0.0,0.4285714626312256,0,3,left_arm_joint3,upper,0.015430688858032227,right_arm_joint4,lower,2.86102294921875e-06,0.525907;0.897821;0.015431;0.385870;2.116656;1.145765;2.394808,0.000011;0.532481;0.912445;0.000003;0.047358;0.119664;0.000009,1,right
93,0.48069002719206205,140.54935008620544,0.13480713384269796,175.1378537405996,4.792213803739287e-05,0.3556511700153351,0.0,0.4285714626312256,0,3,left_arm_joint3,upper,0.01550745964050293,right_arm_joint4,lower,3.0994415283203125e-06,0.526013;0.897797;0.015507;0.385859;2.116714;1.145816;2.394819,0.000012;0.532707;0.912370;0.000003;0.047443;0.118401;0.000010,1,right
94,0.48059270049035036,140.49051969198575,0.13477876739540942,175.0561682766919,4.844154682359658e-05,0.3562941253185272,0.0,0.4285714626312256,0,3,left_arm_joint3,upper,0.015584707260131836,right_arm_joint4,lower,2.86102294921875e-06,0.526115;0.897771;0.015585;0.385847;2.116772;1.145865;2.394832,0.000010;0.532876;0.912349;0.000003;0.047374;0.117968;0.000010,1,right
95,0.48064023318299753,140.46781672668988,0.13468451742022408,175.19598455129224,4.822867413167842e-05,0.35624969005584717,0.0,0.4285714626312256,0,3,left_arm_joint3,upper,0.01566171646118164,right_arm_joint4,lower,3.337860107421875e-06,0.526219;0.897746;0.015662;0.385834;2.116829;1.145915;2.394845,0.000012;0.532708;0.912391;0.000003;0.047428;0.117327;0.000009,1,right
96,0.4807613565388288,140.42388233931848,0.13493661376923058,175.44414895684244,4.8305308155249804e-05,0.357110857963562,0.0,0.4285714626312256,0,3,left_arm_joint3,upper,0.015738725662231445,right_arm_joint4,lower,3.0994415283203125e-06,0.526322;0.897722;0.015739;0.385822;2.116887;1.145965;2.394859,0.000011;0.532928;0.912329;0.000003;0.047402;0.117754;0.000009,1,right
97,0.4807666792394345,140.39809773766277,0.13492921542930314,175.78920473027796,4.800728493137285e-05,0.3571628928184509,0.0,0.4285714626312256,0,3,left_arm_joint3,upper,0.01581573486328125,right_arm_joint4,lower,2.86102294921875e-06,0.526426;0.897698;0.015816;0.385811;2.116944;1.146014;2.394872,0.000011;0.532759;0.912372;0.000003;0.047411;0.118061;0.000009,1,right
98,0.48090820714381816,140.38982743446581,0.1351211118663635,176.21255331304081,4.826273288927041e-05,0.35773178935050964,0.0,0.4285714626312256,0,3,left_arm_joint3,upper,0.015892505645751953,right_arm_joint4,lower,3.0994415283203125e-06,0.526531;0.897673;0.015893;0.385798;2.117002;1.146065;2.394882,0.000012;0.532804;0.912346;0.000003;0.047410;0.118922;0.000009,1,right
99,0.48107252252167126,140.41202535515723,0.1354214265503183,176.543398079805,4.8688481911085546e-05,0.35890430212020874,0.0,0.4285714626312256,0,3,left_arm_joint3,upper,0.01597142219543457,right_arm_joint4,lower,3.0994415283203125e-06,0.526635;0.897648;0.015971;0.385787;2.117060;1.146114;2.394896,0.000012;0.532741;0.912344;0.000003;0.047400;0.120598;0.000009,1,right
100,0.48132648627660113,140.45951760978303,0.13537934017516798,176.78749257471085,4.89609592477791e-05,0.3587571084499359,0.0,0.4285714626312256,0,3,left_arm_joint3,upper,0.016048669815063477,right_arm_joint4,lower,3.0994415283203125e-06,0.526741;0.897623;0.016049;0.385774;2.117119;1.146165;2.394909,0.000011;0.532654;0.912359;0.000003;0.047407;0.121566;0.000008,1,right
101,0.4815767948909487,140.49881530783776,0.13548830417968138,176.85571065822865,4.869699841947295e-05,0.35914546251296997,0.0,0.4285714626312256,0,3,left_arm_joint3,upper,0.016126632690429688,right_arm_joint4,lower,3.337860107421875e-06,0.526845;0.897598;0.016127;0.385762;2.117177;1.146215;2.394923,0.000012;0.532680;0.912336;0.000003;0.047401;0.122867;0.000007,1,right
102,0.4816245718886159,140.53971409146823,0.13548506517542477,176.99469659373779,4.8628877266310155e-05,0.3590381443500519,0.0,0.4285714626312256,0,3,left_arm_joint3,upper,0.016205549240112305,right_arm_joint4,lower,3.0994415283203125e-06,0.526949;0.897574;0.016206;0.385752;2.117235;1.146265;2.394937,0.000011;0.532631;0.912345;0.000003;0.047400;0.123918;0.000007,1,right
103,0.48178076969218736,140.5680057944634,0.135448073421399,176.9572437739604,4.927601185045205e-05,0.3589957654476166,0.0,0.4285714626312256,0,3,left_arm_joint3,upper,0.01628279685974121,right_arm_joint4,lower,2.86102294921875e-06,0.527055;0.897549;0.016283;0.385739;2.117294;1.146316;2.394951,0.000011;0.532648;0.912337;0.000003;0.047402;0.124847;0.000007,1,right
104,0.4819327478912124,140.5628117646284,0.13517344825747438,176.45351663552788,4.89950216433499e-05,0.3587247431278229,0.0,0.4285714626312256,0,3,left_arm_joint3,upper,0.016360998153686523,right_arm_joint4,lower,3.0994415283203125e-06,0.527159;0.897524;0.016361;0.385727;2.117353;1.146366;2.394966,0.000011;0.532658;0.912333;0.000003;0.047396;0.125603;0.000008,1,right
105,0.48201835139261423,140.56996098521245,0.13481739804370366,175.9660716771733,4.909719791612588e-05,0.3582631051540375,0.0,0.4285714626312256,0,3,left_arm_joint3,upper,0.01643967628479004,right_arm_joint4,lower,3.0994415283203125e-06,0.527265;0.897499;0.016440;0.385715;2.117411;1.146416;2.394979,0.000011;0.532642;0.912336;0.000003;0.047405;0.125755;0.000008,1,right
106,0.482050600585187,140.5542129921664,0.1343860366198259,175.40460611012972,4.915680256090127e-05,0.35790902376174927,0.0,0.4285714626312256,0,3,left_arm_joint3,upper,0.01651740074157715,right_arm_joint4,lower,3.0994415283203125e-06,0.527371;0.897474;0.016517;0.385703;2.117470;1.146467;2.394994,0.000011;0.532662;0.912332;0.000003;0.047402;0.125381;0.000009,1,right
107,0.48211908585829555,140.55199560661012,0.13405443908043008,175.2185366420346,4.904610977973789e-05,0.3578862249851227,0.0,0.4285714626312256,0,3,left_arm_joint3,upper,0.016595840454101562,right_arm_joint4,lower,2.86102294921875e-06,0.527477;0.897450;0.016596;0.385691;2.117528;1.146518;2.395007,0.000011;0.532641;0.912341;0.000003;0.047406;0.124452;0.000008,1,right
108,0.4822659408937039,140.55155962770033,0.13397641476883856,175.44581609128477,4.925046960124746e-05,0.3580932915210724,0.0,0.4285714626312256,0,3,left_arm_joint3,upper,0.016674518585205078,right_arm_joint4,lower,3.0994415283203125e-06,0.527583;0.897424;0.016675;0.385678;2.117587;1.146568;2.395020,0.000011;0.532665;0.912335;0.000003;0.047409;0.124037;0.000008,1,right
109,0.48225793900197483,140.53744389437816,0.13381282760829993,176.0153901900724,4.968473149347119e-05,0.3578552305698395,0.0,0.4285714626312256,0,3,left_arm_joint3,upper,0.016753673553466797,right_arm_joint4,lower,3.337860107421875e-06,0.527688;0.897398;0.016754;0.385666;2.117646;1.146619;2.395035,0.000011;0.532651;0.912342;0.000003;0.047408;0.123740;0.000007,1,right
110,0.4822840894929755,140.53611082934268,0.13380554301221123,176.70519551850614,4.9412254156777635e-05,0.358067125082016,0.0,0.4285714626312256,0,3,left_arm_joint3,upper,0.01683187484741211,right_arm_joint4,lower,3.0994415283203125e-06,0.527794;0.897372;0.016832;0.385654;2.117704;1.146670;2.395049,0.000011;0.532664;0.912336;0.000003;0.047411;0.123870;0.000008,1,right
111,0.48234217977979094,140.53221338190548,0.13376120763161856,177.3893830169537,4.923344022245146e-05,0.3582066297531128,0.0,0.4285714626312256,0,3,left_arm_joint3,upper,0.01691150665283203,right_arm_joint4,lower,3.337860107421875e-06,0.527900;0.897347;0.016912;0.385642;2.117764;1.146720;2.395061,0.000011;0.532663;0.912336;0.000003;0.047410;0.124060;0.000008,1,right
112,0.48234730491486544,140.5450552812578,0.13387534291049005,177.91041096572397,4.933561649522744e-05,0.35832005739212036,0.0,0.4285714626312256,0,3,left_arm_joint3,upper,0.016990184783935547,right_arm_joint4,lower,2.86102294921875e-06,0.528006;0.897322;0.016990;0.385630;2.117824;1.146771;2.395074,0.000012;0.532655;0.912336;0.000003;0.047415;0.124432;0.000008,1,right
113,0.4822264423778135,140.5672047706063,0.1340176928079847,178.29789129863624,4.956552220392041e-05,0.358100563287735,0.0,0.4285714626312256,0,3,left_arm_joint3,upper,0.017069101333618164,right_arm_joint4,lower,3.337860107421875e-06,0.528113;0.897297;0.017069;0.385618;2.117882;1.146822;2.395088,0.000011;0.532661;0.912333;0.000003;0.047409;0.125159;0.000008,1,right
114,0.4820145975661856,140.59116786653593,0.13442468793744827,178.5477389041308,4.9531463446328416e-05,0.3579453229904175,0.0,0.4285714626312256,0,3,left_arm_joint3,upper,0.01714777946472168,right_arm_joint4,lower,2.86102294921875e-06,0.528220;0.897273;0.017148;0.385605;2.117942;1.146874;2.395101,0.000011;0.532644;0.912335;0.000003;0.047408;0.126658;0.000008,1,right
115,0.4817601649173715,140.63842394283174,0.13454641686926616,178.55801379375936,5.008493462810293e-05,0.3571852445602417,0.0,0.4285714626312256,0,3,left_arm_joint3,upper,0.017227649688720703,right_arm_joint4,lower,2.86102294921875e-06,0.528327;0.897247;0.017228;0.385592;2.118001;1.146926;2.395115,0.000011;0.532657;0.912331;0.000003;0.047404;0.128104;0.000009,1,right
116,0.48186196976102336,140.6492683441804,0.1345220726686142,178.12998039045394,4.95995809615124e-05,0.35630425810813904,0.0,0.4285714626312256,0,3,left_arm_joint3,upper,0.017307281494140625,right_arm_joint4,lower,2.86102294921875e-06,0.528434;0.897220;0.017307;0.385581;2.118061;1.146975;2.395128,0.000011;0.532638;0.912336;0.000003;0.047405;0.129234;0.000009,1,right
117,0.48183439028694564,140.6123444796466,0.13433166949284886,177.83686089284524,5.008493462810293e-05,0.35531264543533325,0.0,0.4285714626312256,0,3,left_arm_joint3,upper,0.017387866973876953,right_arm_joint4,lower,3.0994415283203125e-06,0.528540;0.897195;0.017388;0.385568;2.118121;1.147027;2.395142,0.000012;0.532647;0.912333;0.000003;0.047403;0.129239;0.000008,1,right
118,0.481867302510801,140.55243447195267,0.13400938141534843,177.46387953336097,4.982948667020537e-05,0.3547680675983429,0.0,0.4285714626312256,0,3,left_arm_joint3,upper,0.01746654510498047,right_arm_joint4,lower,2.86102294921875e-06,0.528648;0.897169;0.017467;0.385556;2.118181;1.147079;2.395156,0.000011;0.532633;0.912338;0.000003;0.047401;0.128522;0.000007,1,right
119,0.4817785417889763,140.5161955043044,0.13416951321251697,177.4516710110507,5.000830060453154e-05,0.3545322120189667,0.0,0.4285714626312256,0,3,left_arm_joint3,upper,0.017546653747558594,right_arm_joint4,lower,2.384185791015625e-06,0.528756;0.897144;0.017547;0.385544;2.118241;1.147130;2.395169,0.000011;0.532627;0.912341;0.000002;0.047400;0.128516;0.000006,1,right
120,0.4817241418354679,140.56649616414688,0.13430567711305424,177.53204813248396,5.034889545640908e-05,0.35386422276496887,0.0,0.4285714626312256,0,3,left_arm_joint3,upper,0.01762700080871582,right_arm_joint4,lower,2.86102294921875e-06,0.528863;0.897118;0.017627;0.385531;2.118300;1.147182;2.395183,0.000012;0.532618;0.912344;0.000003;0.047396;0.128576;0.000006,1,right
121,0.48143023409191205,140.63577513085133,0.13466389538285797,177.5985415325317,5.051919652032666e-05,0.35376569628715515,0.0,0.4285714626312256,0,3,left_arm_joint3,upper,0.01770758628845215,right_arm_joint4,lower,2.6226043701171875e-06,0.528971;0.897091;0.017708;0.385518;2.118361;1.147233;2.395196,0.000011;0.532614;0.912346;0.000003;0.047395;0.129508;0.000007,1,right
122,0.4812544646190704,140.682282033469,0.1351299984852034,177.75472928829714,4.934413300361484e-05,0.3538222014904022,0.0,0.4285714626312256,0,3,left_arm_joint3,upper,0.01778721809387207,right_arm_joint4,lower,2.384185791015625e-06,0.529079;0.897066;0.017787;0.385506;2.118421;1.147285;2.395205,0.000011;0.532618;0.912344;0.000002;0.047395;0.131062;0.000008,1,right
123,0.4810020317174885,140.72272233151793,0.1356603847979173,177.8367206697607,5.013602276449092e-05,0.3538033068180084,0.0,0.4285714626312256,0,3,left_arm_joint3,upper,0.017867565155029297,right_arm_joint4,lower,2.384185791015625e-06,0.529188;0.897041;0.017868;0.385495;2.118481;1.147336;2.395220,0.000011;0.532615;0.912345;0.000002;0.047390;0.133162;0.000008,1,right
124,0.4804140971304045,140.77676221565298,0.1361937041011678,177.66593892584427,5.02296861668583e-05,0.3534949719905853,0.0,0.4285714626312256,0,3,left_arm_joint3,upper,0.01794910430908203,right_arm_joint4,lower,2.86102294921875e-06,0.529297;0.897014;0.017949;0.385483;2.118542;1.147388;2.395230,0.000011;0.532614;0.912345;0.000003;0.047388;0.134875;0.000008,1,right
125,0.4798418580770693,140.79468747068904,0.13645682342501123,177.38098425677015,5.031483669881709e-05,0.35289403796195984,0.0,0.4285714626312256,0,3,left_arm_joint3,upper,0.018028974533081055,right_arm_joint4,lower,2.86102294921875e-06,0.529405;0.896989;0.018029;0.385469;2.118602;1.147441;2.395241,0.000012;0.532613;0.912344;0.000003;0.047383;0.135388;0.000009,1,right
126,0.47936778097274135,140.81573752880365,0.13665251107794127,176.93970788335739,5.0646918680286035e-05,0.35236856341362,0.0,0.4285714626312256,0,3,left_arm_joint3,upper,0.018110036849975586,right_arm_joint4,lower,2.6226043701171875e-06,0.529515;0.896964;0.018110;0.385457;2.118663;1.147493;2.395256,0.000012;0.532591;0.912351;0.000003;0.047382;0.135262;0.000008,1,right
127,0.47909184678360833,140.81429799565646,0.13656852679673742,176.47125979932528,5.0800190365407616e-05,0.351911723613739,0.0,0.4285714626312256,0,3,left_arm_joint3,upper,0.01819014549255371,right_arm_joint4,lower,3.0994415283203125e-06,0.529623;0.896937;0.018190;0.385445;2.118723;1.147545;2.395270,0.000012;0.532599;0.912350;0.000003;0.047378;0.134091;0.000008,1,right
128,0.4788592752743437,140.73491422639813,0.13661020346571184,175.70976896204007,5.113227234687656e-05,0.3518127501010895,0.0,0.4285714626312256,0,3,left_arm_joint3,upper,0.018271923065185547,right_arm_joint4,lower,3.0994415283203125e-06,0.529731;0.896910;0.018272;0.385432;2.118785;1.147597;2.395285,0.000011;0.532578;0.912357;0.000003;0.047376;0.133377;0.000008,1,right
129,0.47857650624612735,140.65880252482495,0.13678858708231567,174.99091422329536,5.057880116510205e-05,0.35214680433273315,0.0,0.4285714626312256,0,3,left_arm_joint3,upper,0.01835346221923828,right_arm_joint4,lower,2.86102294921875e-06,0.529840;0.896885;0.018353;0.385420;2.118845;1.147650;2.395299,0.000012;0.532596;0.912351;0.000003;0.047375;0.133138;0.000008,1,right
130,0.478529776395778,140.6455628310532,0.13700583192342763,174.35461471693128,5.0561771786306053e-05,0.3527525067329407,0.0,0.4285714626312256,0,3,left_arm_joint3,upper,0.01843404769897461,right_arm_joint4,lower,2.86102294921875e-06,0.529950;0.896858;0.018434;0.385407;2.118906;1.147702;2.395309,0.000012;0.532589;0.912354;0.000003;0.047375;0.133771;0.000008,1,right
131,0.4783020814346583,140.660547194482,0.13727924601776642,174.00084147753242,5.0732069212244824e-05,0.3527607321739197,0.0,0.4285714626312256,0,3,left_arm_joint3,upper,0.018515825271606445,right_arm_joint4,lower,2.384185791015625e-06,0.530059;0.896831;0.018516;0.385394;2.118967;1.147755;2.395320,0.000012;0.532593;0.912351;0.000002;0.047376;0.134749;0.000008,1,right
132,0.4783220845380015,140.78286843017585,0.13711547159485055,173.5076472896711,5.046810474595986e-05,0.35226866602897644,0.0,0.4285714626312256,0,3,left_arm_joint3,upper,0.018597841262817383,right_arm_joint4,lower,2.86102294921875e-06,0.530169;0.896806;0.018598;0.385381;2.119029;1.147806;2.395330,0.000012;0.532592;0.912353;0.000003;0.047375;0.135097;0.000008,1,right
133,0.47816869894447267,140.86601520159923,0.13682113877847848,173.128045092462,5.1115242968080565e-05,0.35150542855262756,0.0,0.4285714626312256,0,3,left_arm_joint3,upper,0.01867985725402832,right_arm_joint4,lower,2.6226043701171875e-06,0.530279;0.896779;0.018680;0.385370;2.119090;1.147858;2.395344,0.000012;0.532582;0.912356;0.000003;0.047376;0.134628;0.000007,1,right
134,0.4780191543549497,140.93142743200252,0.1367182102837812,173.06163718804416,5.092791252536699e-05,0.3513101041316986,0.0,0.4285714626312256,0,3,left_arm_joint3,upper,0.01876091957092285,right_arm_joint4,lower,2.6226043701171875e-06,0.530389;0.896754;0.018761;0.385357;2.119152;1.147912;2.395356,0.000011;0.532583;0.912355;0.000003;0.047374;0.133885;0.000008,1,right
135,0.4778683948936414,140.98501305798047,0.136675349385847,173.09007868225487,5.121742287883535e-05,0.35113927721977234,0.0,0.4285714626312256,0,3,left_arm_joint3,upper,0.018842458724975586,right_arm_joint4,lower,2.384185791015625e-06,0.530499;0.896727;0.018842;0.385343;2.119213;1.147965;2.395368,0.000012;0.532576;0.912359;0.000002;0.047374;0.133466;0.000008,1,right
136,0.4777986485127332,141.08879534288874,0.13670140919671767,172.81762173142275,5.0766127969836816e-05,0.3514634072780609,0.0,0.4285714626312256,0,3,left_arm_joint3,upper,0.018924474716186523,right_arm_joint4,lower,3.0994415283203125e-06,0.530610;0.896700;0.018924;0.385331;2.119274;1.148017;2.395379,0.000012;0.532578;0.912359;0.000003;0.047373;0.132850;0.000009,1,right
137,0.4776928938740346,141.18003023698515,0.1366531653905227,172.55149620068224,5.121742287883535e-05,0.35152095556259155,0.0,0.4285714626312256,0,3,left_arm_joint3,upper,0.01900625228881836,right_arm_joint4,lower,2.6226043701171875e-06,0.530720;0.896673;0.019006;0.385319;2.119336;1.148070;2.395392,0.000012;0.532570;0.912360;0.000003;0.047374;0.131855;0.000008,1,right
138,0.4776131469927835,141.25418116844307,0.1365724325774419,172.29595948228615,5.1055638323305175e-05,0.3517663776874542,0.0,0.4285714626312256,0,3,left_arm_joint3,upper,0.0190885066986084,right_arm_joint4,lower,2.86102294921875e-06,0.530830;0.896646;0.019089;0.385306;2.119397;1.148123;2.395402,0.000012;0.532573;0.912359;0.000003;0.047373;0.130917;0.000008,1,right
139,0.477619875139919,141.29765335159988,0.13644545307430592,172.31808193373286,5.188158684177324e-05,0.35171884298324585,0.0,0.4285714626312256,0,3,left_arm_joint3,upper,0.01917123794555664,right_arm_joint4,lower,2.384185791015625e-06,0.530941;0.896619;0.019171;0.385293;2.119460;1.148176;2.395416,0.000012;0.532564;0.912362;0.000002;0.047373;0.129745;0.000009,1,right
140,0.47777604960841485,141.30968723016846,0.13625633686300057,172.3741335480808,5.120890637044795e-05,0.35169336199760437,0.0,0.4285714626312256,0,3,left_arm_joint3,upper,0.019253969192504883,right_arm_joint4,lower,2.384185791015625e-06,0.531052;0.896594;0.019254;0.385281;2.119522;1.148228;2.395430,0.000012;0.532563;0.912363;0.000002;0.047376;0.128809;0.000009,1,right
141,0.4779489241175782,141.30506721768947,0.1361049794160683,172.43135095335438,5.1745348173426464e-05,0.35164111852645874,0.0,0.4285714626312256,0,3,left_arm_joint3,upper,0.019336462020874023,right_arm_joint4,lower,2.86102294921875e-06,0.531163;0.896567;0.019336;0.385267;2.119584;1.148282;2.395442,0.000012;0.532559;0.912366;0.000003;0.047374;0.127901;0.000009,1,right
142,0.47803498390620225,141.2611051366597,0.1359455766145785,172.54323040703727,5.1379207434365526e-05,0.3517843782901764,0.0,0.4285714626312256,0,3,left_arm_joint3,upper,0.019418716430664062,right_arm_joint4,lower,2.384185791015625e-06,0.531274;0.896540;0.019419;0.385255;2.119646;1.148335;2.395454,0.000012;0.532566;0.912364;0.000002;0.047375;0.127169;0.000009,1,right
143,0.4780411956852161,141.2184405153247,0.13585947052870742,172.56438436071517,5.1719802286243066e-05,0.35206905007362366,0.0,0.4285714626312256,0,3,left_arm_joint3,upper,0.01950240135192871,right_arm_joint4,lower,2.384185791015625e-06,0.531385;0.896513;0.019502;0.385242;2.119708;1.148388;2.395467,0.000012;0.532561;0.912367;0.000002;0.047376;0.126667;0.000009,1,right
144,0.4780371117699528,141.18840852878634,0.1358655941036954,172.513841584357,5.1549504860304296e-05,0.3524625897407532,0.0,0.4285714626312256,0,3,left_arm_joint3,upper,0.019585132598876953,right_arm_joint4,lower,2.6226043701171875e-06,0.531497;0.896487;0.019585;0.385230;2.119770;1.148442;2.395478,0.000012;0.532570;0.912364;0.000003;0.047378;0.126323;0.000009,1,right
145,0.4781265149483263,141.16975599332253,0.13601385274613645,172.51495353160084,5.201782551012002e-05,0.35289594531059265,0.0,0.4285714626312256,0,3,left_arm_joint3,upper,0.0196683406829834,right_arm_joint4,lower,2.6226043701171875e-06,0.531608;0.896459;0.019668;0.385217;2.119833;1.148494;2.395491,0.000012;0.532571;0.912364;0.000003;0.047378;0.126596;0.000009,1,right
146,0.478212900639001,141.1689902513908,0.13612135731095826,172.53436471729685,5.224773121881299e-05,0.35333696007728577,0.0,0.4285714626312256,0,3,left_arm_joint3,upper,0.019750595092773438,right_arm_joint4,lower,2.86102294921875e-06,0.531720;0.896433;0.019751;0.385204;2.119895;1.148550;2.395506,0.000012;0.532578;0.912361;0.000003;0.047378;0.127222;0.000010,1,right
147,0.4784804597591571,141.16835973150842,0.136107573947563,172.40339797140038,5.209446317167021e-05,0.35307976603507996,0.0,0.4285714626312256,0,3,left_arm_joint3,upper,0.019834041595458984,right_arm_joint4,lower,2.6226043701171875e-06,0.531832;0.896406;0.019834;0.385191;2.119958;1.148603;2.395520,0.000012;0.532579;0.912359;0.000003;0.047380;0.127796;0.000010,1,right
148,0.4786344687366585,141.1786704851525,0.13611332533786444,172.17519119768394,5.21370347996708e-05,0.3534667193889618,0.0,0.4285714626312256,0,3,left_arm_joint3,upper,0.019916534423828125,right_arm_joint4,lower,3.0994415283203125e-06,0.531944;0.896378;0.019917;0.385178;2.120020;1.148656;2.395534,0.000012;0.532592;0.912354;0.000003;0.047381;0.128556;0.000011,1,right
149,0.478766726175325,141.21812439717158,0.13604553783818643,171.92604857815604,5.115781823405996e-05,0.3531649708747864,0.0,0.4285714626312256,0,3,left_arm_joint3,upper,0.020000696182250977,right_arm_joint4,lower,2.384185791015625e-06,0.532056;0.896351;0.020001;0.385166;2.120084;1.148708;2.395542,0.000011;0.532584;0.912356;0.000002;0.047381;0.128804;0.000010,1,right
150,0.4789620438537767,141.25843018669894,0.13608207754967142,171.69913647841136,5.193267861614004e-05,0.3533174693584442,0.0,0.4285714626312256,0,3,left_arm_joint3,upper,0.020084381103515625,right_arm_joint4,lower,3.0994415283203125e-06,0.532169;0.896325;0.020084;0.385153;2.120146;1.148763;2.395552,0.000012;0.532595;0.912353;0.000003;0.047381;0.129425;0.000010,1,right
151,0.4790002445243604,141.2744262443117,0.13615901566679198,171.43930484114065,5.247763328952715e-05,0.3534342050552368,0.0,0.4285714626312256,0,3,left_arm_joint3,upper,0.02016758918762207,right_arm_joint4,lower,2.384185791015625e-06,0.532280;0.896298;0.020168;0.385139;2.120209;1.148817;2.395567,0.000012;0.532589;0.912353;0.000002;0.047382;0.130191;0.000009,1,right
152,0.47901966062832163,141.29036348223434,0.13620790528913002,171.29996671470406,5.2264760597608984e-05,0.3533411920070648,0.0,0.4285714626312256,0,3,left_arm_joint3,upper,0.020251035690307617,right_arm_joint4,lower,2.86102294921875e-06,0.532393;0.896270;0.020251;0.385127;2.120272;1.148872;2.395579,0.000012;0.532599;0.912349;0.000003;0.047383;0.130712;0.000009,1,right
153,0.47905037830294134,141.2950718346675,0.13604459840130992,171.14410890809523,5.243506166152656e-05,0.35303518176078796,0.0,0.4285714626312256,0,3,left_arm_joint3,upper,0.020334720611572266,right_arm_joint4,lower,3.0994415283203125e-06,0.532506;0.896243;0.020335;0.385113;2.120335;1.148926;2.395592,0.000012;0.532591;0.912353;0.000003;0.047382;0.130988;0.000009,1,right
154,0.47902618996493834,141.2971927301232,0.13595255341927898,171.0783031244994,5.254575444268994e-05,0.35283246636390686,0.0,0.4285714626312256,0,3,left_arm_joint3,upper,0.020418882369995117,right_arm_joint4,lower,2.86102294921875e-06,0.532619;0.896216;0.020419;0.385100;2.120398;1.148979;2.395607,0.000012;0.532594;0.912351;0.000003;0.047384;0.130947;0.000008,1,right
155,0.47910519568142673,141.28594509660462,0.1360532665249893,171.08225291873543,5.2273277105996385e-05,0.3532385230064392,0.0,0.4285714626312256,0,3,left_arm_joint3,upper,0.020502328872680664,right_arm_joint4,lower,2.6226043701171875e-06,0.532732;0.896189;0.020502;0.385088;2.120461;1.149034;2.395619,0.000012;0.532606;0.912348;0.000003;0.047381;0.131334;0.000009,1,right
156,0.4790839133203621,141.27884010632204,0.13601449798783366,171.09605782585663,5.223070184001699e-05,0.35287749767303467,0.0,0.4285714626312256,0,3,left_arm_joint3,upper,0.020586729049682617,right_arm_joint4,lower,3.0994415283203125e-06,0.532845;0.896162;0.020587;0.385075;2.120524;1.149088;2.395631,0.000012;0.532591;0.912353;0.000003;0.047383;0.131635;0.000009,1,right
157,0.47921001013427567,141.26977039059082,0.13598669749226808,171.16772130511782,5.298853284330107e-05,0.35277116298675537,0.0,0.4285714626312256,0,3,left_arm_joint3,upper,0.020670413970947266,right_arm_joint4,lower,2.86102294921875e-06,0.532958;0.896134;0.020670;0.385062;2.120588;1.149142;2.395645,0.000012;0.532603;0.912349;0.000003;0.047381;0.131618;0.000008,1,right
158,0.47923590139589567,141.26792375681845,0.13598949998997695,171.26186931854096,5.243506166152656e-05,0.3528989553451538,0.0,0.4285714626312256,0,3,left_arm_joint3,upper,0.02075481414794922,right_arm_joint4,lower,2.6226043701171875e-06,0.533072;0.896107;0.020755;0.385049;2.120651;1.149195;2.395657,0.000012;0.532598;0.912351;0.000003;0.047382;0.131778;0.000009,1,right
159,0.47935615624347583,141.2524729671671,0.1359958283370095,171.24529727045248,5.3022591600893065e-05,0.352914959192276,0.0,0.4285714626312256,0,3,left_arm_joint3,upper,0.020839929580688477,right_arm_joint4,lower,3.0994415283203125e-06,0.533185;0.896079;0.020840;0.385036;2.120715;1.149249;2.395671,0.000012;0.532601;0.912349;0.000003;0.047383;0.131865;0.000009,1,right
160,0.47943991344521436,141.2450839762994,0.1360632631904574,171.2790286904282,5.315883026923984e-05,0.35305869579315186,0.0,0.4285714626312256,0,3,left_arm_joint3,upper,0.020924806594848633,right_arm_joint4,lower,2.6226043701171875e-06,0.533299;0.896052;0.020925;0.385022;2.120778;1.149305;2.395685,0.000012;0.532603;0.912349;0.000003;0.047382;0.132188;0.000008,1,right
161,0.479464649649618,141.25181540378108,0.13619619492062782,171.2071504697093,5.2971503464505076e-05,0.35323232412338257,0.0,0.4285714626312256,0,3,left_arm_joint3,upper,0.021009206771850586,right_arm_joint4,lower,2.6226043701171875e-06,0.533413;0.896024;0.021009;0.385010;2.120842;1.149359;2.395698,0.000012;0.532603;0.912348;0.000003;0.047384;0.132807;0.000008,1,right
162,0.47960983202469504,141.29782165455285,0.13622822612928637,170.91118290596282,5.2962986956117675e-05,0.35310131311416626,0.0,0.4285714626312256,0,3,left_arm_joint3,upper,0.021094560623168945,right_arm_joint4,lower,2.6226043701171875e-06,0.533528;0.895997;0.021095;0.384997;2.120907;1.149412;2.395711,0.000012;0.532608;0.912347;0.000003;0.047383;0.133626;0.000008,1,right
163,0.4796343056835796,141.31289829243917,0.1362178262601332,170.60961227223055,5.355903340387158e-05,0.3528067171573639,0.0,0.4285714626312256,0,3,left_arm_joint3,upper,0.021179676055908203,right_arm_joint4,lower,2.6226043701171875e-06,0.533643;0.895970;0.021180;0.384984;2.120970;1.149469;2.395726,0.000012;0.532606;0.912348;0.000003;0.047384;0.134129;0.000009,1,right
164,0.47972429851251824,141.32187066513956,0.13619946969384136,170.27248069780467,5.337170296115801e-05,0.35314077138900757,0.0,0.4285714626312256,0,3,left_arm_joint3,upper,0.021265029907226562,right_arm_joint4,lower,2.86102294921875e-06,0.533756;0.895940;0.021265;0.384970;2.121035;1.149522;2.395739,0.000011;0.532620;0.912342;0.000003;0.047385;0.134805;0.000009,1,right
165,0.4798009244900634,141.3143519496953,0.13609788577076543,169.99934171582285,5.361012154025957e-05,0.35291340947151184,0.0,0.4285714626312256,0,3,left_arm_joint3,upper,0.021350622177124023,right_arm_joint4,lower,3.337860107421875e-06,0.533871;0.895913;0.021351;0.384957;2.121099;1.149579;2.395753,0.000012;0.532619;0.912343;0.000003;0.047385;0.134873;0.000009,1,right
166,0.47973511311421996,141.31208455537532,0.13607459567689228,169.8661287407783,5.271605186862871e-05,0.3530455529689789,0.0,0.4285714626312256,0,3,left_arm_joint3,upper,0.02143573760986328,right_arm_joint4,lower,2.86102294921875e-06,0.533987;0.895885;0.021436;0.384944;2.121163;1.149633;2.395763,0.000011;0.532619;0.912343;0.000003;0.047386;0.134940;0.000009,1,right
167,0.4797582527024657,141.30673216345784,0.1360108532854892,169.77869901494057,5.3542004025075585e-05,0.3531499207019806,0.0,0.4285714626312256,0,3,left_arm_joint3,upper,0.021521329879760742,right_arm_joint4,lower,2.6226043701171875e-06,0.534102;0.895858;0.021521;0.384931;2.121228;1.149688;2.395777,0.000012;0.532624;0.912341;0.000003;0.047384;0.134858;0.000008,1,right
168,0.47972738135254733,141.3203549218633,0.13588165601547947,169.6684016000196,5.389111538534053e-05,0.3531360924243927,0.0,0.4285714626312256,0,3,left_arm_joint3,upper,0.021607160568237305,right_arm_joint4,lower,2.384185791015625e-06,0.534217;0.895831;0.021607;0.384918;2.121293;1.149743;2.395792,0.000011;0.532622;0.912342;0.000002;0.047387;0.134509;0.000008,1,right
169,0.4796959437782366,141.32074427899332,0.13571864263331043,169.60828937062553,5.4027354053687304e-05,0.3530484139919281,0.0,0.4285714626312256,0,3,left_arm_joint3,upper,0.021692991256713867,right_arm_joint4,lower,2.86102294921875e-06,0.534332;0.895802;0.021693;0.384904;2.121357;1.149798;2.395808,0.000011;0.532621;0.912341;0.000003;0.047386;0.133910;0.000008,1,right
170,0.47969842715873195,141.31884866039752,0.1356233122737345,169.43866251485883,5.425725976238027e-05,0.3529895544052124,0.0,0.4285714626312256,0,3,left_arm_joint3,upper,0.02177906036376953,right_arm_joint4,lower,2.86102294921875e-06,0.534448;0.895773;0.021779;0.384890;2.121422;1.149855;2.395822,0.000011;0.532614;0.912344;0.000003;0.047388;0.133549;0.000008,1,right
171,0.4797311718926507,141.31480473978485,0.13550891116697547,169.40506910137537,5.389963189372793e-05,0.353139191865921,0.0,0.4285714626312256,0,3,left_arm_joint3,upper,0.021865367889404297,right_arm_joint4,lower,2.86102294921875e-06,0.534564;0.895745;0.021865;0.384878;2.121487;1.149909;2.395836,0.000011;0.532631;0.912340;0.000003;0.047385;0.133215;0.000008,1,right
172,0.47963220873677376,141.32127296700818,0.13544921031836007,169.39727186391323,5.298001633491367e-05,0.35291048884391785,0.0,0.4285714626312256,0,3,left_arm_joint3,upper,0.021950960159301758,right_arm_joint4,lower,2.1457672119140625e-06,0.534679;0.895717;0.021951;0.384864;2.121552;1.149965;2.395844,0.000011;0.532605;0.912348;0.000002;0.047388;0.132982;0.000008,1,right
173,0.47956948133972277,141.31337442135103,0.13534909681451618,169.42635039220227,5.389963189372793e-05,0.352704256772995,0.0,0.4285714626312256,0,3,left_arm_joint3,upper,0.022037267684936523,right_arm_joint4,lower,3.0994415283203125e-06,0.534796;0.895690;0.022037;0.384852;2.121617;1.150020;2.395859,0.000011;0.532624;0.912342;0.000003;0.047386;0.132654;0.000008,1,right
174,0.4794819950516813,141.31731768555167,0.13524026637403913,169.52624707291452,5.394220715970732e-05,0.35256320238113403,0.0,0.4285714626312256,0,3,left_arm_joint3,upper,0.022123336791992188,right_arm_joint4,lower,2.86102294921875e-06,0.534911;0.895662;0.022123;0.384838;2.121682;1.150076;2.395872,0.000012;0.532605;0.912349;0.000003;0.047386;0.132489;0.000008,1,right
175,0.4794656446027659,141.31408538528203,0.135223682661931,169.7068455939132,5.387408600654453e-05,0.3525998294353485,0.0,0.4285714626312256,0,3,left_arm_joint3,upper,0.022209644317626953,right_arm_joint4,lower,2.6226043701171875e-06,0.535027;0.895634;0.022210;0.384825;2.121747;1.150130;2.395886,0.000012;0.532617;0.912344;0.000003;0.047387;0.132288;0.000008,1,right
176,0.4793491526711453,141.31374327803803,0.13503665478741644,169.88863004894668,5.426577263278887e-05,0.35222163796424866,0.0,0.4285714626312256,0,3,left_arm_joint3,upper,0.02229595184326172,right_arm_joint4,lower,2.86102294921875e-06,0.535143;0.895605;0.022296;0.384811;2.121812;1.150187;2.395900,0.000012;0.532606;0.912348;0.000003;0.047385;0.131363;0.000008,1,right
177,0.47927047254632615,141.31454873122448,0.13496701437489134,170.0612773950079,5.421468449640088e-05,0.3523603081703186,0.0,0.4285714626312256,0,3,left_arm_joint3,upper,0.022383689880371094,right_arm_joint4,lower,2.86102294921875e-06,0.535260;0.895578;0.022384;0.384798;2.121878;1.150242;2.395914,0.000011;0.532604;0.912348;0.000003;0.047389;0.130679;0.000008,1,right
178,0.47917341321672785,141.29241284504675,0.13495226261084534,170.25893363375243,5.424874325399287e-05,0.35225993394851685,0.0,0.4285714626312256,0,3,left_arm_joint3,upper,0.02246999740600586,right_arm_joint4,lower,3.0994415283203125e-06,0.535377;0.895548;0.022470;0.384784;2.121943;1.150298;2.395925,0.000012;0.532597;0.912351;0.000003;0.047386;0.129881;0.000008,1,right
179,0.4790605432152463,141.2902800611811,0.1350288473136799,170.2791978178829,5.47340969205834e-05,0.35257524251937866,0.0,0.4285714626312256,0,3,left_arm_joint3,upper,0.022556781768798828,right_arm_joint4,lower,2.6226043701171875e-06,0.535494;0.895519;0.022557;0.384770;2.122009;1.150354;2.395940,0.000012;0.532601;0.912351;0.000003;0.047387;0.129503;0.000007,1,right
180,0.4791058226942585,141.28888496025667,0.1350884174864146,170.31050275538803,5.419765511760488e-05,0.35261040925979614,0.0,0.4285714626312256,0,3,left_arm_joint3,upper,0.02264404296875,right_arm_joint4,lower,2.6226043701171875e-06,0.535611;0.895491;0.022644;0.384757;2.122075;1.150409;2.395952,0.000012;0.532599;0.912351;0.000003;0.047387;0.129464;0.000008,1,right
181,0.4790201411904018,141.28111574198718,0.13499095779727155,170.41590213632207,5.422320100478828e-05,0.35241514444351196,0.0,0.4285714626312256,0,3,left_arm_joint3,upper,0.02273082733154297,right_arm_joint4,lower,2.384185791015625e-06,0.535728;0.895463;0.022731;0.384744;2.122141;1.150465;2.395965,0.000011;0.532598;0.912352;0.000002;0.047387;0.129212;0.000007,1,right
182,0.4790777429008402,141.29979019942212,0.1350936784392151,170.52559811981848,5.783353844890371e-05,0.3523388206958771,0.0,0.4285714626312256,0,3,left_arm_joint3,upper,0.022818326950073242,right_arm_joint4,lower,2.384185791015625e-06,0.535846;0.895434;0.022818;0.384730;2.122206;1.150521;2.395929,0.000011;0.532587;0.912356;0.000002;0.047385;0.129005;0.000008,1,right
183,0.47895198465111927,141.31394284512228,0.13519393941386956,170.69767517222425,6.089040471124463e-05,0.3525448739528656,0.0,0.4285714626312256,0,3,left_arm_joint3,upper,0.022906064987182617,right_arm_joint4,lower,3.0994415283203125e-06,0.535963;0.895406;0.022906;0.384717;2.122273;1.150578;2.395872,0.000011;0.532598;0.912351;0.000003;0.047386;0.129332;0.000008,1,right
184,0.4789314005002322,141.34286860313938,0.13528016772732465,170.80735036120865,6.0592381487367675e-05,0.3523668646812439,0.0,0.4285714626312256,0,3,left_arm_joint3,upper,0.022992610931396484,right_arm_joint4,lower,3.337860107421875e-06,0.536080;0.895377;0.022993;0.384703;2.122339;1.150635;2.395817,0.000011;0.532592;0.912354;0.000003;0.047384;0.129674;0.000008,1,right
185,0.47896855071007,141.36434882546678,0.1351839871338734,170.84212432278716,6.04391134402249e-05,0.3519200086593628,0.0,0.4285714626312256,0,3,left_arm_joint3,upper,0.023079633712768555,right_arm_joint4,lower,2.6226043701171875e-06,0.536197;0.895348;0.023080;0.384689;2.122405;1.150690;2.395762,0.000012;0.532591;0.912354;0.000003;0.047383;0.129433;0.000009,1,right
186,0.4790147847581312,141.38372150434523,0.135135919269686,170.9930078482372,6.051574746379629e-05,0.35200488567352295,0.0,0.4285714626312256,0,3,left_arm_joint3,upper,0.023168087005615234,right_arm_joint4,lower,3.0994415283203125e-06,0.536316;0.895320;0.023168;0.384676;2.122470;1.150747;2.395710,0.000012;0.532590;0.912354;0.000003;0.047385;0.129216;0.000009,1,right
187,0.47904767723384106,141.37927780751832,0.13513092691052245,171.06816681065143,6.112030678195879e-05,0.35224971175193787,0.0,0.4285714626312256,0,3,left_arm_joint3,upper,0.02325582504272461,right_arm_joint4,lower,2.6226043701171875e-06,0.536433;0.895290;0.023256;0.384663;2.122537;1.150803;2.395652,0.000012;0.532591;0.912354;0.000003;0.047386;0.128970;0.000009,1,right
188,0.479166834147256,141.38676824448495,0.13506056112214865,171.2119879800449,6.057535210857168e-05,0.3523680865764618,0.0,0.4285714626312256,0,3,left_arm_joint3,upper,0.023343324661254883,right_arm_joint4,lower,2.384185791015625e-06,0.536551;0.895262;0.023343;0.384649;2.122603;1.150859;2.395597,0.000012;0.532593;0.912355;0.000002;0.047384;0.128606;0.000009,1,right
189,0.4792325850602655,141.37732299632734,0.13507134705906781,171.30950065271514,6.104367639636621e-05,0.35257723927497864,0.0,0.4285714626312256,0,3,left_arm_joint3,upper,0.023431062698364258,right_arm_joint4,lower,2.384185791015625e-06,0.536669;0.895233;0.023431;0.384636;2.122669;1.150916;2.395541,0.000012;0.532590;0.912354;0.000002;0.047386;0.128041;0.000008,1,right
190,0.4792803814824552,141.3622264354003,0.1350715995139023,171.4662296854197,6.072862015571445e-05,0.35292479395866394,0.0,0.4285714626312256,0,3,left_arm_joint3,upper,0.023519277572631836,right_arm_joint4,lower,2.86102294921875e-06,0.536787;0.895205;0.023519;0.384623;2.122736;1.150972;2.395487,0.000012;0.532596;0.912353;0.000003;0.047387;0.127970;0.000009,1,right
191,0.47932421131155234,141.36510510032437,0.1351214587669369,171.64954003679708,6.201437645358965e-05,0.35293516516685486,0.0,0.4285714626312256,0,3,left_arm_joint3,upper,0.023607492446899414,right_arm_joint4,lower,3.0994415283203125e-06,0.536906;0.895175;0.023607;0.384608;2.122802;1.151029;2.395428,0.000012;0.532590;0.912355;0.000003;0.047388;0.128009;0.000008,1,right
192,0.4792804681290229,141.36326421687824,0.13521373090701308,171.78701793138092,6.04561428190209e-05,0.35310783982276917,0.0,0.4285714626312256,0,3,left_arm_joint3,upper,0.02369546890258789,right_arm_joint4,lower,2.86102294921875e-06,0.537024;0.895146;0.023695;0.384595;2.122869;1.151085;2.395375,0.000012;0.532597;0.912353;0.000003;0.047387;0.128219;0.000009,1,right
193,0.4792532867987714,141.3606989732771,0.13529217885514488,171.90868662075783,6.154605944175273e-05,0.35304540395736694,0.0,0.4285714626312256,0,3,left_arm_joint3,upper,0.023784399032592773,right_arm_joint4,lower,3.5762786865234375e-06,0.537143;0.895117;0.023784;0.384581;2.122936;1.151142;2.395319,0.000012;0.532591;0.912354;0.000004;0.047386;0.128424;0.000008,1,right
194,0.4792287646307186,141.3613588079981,0.13539301096194784,171.92341772117254,6.123951607150957e-05,0.353141188621521,0.0,0.4285714626312256,0,3,left_arm_joint3,upper,0.023873090744018555,right_arm_joint4,lower,3.337860107421875e-06,0.537262;0.895089;0.023873;0.384569;2.123003;1.151197;2.395262,0.000011;0.532596;0.912352;0.000003;0.047387;0.128905;0.000008,1,right
195,0.47930356771990235,141.35778866807394,0.13558937011823013,171.83078785442055,6.192922592163086e-05,0.3532300293445587,0.0,0.4285714626312256,0,3,left_arm_joint3,upper,0.023961544036865234,right_arm_joint4,lower,2.6226043701171875e-06,0.537382;0.895059;0.023962;0.384554;2.123070;1.151255;2.395205,0.000011;0.532598;0.912351;0.000003;0.047385;0.129614;0.000009,1,right
196,0.4792385345147432,141.3425206296423,0.1357403401402312,171.59510917195553,6.186962127685547e-05,0.35337620973587036,0.0,0.4285714626312256,0,3,left_arm_joint3,upper,0.024050474166870117,right_arm_joint4,lower,3.0994415283203125e-06,0.537501;0.895030;0.024050;0.384540;2.123137;1.151314;2.395149,0.000011;0.532602;0.912349;0.000003;0.047385;0.130568;0.000008,1,right
197,0.4792122098086112,141.3245578920916,0.13571815708195595,171.28115523655805,6.135021249065176e-05,0.353130966424942,0.0,0.4285714626312256,0,3,left_arm_joint3,upper,0.0241391658782959,right_arm_joint4,lower,2.384185791015625e-06,0.537620;0.895000;0.024139;0.384526;2.123204;1.151370;2.395095,0.000012;0.532602;0.912349;0.000002;0.047386;0.131169;0.000009,1,right
198,0.479315137497692,141.2938599934507,0.13566721531870216,170.9204875449043,6.203140947036445e-05,0.3531397581100464,0.0,0.4285714626312256,0,3,left_arm_joint3,upper,0.024228811264038086,right_arm_joint4,lower,2.384185791015625e-06,0.537740;0.894971;0.024229;0.384513;2.123272;1.151428;2.395038,0.000012;0.532610;0.912346;0.000002;0.047387;0.131771;0.000009,1,right
199,0.4792119227188997,141.26056285681528,0.13555562397144832,170.66839273903472,6.261894304770976e-05,0.352607399225235,0.0,0.4285714626312256,0,3,left_arm_joint3,upper,0.024318218231201172,right_arm_joint4,lower,3.0994415283203125e-06,0.537861;0.894942;0.024318;0.384499;2.123340;1.151485;2.394978,0.000011;0.532598;0.912350;0.000003;0.047387;0.131836;0.000009,1,right
200,0.47924248836482236,141.2270609286724,0.13550797473028253,170.50638259011825,6.201437645358965e-05,0.3528062105178833,0.0,0.4285714626312256,0,3,left_arm_joint3,upper,0.024407386779785156,right_arm_joint4,lower,2.86102294921875e-06,0.537981;0.894913;0.024407;0.384485;2.123408;1.151543;2.394921,0.000011;0.532614;0.912344;0.000003;0.047388;0.132053;0.000008,1,right
201,0.4792166715598697,141.23975420736207,0.13532492687787817,170.43449260966102,6.221022340469062e-05,0.3523128628730774,0.0,0.4285714626312256,0,3,left_arm_joint3,upper,0.02449655532836914,right_arm_joint4,lower,3.337860107421875e-06,0.538101;0.894883;0.024497;0.384471;2.123475;1.151600;2.394864,0.000012;0.532600;0.912350;0.000003;0.047385;0.131452;0.000009,1,right
202,0.47908832735194107,141.242637902581,0.13535231127833436,170.37434093591955,6.17589321336709e-05,0.3521353602409363,0.0,0.4285714626312256,0,3,left_arm_joint3,upper,0.02458667755126953,right_arm_joint4,lower,2.86102294921875e-06,0.538222;0.894853;0.024587;0.384457;2.123543;1.151657;2.394810,0.000011;0.532597;0.912351;0.000003;0.047388;0.131314;0.000009,1,right
203,0.47909446883963414,141.2404184281727,0.13539394716248584,170.38594124925268,6.267854769248515e-05,0.35204175114631653,0.0,0.4285714626312256,0,3,left_arm_joint3,upper,0.02467656135559082,right_arm_joint4,lower,2.6226043701171875e-06,0.538342;0.894823;0.024677;0.384444;2.123611;1.151714;2.394751,0.000011;0.532601;0.912350;0.000003;0.047384;0.131283;0.000009,1,right
204,0.47886447283954675,141.2344212093023,0.13545582799886258,170.36426596948766,6.286587449721992e-05,0.35178443789482117,0.0,0.4285714626312256,0,3,left_arm_joint3,upper,0.02476644515991211,right_arm_joint4,lower,2.6226043701171875e-06,0.538463;0.894794;0.024766;0.384429;2.123679;1.151774;2.394692,0.000011;0.532584;0.912356;0.000003;0.047386;0.131253;0.000009,1,right
205,0.47875646554880197,141.23062155287042,0.13544574930857992,170.256791905673,6.270408630371094e-05,0.351693719625473,0.0,0.4285714626312256,0,3,left_arm_joint3,upper,0.0248568058013916,right_arm_joint4,lower,2.86102294921875e-06,0.538584;0.894764;0.024857;0.384416;2.123747;1.151831;2.394634,0.000011;0.532597;0.912353;0.000003;0.047383;0.131206;0.000009,1,right
206,0.4786743548477376,141.2169020879175,0.13545351216430476,170.23357894869866,6.277221109485254e-05,0.3516360819339752,0.0,0.4285714626312256,0,3,left_arm_joint3,upper,0.02494645118713379,right_arm_joint4,lower,3.0994415283203125e-06,0.538706;0.894734;0.024946;0.384402;2.123816;1.151889;2.394577,0.000012;0.532589;0.912354;0.000003;0.047384;0.131239;0.000009,1,right
207,0.47857207684697695,141.19389267103404,0.13543672223479034,170.29788288410032,6.289993325481191e-05,0.35163965821266174,0.0,0.4285714626312256,0,3,left_arm_joint3,upper,0.025037050247192383,right_arm_joint4,lower,2.6226043701171875e-06,0.538828;0.894704;0.025037;0.384388;2.123884;1.151947;2.394520,0.000012;0.532594;0.912353;0.000003;0.047382;0.131340;0.000009,1,right
208,0.47858763948714733,141.17747948555922,0.13534955490343809,170.29441051155263,6.240606307983398e-05,0.3517078161239624,0.0,0.4285714626312256,0,3,left_arm_joint3,upper,0.02512812614440918,right_arm_joint4,lower,2.384185791015625e-06,0.538949;0.894674;0.025128;0.384374;2.123954;1.152004;2.394465,0.000012;0.532594;0.912352;0.000002;0.047383;0.131302;0.000009,1,right
209,0.478486984630204,141.16221763340465,0.13523559411939895,170.3731341064463,6.307874718913808e-05,0.3516920804977417,0.0,0.4285714626312256,0,3,left_arm_joint3,upper,0.025218725204467773,right_arm_joint4,lower,2.86102294921875e-06,0.539071;0.894644;0.025219;0.384360;2.124022;1.152063;2.394407,0.000012;0.532591;0.912354;0.000003;0.047384;0.130830;0.000009,1,right
210,0.4785863163540497,141.15284626002915,0.13513996249452928,170.3724779966983,6.328310701064765e-05,0.35161539912223816,0.0,0.4285714626312256,0,3,left_arm_joint3,upper,0.02530980110168457,right_arm_joint4,lower,2.6226043701171875e-06,0.539193;0.894613;0.025310;0.384345;2.124091;1.152120;2.394349,0.000012;0.532589;0.912355;0.000003;0.047383;0.129921;0.000009,1,right
211,0.4786445459826193,141.14659598704694,0.1351148168587581,170.48124331369652,6.350449257297441e-05,0.35197165608406067,0.0,0.4285714626312256,0,3,left_arm_joint3,upper,0.02539968490600586,right_arm_joint4,lower,2.86102294921875e-06,0.539315;0.894584;0.025400;0.384331;2.124159;1.152181;2.394289,0.000012;0.532591;0.912354;0.000003;0.047383;0.129348;0.000009,1,right
212,0.4786413408090262,141.14593467943374,0.13526310084179421,170.58306406040643,6.278923683566973e-05,0.3523196578025818,0.0,0.4285714626312256,0,3,left_arm_joint3,upper,0.025492429733276367,right_arm_joint4,lower,3.0994415283203125e-06,0.539438;0.894554;0.025492;0.384318;2.124229;1.152237;2.394235,0.000012;0.532588;0.912355;0.000003;0.047383;0.129206;0.000009,1,right
213,0.4785692599562561,141.15805394467944,0.13530898236540065,170.7483780351994,6.392172508640215e-05,0.35240814089775085,0.0,0.4285714626312256,0,3,left_arm_joint3,upper,0.025583744049072266,right_arm_joint4,lower,2.6226043701171875e-06,0.539561;0.894524;0.025584;0.384304;2.124298;1.152296;2.394173,0.000012;0.532594;0.912353;0.000003;0.047385;0.129136;0.000009,1,right
214,0.4785130078073948,141.19759578857554,0.1354721156663524,170.83899614545086,6.338528328342363e-05,0.3525899648666382,0.0,0.4285714626312256,0,3,left_arm_joint3,upper,0.025674104690551758,right_arm_joint4,lower,3.0994415283203125e-06,0.539683;0.894493;0.025674;0.384289;2.124367;1.152355;2.394117,0.000011;0.532588;0.912355;0.000003;0.047384;0.129214;0.000009,1,right
215,0.47845919213617816,141.2131066491138,0.13547893504534966,171.0180268805997,6.394727097358555e-05,0.35245734453201294,0.0,0.4285714626312256,0,3,left_arm_joint3,upper,0.02576613426208496,right_arm_joint4,lower,2.86102294921875e-06,0.539807;0.894465;0.025766;0.384275;2.124436;1.152414;2.394055,0.000011;0.532589;0.912355;0.000003;0.047382;0.129066;0.000009,1,right
216,0.4783878146019501,141.21555800753865,0.13555636765451806,171.1035634744831,6.364924774970859e-05,0.35269030928611755,0.0,0.4285714626312256,0,3,left_arm_joint3,upper,0.025858163833618164,right_arm_joint4,lower,2.86102294921875e-06,0.539929;0.894433;0.025858;0.384261;2.124506;1.152473;2.393998,0.000012;0.532591;0.912353;0.000003;0.047384;0.129025;0.000009,1,right
217,0.478364161379516,141.23777815803138,0.13548324477285636,171.10968791817456,6.3606676121708e-05,0.3526424169540405,0.0,0.4285714626312256,0,3,left_arm_joint3,upper,0.025949954986572266,right_arm_joint4,lower,2.86102294921875e-06,0.540053;0.894404;0.025950;0.384247;2.124575;1.152532;2.393939,0.000011;0.532590;0.912354;0.000003;0.047384;0.128767;0.000009,1,right
218,0.47835109268600595,141.2473307733862,0.13557755182266257,171.09691188478695,6.391321221599355e-05,0.35272571444511414,0.0,0.4285714626312256,0,3,left_arm_joint3,upper,0.026041269302368164,right_arm_joint4,lower,3.0994415283203125e-06,0.540176;0.894371;0.026041;0.384232;2.124645;1.152590;2.393882,0.000012;0.532584;0.912356;0.000003;0.047385;0.128407;0.000009,1,right
219,0.4784254429509798,141.24609355659635,0.13573195093832005,171.08308007264097,6.368330650730059e-05,0.3532799184322357,0.0,0.4285714626312256,0,3,left_arm_joint3,upper,0.026133298873901367,right_arm_joint4,lower,2.86102294921875e-06,0.540299;0.894342;0.026133;0.384218;2.124715;1.152650;2.393825,0.000012;0.532598;0.912351;0.000003;0.047382;0.128577;0.000009,1,right
220,0.4783927727812771,141.24160708727115,0.13559764470312904,170.97618980413122,6.42963859718293e-05,0.35324975848197937,0.0,0.4285714626312256,0,3,left_arm_joint3,upper,0.026225805282592773,right_arm_joint4,lower,2.6226043701171875e-06,0.540423;0.894311;0.026226;0.384205;2.124785;1.152708;2.393762,0.000012;0.532588;0.912355;0.000003;0.047385;0.128466;0.000009,1,right
221,0.47839702665176814,141.22392845533287,0.13566798429687998,171.01954709590606,6.401538848876953e-05,0.3532548248767853,0.0,0.4285714626312256,0,3,left_arm_joint3,upper,0.026317834854125977,right_arm_joint4,lower,2.86102294921875e-06,0.540548;0.894281;0.026318;0.384190;2.124855;1.152767;2.393707,0.000012;0.532593;0.912353;0.000003;0.047385;0.128454;0.000009,1,right
222,0.47840698056960224,141.2146725395711,0.135566207322144,171.1062508862535,6.472213135566562e-05,0.35307544469833374,0.0,0.4285714626312256,0,3,left_arm_joint3,upper,0.026411056518554688,right_arm_joint4,lower,3.0994415283203125e-06,0.540673;0.894250;0.026411;0.384176;2.124925;1.152827;2.393646,0.000012;0.532586;0.912356;0.000003;0.047385;0.128176;0.000009,1,right
223,0.4784109115903917,141.21863968948452,0.13569104476938626,171.26771707477846,6.42452941974625e-05,0.35338273644447327,0.0,0.4285714626312256,0,3,left_arm_joint3,upper,0.026504039764404297,right_arm_joint4,lower,2.86102294921875e-06,0.540796;0.894219;0.026504;0.384161;2.124996;1.152886;2.393588,0.000012;0.532593;0.912352;0.000003;0.047386;0.128161;0.000009,1,right
224,0.47850470196400585,141.2006275123772,0.13574636957466904,171.41526215213838,6.427935295505449e-05,0.35333386063575745,0.0,0.4285714626312256,0,3,left_arm_joint3,upper,0.026596546173095703,right_arm_joint4,lower,2.86102294921875e-06,0.540920;0.894189;0.026597;0.384147;2.125066;1.152945;2.393529,0.000012;0.532587;0.912356;0.000003;0.047383;0.128127;0.000009,1,right
225,0.47847890202118615,141.21044714546798,0.1358282572955078,171.6358428217962,6.457737617893144e-05,0.35367852449417114,0.0,0.4285714626312256,0,3,left_arm_joint3,upper,0.026688575744628906,right_arm_joint4,lower,3.337860107421875e-06,0.541045;0.894157;0.026689;0.384133;2.125136;1.153005;2.393469,0.000012;0.532595;0.912352;0.000003;0.047385;0.128127;0.000009,1,right
226,0.4785662875630999,141.2396104888532,0.13598162844992778,171.6968093649544,6.448371277656406e-05,0.3540089428424835,0.0,0.4285714626312256,0,3,left_arm_joint3,upper,0.026781797409057617,right_arm_joint4,lower,2.6226043701171875e-06,0.541170;0.894127;0.026782;0.384118;2.125206;1.153066;2.393412,0.000012;0.532593;0.912353;0.000003;0.047383;0.128354;0.000009,1,right
227,0.47849438014922835,141.2567820776783,0.13601623910429236,171.7468997832975,6.465401384048164e-05,0.35416075587272644,0.0,0.4285714626312256,0,3,left_arm_joint3,upper,0.02687525749206543,right_arm_joint4,lower,3.337860107421875e-06,0.541295;0.894097;0.026875;0.384104;2.125277;1.153125;2.393351,0.000011;0.532598;0.912351;0.000003;0.047385;0.128682;0.000009,1,right
228,0.4785194092447006,141.25751722187974,0.1360741903512732,171.57802439197835,6.436450348701328e-05,0.3541090190410614,0.0,0.4285714626312256,0,3,left_arm_joint3,upper,0.026967525482177734,right_arm_joint4,lower,2.86102294921875e-06,0.541420;0.894065;0.026968;0.384089;2.125348;1.153184;2.393294,0.000012;0.532600;0.912351;0.000003;0.047382;0.129018;0.000009,1,right
229,0.47852853251791677,141.27919026228753,0.13613412638772682,171.37012458753946,6.493500404758379e-05,0.3541942536830902,0.0,0.4285714626312256,0,3,left_arm_joint3,upper,0.027060747146606445,right_arm_joint4,lower,2.6226043701171875e-06,0.541545;0.894034;0.027061;0.384074;2.125418;1.153243;2.393234,0.000012;0.532598;0.912350;0.000003;0.047383;0.129398;0.000009,1,right
230,0.47848296286552616,141.26257214771246,0.1361023146274779,171.19307857907737,6.511381798190996e-05,0.35421082377433777,0.0,0.4285714626312256,0,3,left_arm_joint3,upper,0.027153968811035156,right_arm_joint4,lower,3.0994415283203125e-06,0.541670;0.894003;0.027154;0.384061;2.125490;1.153304;2.393173,0.000011;0.532604;0.912348;0.000003;0.047385;0.129490;0.000009,1,right
231,0.4785263121767563,141.25838819165858,0.13614814949944087,171.09829535324607,6.477322313003242e-05,0.3541404902935028,0.0,0.4285714626312256,0,3,left_arm_joint3,upper,0.027247190475463867,right_arm_joint4,lower,2.6226043701171875e-06,0.541796;0.893973;0.027247;0.384046;2.125561;1.153364;2.393115,0.000012;0.532596;0.912351;0.000003;0.047383;0.129801;0.000009,1,right
232,0.4784489900158771,141.2537326535741,0.13612444254090703,170.8666518964766,6.546293298015371e-05,0.354466050863266,0.0,0.4285714626312256,0,3,left_arm_joint3,upper,0.027340173721313477,right_arm_joint4,lower,2.86102294921875e-06,0.541922;0.893941;0.027340;0.384032;2.125631;1.153423;2.393052,0.000011;0.532617;0.912344;0.000003;0.047385;0.130262;0.000009,1,right
233,0.4784690307080323,141.24538820639512,0.1360421874053236,170.81227213957547,6.513936386909336e-05,0.35388389229774475,0.0,0.4285714626312256,0,3,left_arm_joint3,upper,0.027434825897216797,right_arm_joint4,lower,2.6226043701171875e-06,0.542047;0.893910;0.027435;0.384017;2.125702;1.153485;2.392993,0.000012;0.532596;0.912351;0.000003;0.047385;0.130129;0.000008,1,right
234,0.4784536964366786,141.23857628124375,0.13591275936935646,170.7165346874661,6.548847886733711e-05,0.3534194529056549,0.0,0.4285714626312256,0,3,left_arm_joint3,upper,0.02752828598022461,right_arm_joint4,lower,2.86102294921875e-06,0.542173;0.893879;0.027528;0.384003;2.125774;1.153545;2.392931,0.000012;0.532598;0.912350;0.000003;0.047385;0.130090;0.000009,1,right
235,0.4783840803373735,141.22936437849185,0.13591218570623168,170.74878424431455,6.490945816040039e-05,0.35334718227386475,0.0,0.4285714626312256,0,3,left_arm_joint3,upper,0.027622461318969727,right_arm_joint4,lower,2.6226043701171875e-06,0.542299;0.893848;0.027622;0.383989;2.125845;1.153603;2.392872,0.000011;0.532599;0.912350;0.000003;0.047382;0.129924;0.000009,1,right
236,0.47839445612135134,141.22172903485887,0.1358796879294433,170.82923315676095,6.529263191623613e-05,0.35345274209976196,0.0,0.4285714626312256,0,3,left_arm_joint3,upper,0.027716636657714844,right_arm_joint4,lower,2.6226043701171875e-06,0.542425;0.893816;0.027717;0.383974;2.125917;1.153663;2.392813,0.000012;0.532596;0.912351;0.000003;0.047384;0.130045;0.000009,1,right
237,0.47835586699898003,141.22682383640833,0.13583122479399792,170.94799647698343,6.55310504953377e-05,0.3530918061733246,0.0,0.4285714626312256,0,3,left_arm_joint3,upper,0.027810096740722656,right_arm_joint4,lower,2.86102294921875e-06,0.542552;0.893785;0.027810;0.383959;2.125988;1.153726;2.392755,0.000012;0.532596;0.912351;0.000003;0.047383;0.129880;0.000009,1,right
238,0.4782436562731,141.22865789825124,0.13582006203911776,171.0429676627363,6.55736293992959e-05,0.3532622456550598,0.0,0.4285714626312256,0,3,left_arm_joint3,upper,0.027904987335205078,right_arm_joint4,lower,2.6226043701171875e-06,0.542679;0.893753;0.027905;0.383945;2.126060;1.153784;2.392694,0.000012;0.532596;0.912351;0.000003;0.047382;0.129728;0.000009,1,right
239,0.4781548228099827,141.22397422403102,0.13578589058601168,171.19401298069909,6.628036499023438e-05,0.3532146215438843,0.0,0.4285714626312256,0,3,left_arm_joint3,upper,0.027998685836791992,right_arm_joint4,lower,2.86102294921875e-06,0.542805;0.893721;0.027999;0.383929;2.126132;1.153846;2.392631,0.000011;0.532591;0.912353;0.000003;0.047382;0.129529;0.000010,1,right
240,0.4780709072518824,141.22487009536738,0.1357193515716331,171.23072517456987,6.55225376249291e-05,0.3530789315700531,0.0,0.4285714626312256,0,3,left_arm_joint3,upper,0.028093338012695312,right_arm_joint4,lower,2.86102294921875e-06,0.542932;0.893691;0.028093;0.383916;2.126203;1.153907;2.392570,0.000012;0.532599;0.912351;0.000003;0.047383;0.129314;0.000009,1,right
241,0.47812484000663685,141.22116405114778,0.13569128386109663,171.18441064679203,6.581204797839746e-05,0.3532482087612152,0.0,0.4285714626312256,0,3,left_arm_joint3,upper,0.028187990188598633,right_arm_joint4,lower,3.337860107421875e-06,0.543059;0.893658;0.028188;0.383900;2.126276;1.153967;2.392511,0.000011;0.532590;0.912354;0.000003;0.047384;0.128942;0.000009,1,right
242,0.4780188311281074,141.21286313182185,0.13559156703661937,171.09287702099303,6.575244333362207e-05,0.3530273139476776,0.0,0.4285714626312256,0,3,left_arm_joint3,upper,0.028282642364501953,right_arm_joint4,lower,2.86102294921875e-06,0.543186;0.893627;0.028283;0.383887;2.126348;1.154027;2.392451,0.000011;0.532594;0.912353;0.000003;0.047383;0.128428;0.000009,1,right
243,0.47798104196639185,141.20022861875665,0.1356193292586788,171.03368243678838,6.618670158786699e-05,0.3534972369670868,0.0,0.4285714626312256,0,3,left_arm_joint3,upper,0.028377294540405273,right_arm_joint4,lower,3.337860107421875e-06,0.543314;0.893596;0.028377;0.383872;2.126420;1.154088;2.392388,0.000011;0.532593;0.912353;0.000003;0.047385;0.128317;0.000009,1,right
244,0.4779961756549647,141.18775948417263,0.13564086565387531,170.89174210075484,6.536075670737773e-05,0.3536624610424042,0.0,0.4285714626312256,0,3,left_arm_joint3,upper,0.028472900390625,right_arm_joint4,lower,2.86102294921875e-06,0.543441;0.893563;0.028473;0.383857;2.126492;1.154148;2.392333,0.000012;0.532600;0.912350;0.000003;0.047385;0.128572;0.000009,1,right
245,0.47800012423802296,141.17927454805366,0.13564723792987546,170.90412718169028,6.645066605415195e-05,0.35368818044662476,0.0,0.4285714626312256,0,3,left_arm_joint3,upper,0.02856731414794922,right_arm_joint4,lower,2.86102294921875e-06,0.543568;0.893532;0.028567;0.383842;2.126564;1.154210;2.392270,0.000012;0.532598;0.912351;0.000003;0.047386;0.128670;0.000009,1,right
246,0.4780312684279133,141.1898728592997,0.13569824820817347,170.8996206131538,6.645066605415195e-05,0.353691428899765,0.0,0.4285714626312256,0,3,left_arm_joint3,upper,0.02866220474243164,right_arm_joint4,lower,2.86102294921875e-06,0.543695;0.893500;0.028662;0.383827;2.126637;1.154272;2.392208,0.000011;0.532594;0.912352;0.000003;0.047386;0.128605;0.000009,1,right
247,0.4780555783513155,141.1901473363594,0.13564318383089213,170.95466307298068,6.659542123088613e-05,0.35362866520881653,0.0,0.4285714626312256,0,3,left_arm_joint3,upper,0.028758764266967773,right_arm_joint4,lower,2.6226043701171875e-06,0.543823;0.893469;0.028759;0.383813;2.126709;1.154332;2.392145,0.000011;0.532600;0.912351;0.000003;0.047384;0.128457;0.000009,1,right
248,0.4781193419015799,141.20966204511316,0.13561794097184646,171.11952354447632,6.654432945651934e-05,0.3533874452114105,0.0,0.4285714626312256,0,3,left_arm_joint3,upper,0.028853178024291992,right_arm_joint4,lower,2.6226043701171875e-06,0.543952;0.893436;0.028853;0.383798;2.126781;1.154395;2.392084,0.000012;0.532585;0.912356;0.000003;0.047387;0.128208;0.000009,1,right
249,0.47810327607114145,141.22247985261936,0.13554201138758462,171.17633812692597,6.633145676460117e-05,0.3533385992050171,0.0,0.4285714626312256,0,3,left_arm_joint3,upper,0.028948545455932617,right_arm_joint4,lower,3.0994415283203125e-06,0.544081;0.893404;0.028949;0.383782;2.126854;1.154455;2.392025,0.000011;0.532595;0.912354;0.000003;0.047385;0.127913;0.000009,1,right
250,0.47807096438780866,141.23172232789128,0.13548964859755605,171.2187261765178,6.691899034194648e-05,0.3534465730190277,0.0,0.4285714626312256,0,3,left_arm_joint3,upper,0.029044628143310547,right_arm_joint4,lower,2.86102294921875e-06,0.544210;0.893373;0.029045;0.383768;2.126928;1.154516;2.391961,0.000012;0.532588;0.912355;0.000003;0.047384;0.127563;0.000009,1,right
251,0.47801586766876936,141.22567689667883,0.13544131877968418,171.249722376772,6.623779336223379e-05,0.35359179973602295,0.0,0.4285714626312256,0,3,left_arm_joint3,upper,0.029139995574951172,right_arm_joint4,lower,2.86102294921875e-06,0.544338;0.893340;0.029140;0.383754;2.127000;1.154578;2.391904,0.000012;0.532597;0.912353;0.000003;0.047383;0.127404;0.000008,1,right
252,0.4781018501656022,141.2188537378835,0.135417554801574,171.30538174447722,6.637403566855937e-05,0.35350096225738525,0.0,0.4285714626312256,0,3,left_arm_joint3,upper,0.029236793518066406,right_arm_joint4,lower,2.86102294921875e-06,0.544466;0.893308;0.029237;0.383739;2.127073;1.154638;2.391844,0.000012;0.532588;0.912355;0.000003;0.047386;0.127212;0.000008,1,right
253,0.4780702250000904,141.19906031353463,0.13523597074853538,171.43671278111768,6.713186303386465e-05,0.35327258706092834,0.0,0.4285714626312256,0,3,left_arm_joint3,upper,0.029332399368286133,right_arm_joint4,lower,3.0994415283203125e-06,0.544596;0.893276;0.029332;0.383724;2.127146;1.154700;2.391780,0.000012;0.532590;0.912356;0.000003;0.047385;0.126741;0.000009,1,right
254,0.47805110987726096,141.1546045497173,0.13518166730767395,171.54280168656757,6.702116661472246e-05,0.35339853167533875,0.0,0.4285714626312256,0,3,left_arm_joint3,upper,0.02942824363708496,right_arm_joint4,lower,2.86102294921875e-06,0.544725;0.893245;0.029428;0.383709;2.127220;1.154762;2.391719,0.000011;0.532586;0.912357;0.000003;0.047387;0.126167;0.000009,1,right
255,0.4781105918359639,141.12499589989378,0.13514738158271766,171.58382688751166,6.783008575439453e-05,0.35334861278533936,0.0,0.4285714626312256,0,3,left_arm_joint3,upper,0.0295259952545166,right_arm_joint4,lower,3.337860107421875e-06,0.544854;0.893212;0.029526;0.383694;2.127294;1.154823;2.391654,0.000011;0.532583;0.912360;0.000003;0.047385;0.125563;0.000009,1,right
256,0.4781243791816031,141.09876081026266,0.13521773649772212,171.66088032116082,6.703819963149726e-05,0.3538672626018524,0.0,0.4285714626312256,0,3,left_arm_joint3,upper,0.029622316360473633,right_arm_joint4,lower,3.337860107421875e-06,0.544985;0.893179;0.029622;0.383679;2.127367;1.154885;2.391594,0.000011;0.532592;0.912356;0.000003;0.047386;0.125463;0.000009,1,right
257,0.47807265025516044,141.08254012225254,0.1352576973958203,171.67399515416795,6.760018732165918e-05,0.3541876971721649,0.0,0.4285714626312256,0,3,left_arm_joint3,upper,0.029719114303588867,right_arm_joint4,lower,2.86102294921875e-06,0.545114;0.893146;0.029719;0.383664;2.127441;1.154947;2.391531,0.000012;0.532594;0.912356;0.000003;0.047386;0.125710;0.000009,1,right
258,0.47820253226309845,141.08770813765256,0.1352569043457324,171.61184133865146,6.7421373387333e-05,0.3542689383029938,0.0,0.4285714626312256,0,3,left_arm_joint3,upper,0.0298154354095459,right_arm_joint4,lower,2.6226043701171875e-06,0.545244;0.893114;0.029815;0.383650;2.127515;1.155010;2.391469,0.000011;0.532595;0.912354;0.000003;0.047388;0.126069;0.000009,1,right
259,0.4781953986041298,141.10146485693795,0.13527322941006395,171.7022571649271,6.702968676108867e-05,0.3542135953903198,0.0,0.4285714626312256,0,3,left_arm_joint3,upper,0.02991199493408203,right_arm_joint4,lower,2.86102294921875e-06,0.545375;0.893082;0.029912;0.383634;2.127589;1.155072;2.391410,0.000012;0.532595;0.912354;0.000003;0.047389;0.126448;0.000009,1,right
260,0.47821615535159273,141.10670882756972,0.13519946008691353,171.6798084822272,6.777048110961914e-05,0.35411086678504944,0.0,0.4285714626312256,0,3,left_arm_joint3,upper,0.030008792877197266,right_arm_joint4,lower,2.86102294921875e-06,0.545504;0.893049;0.030009;0.383619;2.127663;1.155134;2.391347,0.000012;0.532601;0.912353;0.000003;0.047388;0.126637;0.000009,1,right
261,0.47818047075179126,141.114699917113,0.13507274862254753,171.6202397586282,6.764275894965976e-05,0.353878915309906,0.0,0.4285714626312256,0,3,left_arm_joint3,upper,0.030106544494628906,right_arm_joint4,lower,2.6226043701171875e-06,0.545635;0.893017;0.030107;0.383604;2.127737;1.155195;2.391284,0.000012;0.532596;0.912353;0.000003;0.047388;0.126563;0.000008,1,right
262,0.4782908560328627,141.12175744610315,0.13500948846927793,171.49497970269985,6.774494249839336e-05,0.35395583510398865,0.0,0.4285714626312256,0,3,left_arm_joint3,upper,0.030203819274902344,right_arm_joint4,lower,2.86102294921875e-06,0.545765;0.892984;0.030204;0.383590;2.127811;1.155257;2.391221,0.000012;0.532600;0.912353;0.000003;0.047390;0.126377;0.000009,1,right
263,0.4782737905366559,141.11790274357074,0.1349252445813461,171.42588078814128,6.794929504394531e-05,0.35403668880462646,0.0,0.4285714626312256,0,3,left_arm_joint3,upper,0.03030109405517578,right_arm_joint4,lower,2.86102294921875e-06,0.545896;0.892950;0.030301;0.383574;2.127885;1.155320;2.391160,0.000012;0.532597;0.912354;0.000003;0.047390;0.126007;0.000009,1,right
264,0.47828924563914094,141.12211255951036,0.13490666111899066,171.30153620878082,6.800038681831211e-05,0.35423165559768677,0.0,0.4285714626312256,0,3,left_arm_joint3,upper,0.03039860725402832,right_arm_joint4,lower,2.384185791015625e-06,0.546027;0.892919;0.030399;0.383559;2.127960;1.155384;2.391097,0.000012;0.532601;0.912353;0.000002;0.047392;0.126122;0.000008,1,right
265,0.4783210047904337,141.1254226755752,0.13481348664450965,171.24666590972052,6.87071296852082e-05,0.3538628816604614,0.0,0.4285714626312256,0,3,left_arm_joint3,upper,0.030496597290039062,right_arm_joint4,lower,2.86102294921875e-06,0.546159;0.892885;0.030497;0.383544;2.128034;1.155447;2.391032,0.000012;0.532596;0.912356;0.000003;0.047389;0.125761;0.000008,1,right
266,0.47834522724230977,141.12176991278443,0.13469597450854273,171.10167809622277,6.773642235202715e-05,0.3538389503955841,0.0,0.4285714626312256,0,3,left_arm_joint3,upper,0.030594587326049805,right_arm_joint4,lower,2.86102294921875e-06,0.546290;0.892852;0.030595;0.383528;2.128109;1.155507;2.390971,0.000012;0.532599;0.912353;0.000003;0.047391;0.125625;0.000008,1,right
267,0.47832833302401573,141.119782454748,0.1347492136672918,170.9797430078191,6.910732918186113e-05,0.353893905878067,0.0,0.4285714626312256,0,3,left_arm_joint3,upper,0.03069305419921875,right_arm_joint4,lower,3.337860107421875e-06,0.546422;0.892819;0.030693;0.383513;2.128184;1.155572;2.390905,0.000011;0.532594;0.912356;0.000003;0.047391;0.125668;0.000008,1,right
