gaolecheng/EgoVLA_Release/ik_debug/Push-Box_room_1_table_2_episode_('episode_50.hdf5', 0.010576)_0_ik_debug.csv
step,left_pos_err_m,left_rot_err_deg,right_pos_err_m,right_rot_err_deg,left_joint_track_err,right_joint_track_err,left_near_limit_ratio,right_near_limit_ratio,left_near_limit_count,right_near_limit_count,left_worst_joint,left_worst_side,left_min_margin_rad,right_worst_joint,right_worst_side,right_min_margin_rad,left_joint_margin_rad_list,right_joint_margin_rad_list,ik_ignore_orientation,ik_active_arm
0,0.6138076687103019,158.24474247751564,0.15154723505024795,95.47858068151902,0.002864991081878543,0.27329304814338684,0.0,0.2857142984867096,0,2,left_arm_joint1,lower,0.01711440086364746,right_arm_joint4,lower,-7.152557373046875e-06,0.017114;1.177808;0.349873;0.813196;2.354939;1.427667;1.957799,0.008995;0.010658;1.185763;-0.000007;0.024931;0.033318;1.617766,1,right
1,0.6168468248053403,157.6180258645645,0.15190527833533649,97.8431536239728,0.0027504393365234137,0.2749958634376526,0.0,0.1428571492433548,0,1,left_arm_joint1,lower,0.01613020896911621,right_arm_joint4,lower,-1.0013580322265625e-05,0.016130;1.181197;0.349038;0.816180;2.353914;1.427593;1.967761,0.011959;0.028384;1.171613;-0.000010;0.027055;0.061099;1.560548,1,right
2,0.6181468498314645,157.67244632279196,0.15200369614740114,103.61987926618843,0.0030206996016204357,0.27710452675819397,0.0,0.1428571492433548,0,1,left_arm_joint1,lower,0.015252351760864258,right_arm_joint4,lower,-4.5299530029296875e-06,0.015252;1.184852;0.348219;0.818872;2.352981;1.427519;1.979854,0.012590;0.048458;1.159345;-0.000005;0.030668;0.087109;1.499802,1,right
3,0.6202410277108177,157.86514821246527,0.15280904126498399,93.13933785356876,0.002780837705358863,0.28069525957107544,0.0,0.1428571492433548,0,1,left_arm_joint1,lower,0.01430964469909668,right_arm_joint4,lower,-1.2636184692382812e-05,0.014310;1.188412;0.347441;0.821724;2.352118;1.427552;1.990293,0.012439;0.073295;1.146070;-0.000013;0.029527;0.112960;1.434374,1,right
4,0.6222161597478726,158.13746155249308,0.15313654489766348,71.85984794577185,0.002911933930590749,0.28298473358154297,0.0,0.1428571492433548,0,1,left_arm_joint1,lower,0.013448476791381836,right_arm_joint4,lower,-1.9788742065429688e-05,0.013448;1.192001;0.346608;0.824574;2.351220;1.427589;2.001606,0.010701;0.103434;1.131643;-0.000020;0.027661;0.140201;1.365324,1,right
5,0.6241400567809138,158.42487107819352,0.15260600186112963,54.34749060845352,0.0027973568066954613,0.2830559015274048,0.0,0.2857142984867096,0,2,left_arm_joint1,lower,0.01255178451538086,right_arm_joint4,lower,4.76837158203125e-07,0.012552;1.195646;0.345791;0.827451;2.350219;1.427593;2.011949,0.005174;0.138797;1.115378;0.000000;0.024586;0.164861;1.293997,1,right
6,0.625659154129885,158.75748813959194,0.15193795731774756,35.93137564312174,0.002851362805813551,0.2836178243160248,0.0,0.2857142984867096,0,2,left_arm_joint1,lower,0.011651039123535156,right_arm_joint4,lower,-3.5762786865234375e-06,0.011651;1.199306;0.344997;0.830324;2.349195;1.427575;2.022639,0.000062;0.176692;1.098678;-0.000004;0.019163;0.189238;1.219538,1,right
7,0.6269141140993508,159.08053696716087,0.15104988779995096,86.19804520678252,0.00288370274938643,0.2821276783943176,0.0,0.2857142984867096,0,2,left_arm_joint1,lower,0.010796070098876953,right_arm_joint4,lower,-1.0967254638671875e-05,0.010796;1.203007;0.344194;0.833183;2.348176;1.427573;2.033586,0.000008;0.214447;1.080258;-0.000011;0.017923;0.215662;1.142973,1,right
8,0.6284952022206591,159.5193878487218,0.14981869903068865,86.00835075690432,0.003027469152584672,0.27993708848953247,0.1428571492433548,0.2857142984867096,1,2,left_arm_joint1,lower,0.009946107864379883,right_arm_joint4,lower,-1.2874603271484375e-05,0.009946;1.206758;0.343368;0.836043;2.347117;1.427550;2.045410,0.000005;0.245790;1.065402;-0.000013;0.016550;0.243720;1.063705,1,right
9,0.6297596022935735,160.119967096622,0.1487123681135224,87.99524761543206,0.003160583321005106,0.2774321138858795,0.1428571492433548,0.2857142984867096,1,2,left_arm_joint1,lower,0.009221792221069336,right_arm_joint4,lower,-1.2159347534179688e-05,0.009222;1.210661;0.342504;0.838710;2.346092;1.427502;2.058301,0.000006;0.276419;1.050071;-0.000012;0.016443;0.266983;0.982631,1,right
10,0.630595829306932,160.79637047347543,0.14776965563155284,102.5264737371072,0.003277144394814968,0.275901734828949,0.1428571492433548,0.2857142984867096,1,2,left_arm_joint1,lower,0.008542060852050781,right_arm_joint4,lower,-8.58306884765625e-06,0.008542;1.214635;0.341614;0.841336;2.345034;1.427433;2.071945,0.000010;0.304757;1.032420;-0.000009;0.014314;0.283820;0.899621,1,right
11,0.630931973382879,161.51527165268723,0.14762718559089283,105.67548575397915,0.003465541871264577,0.275611013174057,0.1428571492433548,0.2857142984867096,1,2,left_arm_joint1,lower,0.007964372634887695,right_arm_joint4,lower,-6.67572021484375e-06,0.007964;1.218696;0.340652;0.843872;2.343974;1.427341;2.086915,0.000007;0.325459;1.018649;-0.000007;0.013721;0.296207;0.814780,1,right
12,0.6309799842865046,162.18111600507294,0.14817066797347367,100.92354344326864,0.0036708288826048374,0.27694615721702576,0.1428571492433548,0.2857142984867096,1,2,left_arm_joint1,lower,0.007506132125854492,right_arm_joint4,lower,-4.76837158203125e-06,0.007506;1.222861;0.339603;0.846301;2.342911;1.427223;2.103328,0.000006;0.339459;1.008646;-0.000005;0.013575;0.307065;0.726396,1,right
13,0.630901931894932,162.6853062951169,0.14775940032159676,108.42516464532089,0.00394185958430171,0.27524077892303467,0.1428571492433548,0.2857142984867096,1,2,left_arm_joint1,lower,0.007217884063720703,right_arm_joint4,lower,-2.384185791015625e-06,0.007218;1.227140;0.338419;0.848607;2.341862;1.427078;2.121671,0.000006;0.347716;1.001997;-0.000002;0.012839;0.312398;0.637254,1,right
14,0.6306296835127878,163.19165383494794,0.14740286574613204,107.78689886069671,0.003892758162692189,0.27347859740257263,0.1428571492433548,0.2857142984867096,1,2,left_arm_joint1,lower,0.006906986236572266,right_arm_joint4,lower,-2.384185791015625e-06,0.006907;1.231575;0.337325;0.850842;2.340766;1.426925;2.139596,0.000005;0.357168;0.999153;-0.000002;0.012884;0.314502;0.547975,1,right
15,0.630164686601351,163.6900241670062,0.14707573800017526,110.21915897806451,0.004063516855239868,0.27284669876098633,0.1428571492433548,0.2857142984867096,1,2,left_arm_joint1,lower,0.006712675094604492,right_arm_joint4,lower,-1.9073486328125e-06,0.006713;1.236171;0.336169;0.852931;2.339658;1.426746;2.158719,0.000006;0.365044;0.994718;-0.000002;0.013697;0.315315;0.458935,1,right
16,0.6297564036529915,164.19452396849218,0.14753735194038178,110.0578029010171,0.004218152724206448,0.2734597325325012,0.1428571492433548,0.2857142984867096,1,2,left_arm_joint1,lower,0.006639242172241211,right_arm_joint4,lower,-1.1920928955078125e-06,0.006639;1.240916;0.334947;0.854894;2.338544;1.426548;2.178930,0.000007;0.369293;0.991347;-0.000001;0.014322;0.314218;0.369785,1,right
17,0.6292920397863604,164.68330546498066,0.14831126462725064,108.47470675536239,0.004393577575683594,0.2741183042526245,0.1428571492433548,0.2857142984867096,1,2,left_arm_joint1,lower,0.006697177886962891,right_arm_joint4,lower,0.0,0.006697;1.245822;0.333651;0.856722;2.337426;1.426330;2.200261,0.000007;0.372538;0.988608;0.000000;0.012787;0.309519;0.280859,1,right
18,0.628608984328957,165.15431626342217,0.14967174013191492,108.05927469393869,0.004603560548275709,0.2763179540634155,0.1428571492433548,0.2857142984867096,1,2,left_arm_joint1,lower,0.0068972110748291016,right_arm_joint4,lower,2.384185791015625e-07,0.006897;1.250902;0.332271;0.858406;2.336304;1.426091;2.222780,0.000008;0.373839;0.986744;0.000000;0.012729;0.303369;0.192481,1,right
19,0.6276360035542677,165.63038717493404,0.15069086612371407,107.89606040594919,0.004822897259145975,0.27849340438842773,0.1428571492433548,0.2857142984867096,1,2,left_arm_joint1,lower,0.007271528244018555,right_arm_joint4,lower,0.0,0.007272;1.256176;0.330760;0.859915;2.335111;1.425816;2.246404,0.000007;0.377507;0.983982;0.000000;0.012896;0.298007;0.103256,1,right
20,0.6265768628486111,166.35271481350168,0.15150390906666128,108.5746907483821,0.005222678650170565,0.28467175364494324,0.1428571492433548,0.2857142984867096,1,2,left_arm_joint1,lower,0.007910966873168945,right_arm_joint4,lower,9.5367431640625e-07,0.007911;1.261755;0.329097;0.861093;2.333947;1.425479;2.272402,0.000006;0.382454;0.979749;0.000001;0.012924;0.293438;0.042565,1,right
21,0.6257320946145781,167.15791750699387,0.15197457256256805,108.91728068363933,0.005223746877163649,0.29095789790153503,0.1428571492433548,0.2857142984867096,1,2,left_arm_joint1,lower,0.008593559265136719,right_arm_joint4,lower,-2.1457672119140625e-06,0.008594;1.267534;0.327462;0.862194;2.332772;1.425156;2.298274,0.000004;0.387885;0.978808;-0.000002;0.013225;0.290387;0.017541,1,right
22,0.6250983304269842,168.1397891451102,0.15251907087729233,110.35238060355421,0.005248223431408405,0.29388362169265747,0.1428571492433548,0.4285714626312256,1,3,left_arm_joint1,lower,0.00935220718383789,right_arm_joint4,lower,-3.0994415283203125e-06,0.009352;1.273482;0.325823;0.863207;2.331608;1.424848;2.324180,0.000004;0.392813;0.976650;-0.000003;0.013259;0.285272;0.007224,1,right
23,0.6245674872115691,169.168521128449,0.15330527158680596,111.69853663808775,0.005350074730813503,0.29659950733184814,0.0,0.4285714626312256,0,3,left_arm_joint1,lower,0.010243415832519531,right_arm_joint4,lower,-2.6226043701171875e-06,0.010243;1.279626;0.324117;0.864075;2.330428;1.424534;2.350527,0.000005;0.396305;0.973460;-0.000003;0.013665;0.279493;0.002968,1,right
24,0.6240510692482293,170.20951818622348,0.15365007994701887,113.57537507647282,0.005478740204125643,0.2980195879936218,0.0,0.4285714626312256,0,3,left_arm_joint1,lower,0.011288881301879883,right_arm_joint4,lower,-1.9073486328125e-06,0.011289;1.285978;0.322331;0.864785;2.329241;1.424209;2.377474,0.000005;0.398541;0.971058;-0.000002;0.014086;0.273746;0.001214,1,right
25,0.6235840224197222,171.32367390710732,0.15389036130952352,117.15275303229414,0.005617639981210232,0.29872336983680725,0.0,0.4285714626312256,0,3,left_arm_joint1,lower,0.012497663497924805,right_arm_joint4,lower,-1.6689300537109375e-06,0.012498;1.292533;0.320446;0.865351;2.328023;1.423911;2.405066,0.000006;0.399743;0.969332;-0.000002;0.014221;0.266896;0.000491,1,right
26,0.623117613869849,172.5521129773106,0.15419145557302968,120.87012131164492,0.005734150297939777,0.2994100749492645,0.0,0.4285714626312256,0,3,left_arm_joint1,lower,0.013869762420654297,right_arm_joint4,lower,-2.86102294921875e-06,0.013870;1.299284;0.318461;0.865777;2.326804;1.423612;2.433154,0.000003;0.400703;0.968926;-0.000003;0.014042;0.259264;0.000196,1,right
27,0.6221301784215681,173.78748754258947,0.15419761287161826,123.68284487419282,0.005838117562234402,0.300118625164032,0.0,0.4285714626312256,0,3,left_arm_joint1,lower,0.015406131744384766,right_arm_joint4,lower,-2.384185791015625e-06,0.015406;1.306219;0.316381;0.866067;2.325601;1.423309;2.461673,0.000001;0.400013;0.965861;-0.000002;0.012545;0.251543;0.000075,1,right
28,0.6203515415204737,175.03618340892797,0.15447203205304563,124.72188864572033,0.005921164061874151,0.3006895184516907,0.0,0.4285714626312256,0,3,left_arm_joint1,lower,0.017104625701904297,right_arm_joint1,lower,-2.384185791015625e-06,0.017105;1.313334;0.314214;0.866217;2.324444;1.422976;2.490500,-0.000002;0.397223;0.967348;-0.000002;0.011630;0.244358;0.000030,1,right
29,0.6183383518823249,176.32254877016382,0.15500176705637916,125.32815155227503,0.0060296147130429745,0.30089983344078064,0.0,0.4285714626312256,0,3,left_arm_joint1,lower,0.01896810531616211,right_arm_joint4,lower,-2.6226043701171875e-06,0.018968;1.320611;0.311936;0.866261;2.323281;1.422668;2.519775,0.000005;0.395414;0.968367;-0.000003;0.011014;0.235616;0.000011,1,right
30,0.6163244774710559,177.6576967899109,0.15559825791854642,125.0241037878859,0.006110234186053276,0.30261483788490295,0.0,0.4285714626312256,0,3,left_arm_joint1,lower,0.020998001098632812,right_arm_joint1,lower,-7.152557373046875e-06,0.020998;1.328035;0.309552;0.866205;2.322148;1.422365;2.549217,-0.000007;0.393710;0.968455;-0.000001;0.011004;0.229241;-0.000001,1,right
31,0.6143756809844656,178.97237832037,0.15520831886943565,124.21658705818308,0.006194408517330885,0.30275842547416687,0.0,0.4285714626312256,0,3,left_arm_joint1,lower,0.023194551467895508,right_arm_joint4,lower,-2.384185791015625e-06,0.023195;1.335597;0.307064;0.866059;2.321052;1.422068;2.578791,0.000374;0.392078;0.969846;-0.000002;0.010584;0.225770;-0.000000,1,right
32,0.6121977453378423,179.69022893485263,0.1555909230874408,124.84628574436253,0.006290304008871317,0.30367007851600647,0.0,0.4285714626312256,0,3,left_arm_joint1,lower,0.025548934936523438,right_arm_joint4,lower,-2.1457672119140625e-06,0.025549;1.343286;0.304473;0.865836;2.319988;1.421773;2.608608,-0.000002;0.394609;0.966812;-0.000002;0.011015;0.222448;-0.000000,1,right
33,0.6099011809573535,178.34204041143187,0.15588415042230871,125.3237591663429,0.006356639787554741,0.30501359701156616,0.0,0.4285714626312256,0,3,left_arm_joint1,lower,0.02805471420288086,right_arm_joint1,lower,-6.4373016357421875e-06,0.028055;1.351081;0.301783;0.865553;2.318963;1.421484;2.638515,-0.000006;0.395675;0.966236;-0.000001;0.010434;0.220429;-0.000000,1,right
34,0.6085712632252726,177.644298274192,0.15634283572970561,125.74192784543466,0.0031818535644561052,0.30580949783325195,0.0,0.4285714626312256,0,3,left_arm_joint1,lower,0.028284311294555664,right_arm_joint4,lower,-1.1920928955078125e-06,0.028284;1.355461;0.300045;0.866197;2.318280;1.420381;2.652011,0.000003;0.397094;0.965060;-0.000001;0.010169;0.218207;0.000000,1,right
35,0.6081030819338523,177.40647239029403,0.15670272792336157,125.7943447193008,0.001296814065426588,0.30712786316871643,0.0,0.4285714626312256,0,3,left_arm_joint1,lower,0.027158498764038086,right_arm_joint4,lower,-2.384185791015625e-07,0.027158;1.356274;0.299119;0.867100;2.318089;1.418970;2.655720,0.000069;0.396009;0.965740;-0.000000;0.010458;0.217580;0.000000,1,right
36,0.6079379968747651,177.1692825289474,0.15665952894581803,128.24287936793272,0.00139819725882262,0.3068166673183441,0.0,0.4285714626312256,0,3,left_arm_joint1,lower,0.026012420654296875,right_arm_joint4,lower,-1.6689300537109375e-06,0.026012;1.357123;0.298219;0.868061;2.317927;1.417535;2.660054,0.000065;0.396375;0.966048;-0.000002;0.010394;0.216650;-0.000000,1,right
37,0.6079940478235816,177.02634054617116,0.1567723911788177,131.681816665931,0.001399423461407423,0.30630603432655334,0.0,0.4285714626312256,0,3,left_arm_joint1,lower,0.024869680404663086,right_arm_joint1,lower,-8.821487426757812e-06,0.024870;1.357975;0.297320;0.869039;2.317771;1.416100;2.664388,-0.000009;0.395403;0.966231;-0.000002;0.011196;0.214139;-0.000001,1,right
38,0.6075785455299737,176.76152296363293,0.15703944366642375,135.0757905283092,0.0014385071117430925,0.3057028353214264,0.0,0.4285714626312256,0,3,left_arm_joint1,lower,0.02371954917907715,right_arm_joint1,lower,-3.814697265625e-06,0.023720;1.358844;0.296434;0.870025;2.317603;1.414670;2.668967,-0.000004;0.392227;0.967820;-0.000002;0.010532;0.208556;-0.000001,1,right
39,0.6071699596267377,176.49335453284496,0.15710536270329709,137.57670028698956,0.001442045089788735,0.30450281500816345,0.0,0.5714285969734192,0,4,left_arm_joint1,lower,0.022574186325073242,right_arm_joint4,lower,-4.0531158447265625e-06,0.022574;1.359721;0.295550;0.871035;2.317443;1.413241;2.673557,0.000004;0.392998;0.968435;-0.000004;0.009548;0.200440;0.000006,1,right
40,0.606767929756184,176.27608265873292,0.15757955238676474,139.66245078351585,0.0014733587158843875,0.3050991892814636,0.0,0.5714285969734192,0,4,left_arm_joint1,lower,0.021424055099487305,right_arm_joint4,lower,-1.6689300537109375e-06,0.021424;1.360612;0.294677;0.872048;2.317269;1.411816;2.678344,0.000177;0.394055;0.967167;-0.000002;0.009951;0.192505;0.000000,1,right
41,0.6065707969648465,176.13690530771373,0.15810212967191656,140.66760805329514,0.0016251930501312017,0.30636346340179443,0.0,0.5714285969734192,0,4,left_arm_joint1,lower,0.020221710205078125,right_arm_joint4,lower,-2.384185791015625e-06,0.020222;1.361541;0.293815;0.873109;2.316922;1.410490;2.683993,0.000597;0.393736;0.967016;-0.000002;0.009874;0.185661;0.000000,1,right
42,0.6054439845739091,176.0218813703749,0.15816101408214014,141.39929663829645,0.0016256911912932992,0.30571475625038147,0.0,0.5714285969734192,0,4,left_arm_joint1,lower,0.01902937889099121,right_arm_joint4,lower,-1.9073486328125e-06,0.019029;1.362491;0.292959;0.874184;2.316568;1.409184;2.689640,0.000336;0.395201;0.969090;-0.000002;0.009662;0.176988;0.000000,1,right
43,0.6037500913705652,175.85920921434925,0.1584282936194759,142.95109433396297,0.0016539396019652486,0.3060634732246399,0.0,0.5714285969734192,0,4,left_arm_joint1,lower,0.017835378646850586,right_arm_joint4,lower,-3.0994415283203125e-06,0.017835;1.363454;0.292113;0.875277;2.316210;1.407881;2.695461,0.000418;0.396008;0.967634;-0.000003;0.009708;0.168226;0.000000,1,right
44,0.6026390362741019,175.70167409828355,0.15874254661210696,144.93234300713243,0.0016492648283019662,0.30671605467796326,0.0,0.5714285969734192,0,4,left_arm_joint1,lower,0.016640186309814453,right_arm_joint1,lower,-1.1682510375976562e-05,0.016640;1.364444;0.291277;0.876390;2.315848;1.406591;2.701220,-0.000012;0.401206;0.964911;-0.000003;0.009372;0.159968;-0.000001,1,right
45,0.6017271292721998,175.5456480651167,0.1588685230643543,147.07229676414957,0.0016952881123870611,0.3080691397190094,0.0,0.5714285969734192,0,4,left_arm_joint1,lower,0.015445947647094727,right_arm_joint1,lower,-9.298324584960938e-06,0.015446;1.365432;0.290446;0.877512;2.315484;1.405297;2.707292,-0.000009;0.405619;0.963559;-0.000003;0.009048;0.154317;0.000001,1,right
46,0.6009751767424046,175.35066459243555,0.15904622625471754,148.91148853193792,0.0017149662598967552,0.3083215653896332,0.0,0.5714285969734192,0,4,left_arm_joint1,lower,0.014251708984375,right_arm_joint7,lower,-2.384185791015625e-07,0.014252;1.366431;0.289621;0.878650;2.315117;1.404008;2.713484,0.000004;0.406297;0.961494;0.000002;0.007204;0.144057;-0.000000,1,right
47,0.6004583913453845,175.10764977412725,0.1588359334371194,150.45630347956205,0.0017393785528838634,0.309440016746521,0.0,0.5714285969734192,0,4,left_arm_joint1,lower,0.013057470321655273,right_arm_joint4,lower,-3.337860107421875e-06,0.013057;1.367447;0.288805;0.879807;2.314746;1.402726;2.719824,0.000006;0.409788;0.959571;-0.000003;0.006631;0.141447;0.000014,1,right
48,0.6005026329667216,174.93821958049978,0.15871691597498672,152.57971683802535,0.0017433124594390392,0.3103368878364563,0.0,0.5714285969734192,0,4,left_arm_joint1,lower,0.011862039566040039,right_arm_joint4,lower,0.0,0.011862;1.368491;0.288003;0.880987;2.314370;1.401458;2.726162,0.000007;0.401735;0.962872;0.000000;0.005948;0.138824;0.000005,1,right
49,0.6007660302021967,174.7723939875856,0.15870359347629875,153.45968242599648,0.001791511313058436,0.3080069422721863,0.0,0.5714285969734192,0,4,left_arm_joint1,lower,0.010665655136108398,right_arm_joint4,lower,-3.337860107421875e-06,0.010666;1.369535;0.287204;0.882178;2.313991;1.400191;2.732826,0.000007;0.406680;0.959480;-0.000003;0.006724;0.134695;0.000016,1,right
50,0.600923706968956,174.49059415183035,0.15902806129849434,152.5462905701959,0.0018092991085723042,0.30919137597084045,0.1428571492433548,0.5714285969734192,1,4,left_arm_joint1,lower,0.00947117805480957,right_arm_joint1,lower,-1.8835067749023438e-05,0.009471;1.370593;0.286412;0.883387;2.313609;1.398927;2.739593,-0.000019;0.414853;0.953312;-0.000005;0.007529;0.132324;0.000003,1,right
51,0.6015501145454097,174.15638268422398,0.15940002362740016,152.7096270962903,0.0018371471669524908,0.31059083342552185,0.1428571492433548,0.5714285969734192,1,4,left_arm_joint1,lower,0.008275747299194336,right_arm_joint4,lower,-5.4836273193359375e-06,0.008276;1.371669;0.285630;0.884615;2.313222;1.397671;2.746528,-0.000003;0.424627;0.945678;-0.000005;0.007722;0.129889;0.000000,1,right
52,0.6022506328653161,173.8764821970016,0.16007756295827966,152.24506720985173,0.0018473225645720959,0.31276935338974,0.1428571492433548,0.5714285969734192,1,4,left_arm_joint1,lower,0.007092475891113281,right_arm_joint1,lower,-4.5299530029296875e-06,0.007092;1.372762;0.284861;0.885862;2.312832;1.396394;2.753499,-0.000005;0.434443;0.938114;-0.000003;0.007522;0.128089;0.000000,1,right
53,0.6034179590287224,173.66243027979132,0.16074855542673078,150.40896515014742,0.0018729738658294082,0.3158954083919525,0.1428571492433548,0.5714285969734192,1,4,left_arm_joint1,lower,0.005891084671020508,right_arm_joint1,lower,-1.0251998901367188e-05,0.005891;1.373884;0.284097;0.887118;2.312420;1.395171;2.760633,-0.000010;0.440738;0.931674;-0.000003;0.008607;0.127514;0.000010,1,right
54,0.6041360038992729,173.41698570957433,0.1609361120092331,149.4894289508339,0.0018837389070540667,0.31742459535598755,0.1428571492433548,0.5714285969734192,1,4,left_arm_joint1,lower,0.004680156707763672,right_arm_joint4,lower,-4.76837158203125e-07,0.004680;1.375063;0.283360;0.888405;2.311976;1.393957;2.767746,0.000072;0.436819;0.933004;-0.000000;0.007767;0.126292;0.000000,1,right
55,0.6041710725780876,173.11036058944205,0.1609820721149743,149.39234088914156,0.0019133901223540306,0.31692615151405334,0.1428571492433548,0.5714285969734192,1,4,left_arm_joint1,lower,0.0034682750701904297,right_arm_joint4,lower,-4.76837158203125e-07,0.003468;1.376261;0.282634;0.889715;2.311532;1.392750;2.775043,0.000002;0.435560;0.933334;-0.000000;0.008607;0.124897;0.000008,1,right
56,0.6039328885073392,172.83353086819483,0.16094330805455145,148.9880825031399,0.0019407975487411022,0.31649261713027954,0.1428571492433548,0.5714285969734192,1,4,left_arm_joint1,lower,0.002257108688354492,right_arm_joint4,lower,7.152557373046875e-07,0.002257;1.377479;0.281917;0.891048;2.311088;1.391552;2.782508,0.000005;0.434646;0.932906;0.000001;0.007958;0.122141;0.000014,1,right
57,0.6038127588680882,172.5559122557329,0.16001916882711084,148.43945513606656,0.0019567289855331182,0.3153582513332367,0.1428571492433548,0.5714285969734192,1,4,left_arm_joint1,lower,0.0010480880737304688,right_arm_joint4,lower,-2.6226043701171875e-06,0.001048;1.378708;0.281206;0.892394;2.310643;1.390355;2.790067,0.000003;0.438644;0.931612;-0.000003;0.008205;0.123090;0.000012,1,right
58,0.6038172158333585,172.33489948050607,0.15944066226686962,148.509216756595,0.0019122682278975844,0.31550705432891846,0.1428571492433548,0.5714285969734192,1,4,left_arm_joint1,lower,3.0994415283203125e-06,right_arm_joint4,lower,-2.384185791015625e-07,0.000003;1.379903;0.280630;0.893746;2.310186;1.389133;2.797608,0.000002;0.436958;0.932460;-0.000000;0.008060;0.125205;0.000011,1,right
59,0.6036964645395652,172.1178144890315,0.15821544272118016,149.1650869318198,0.001579489093273878,0.3129543960094452,0.1428571492433548,0.5714285969734192,1,4,left_arm_joint1,lower,-2.86102294921875e-06,right_arm_joint4,lower,-2.384185791015625e-07,-0.000003;1.380785;0.280835;0.895034;2.309627;1.387650;2.804239,0.000003;0.437521;0.931672;-0.000000;0.008666;0.126203;0.000008,1,right
60,0.6033490767261477,171.99427400772106,0.1576401784145782,149.63361559173842,0.0015771453035995364,0.31257063150405884,0.1428571492433548,0.5714285969734192,1,4,left_arm_joint1,lower,-2.86102294921875e-06,right_arm_joint4,lower,1.6689300537109375e-06,-0.000003;1.381680;0.281045;0.896349;2.309070;1.386173;2.810826,0.000005;0.437802;0.931476;0.000002;0.009360;0.129439;0.000002,1,right
61,0.6038927775884376,172.10608909405735,0.15695324504369915,149.77033216160632,0.001603490556590259,0.3110162913799286,0.1428571492433548,0.4285714626312256,1,3,left_arm_joint1,lower,-3.0994415283203125e-06,right_arm_joint7,lower,0.0,-0.000003;1.382591;0.281261;0.897684;2.308513;1.384700;2.817558,0.000005;0.439986;0.930407;0.000001;0.010232;0.132001;0.000000,1,right
62,0.604439924357876,172.21269163611046,0.156465502709302,148.12721617322975,0.0016337740235030651,0.31033557653427124,0.1428571492433548,0.4285714626312256,1,3,left_arm_joint1,lower,-2.86102294921875e-06,right_arm_joint7,lower,4.76837158203125e-07,-0.000003;1.383524;0.281487;0.899040;2.307955;1.383233;2.824455,0.000011;0.441033;0.929874;0.000002;0.010792;0.134128;0.000000,1,right
63,0.6055111482889411,172.2436024805414,0.1559442707151913,146.24181298903233,0.0016623246483504772,0.3096073269844055,0.1428571492433548,0.4285714626312256,1,3,left_arm_joint1,lower,-2.86102294921875e-06,right_arm_joint7,lower,7.152557373046875e-07,-0.000003;1.384475;0.281720;0.900416;2.307395;1.381772;2.831510,0.000013;0.441406;0.929627;0.000002;0.010973;0.136260;0.000001,1,right
64,0.6063657557928356,172.2210833414798,0.15574202844786794,144.61821555957553,0.0016845103818923235,0.30885353684425354,0.1428571492433548,0.4285714626312256,1,3,left_arm_joint1,lower,-2.6226043701171875e-06,right_arm_joint7,lower,0.0,-0.000003;1.385444;0.281961;0.901810;2.306834;1.380314;2.838679,0.000014;0.442176;0.929278;0.000002;0.011276;0.137640;0.000000,1,right
65,0.6075074658148392,172.1638204852845,0.15562345810356396,142.78860091412537,0.0017161902505904436,0.30877017974853516,0.1428571492433548,0.4285714626312256,1,3,left_arm_joint1,lower,-2.6226043701171875e-06,right_arm_joint4,lower,1.430511474609375e-06,-0.000003;1.386434;0.282210;0.903227;2.306271;1.378863;2.846021,0.000016;0.443011;0.928893;0.000001;0.011597;0.139394;0.000001,1,right
66,0.6087185931764563,171.79357738953954,0.1560190538251769,142.7644063431818,0.0017264848574995995,0.3097071051597595,0.1428571492433548,0.4285714626312256,1,3,left_arm_joint1,lower,-2.6226043701171875e-06,right_arm_joint4,lower,1.1920928955078125e-06,-0.000003;1.387444;0.282466;0.904676;2.305721;1.377421;2.853399,0.000016;0.443550;0.928683;0.000001;0.011723;0.141109;0.000003,1,right
67,0.608544989482805,171.478113907755,0.1560692803144802,141.74713354823223,0.0017458541551604867,0.3097568452358246,0.1428571492433548,0.4285714626312256,1,3,left_arm_joint1,lower,-2.384185791015625e-06,right_arm_joint7,lower,7.152557373046875e-07,-0.000002;1.388474;0.282728;0.906145;2.305167;1.375983;2.860868,0.000012;0.444335;0.928197;0.000002;0.012092;0.142454;0.000001,1,right
68,0.6081131657761867,171.2433376137006,0.15616590457701654,142.4950359478503,0.0017775000305846334,0.310453325510025,0.1428571492433548,0.4285714626312256,1,3,left_arm_joint1,lower,-2.384185791015625e-06,right_arm_joint4,lower,9.5367431640625e-07,-0.000002;1.389529;0.283000;0.907637;2.304612;1.374554;2.868507,0.000007;0.446352;0.927334;0.000001;0.013300;0.144116;0.000001,1,right
69,0.6075359941304641,171.04077073043896,0.15638316918101783,142.20660047321675,0.0018112511606886983,0.3119448125362396,0.1428571492433548,0.4285714626312256,1,3,left_arm_joint1,lower,-2.6226043701171875e-06,right_arm_joint1,lower,-1.430511474609375e-06,-0.000003;1.390606;0.283281;0.909154;2.304056;1.373132;2.876332,-0.000001;0.445434;0.926532;0.000002;0.013733;0.147114;0.000000,1,right
70,0.6076292556312226,170.84248996422926,0.15622650077377093,141.47938666084667,0.0018307482823729515,0.3118746876716614,0.1428571492433548,0.4285714626312256,1,3,left_arm_joint1,lower,-2.384185791015625e-06,right_arm_joint4,lower,2.384185791015625e-06,-0.000002;1.391702;0.283566;0.910688;2.303499;1.371714;2.884257,0.000009;0.449451;0.924792;0.000002;0.014819;0.150254;0.000006,1,right
71,0.6078478464838544,170.57543449382558,0.15593296848455912,140.17928615123282,0.0018648889381438494,0.31335097551345825,0.1428571492433548,0.4285714626312256,1,3,left_arm_joint1,lower,-2.384185791015625e-06,right_arm_joint4,lower,1.430511474609375e-06,-0.000002;1.392822;0.283862;0.912248;2.302941;1.370304;2.892369,0.000010;0.452134;0.922932;0.000001;0.013530;0.157303;0.000002,1,right
72,0.6081381343257956,170.31424958045082,0.15524790863570082,138.42582895322568,0.001895566121675074,0.3120943605899811,0.1428571492433548,0.4285714626312256,1,3,left_arm_joint1,lower,-2.6226043701171875e-06,right_arm_joint7,lower,2.384185791015625e-07,-0.000003;1.393965;0.284165;0.913831;2.302383;1.368901;2.900646,0.000009;0.455448;0.922127;0.000002;0.012217;0.164102;0.000000,1,right
73,0.6085276945524306,169.99481792420585,0.15579305818117276,138.36098021337023,0.0019194112392142415,0.313073068857193,0.1428571492433548,0.4285714626312256,1,3,left_arm_joint1,lower,-2.86102294921875e-06,right_arm_joint7,lower,4.76837158203125e-07,-0.000003;1.395130;0.284475;0.915433;2.301822;1.367505;2.909049,0.000004;0.458774;0.920979;0.000003;0.013587;0.169930;0.000000,1,right
74,0.608966072324216,169.6596477901714,0.15623738442074994,138.3731684981492,0.0019524225499480963,0.31458592414855957,0.1428571492433548,0.4285714626312256,1,3,left_arm_joint1,lower,-2.86102294921875e-06,right_arm_joint7,lower,0.0,-0.000003;1.396322;0.284795;0.917062;2.301262;1.366119;2.917629,0.000007;0.461996;0.920018;0.000002;0.014446;0.175508;0.000000,1,right
75,0.6095856636143564,169.24529749979703,0.15661464901093247,138.22452514520486,0.0019804611802101135,0.3154453635215759,0.1428571492433548,0.4285714626312256,1,3,left_arm_joint1,lower,-2.86102294921875e-06,right_arm_joint7,lower,0.0,-0.000003;1.397536;0.285120;0.918711;2.300700;1.364738;2.926360,0.000005;0.463482;0.919011;0.000002;0.015744;0.180369;0.000000,1,right
76,0.6099624933149519,168.79403092122624,0.156674381679197,137.56286338256538,0.0020091459155082703,0.3157438039779663,0.1428571492433548,0.4285714626312256,1,3,left_arm_joint1,lower,-2.384185791015625e-06,right_arm_joint4,lower,2.86102294921875e-06,-0.000002;1.398774;0.285453;0.920384;2.300138;1.363365;2.935244,0.000005;0.466179;0.917813;0.000003;0.016815;0.183900;0.000007,1,right
77,0.6110727966788413,168.34259776027855,0.15693109640959182,137.25306078556957,0.0020457592327147722,0.31727567315101624,0.1428571492433548,0.4285714626312256,1,3,left_arm_joint1,lower,-2.6226043701171875e-06,right_arm_joint1,lower,-7.867813110351562e-06,-0.000003;1.400040;0.285795;0.922084;2.299574;1.362002;2.944330,-0.000008;0.474062;0.915339;-0.000000;0.014413;0.191003;0.000005,1,right
78,0.6110723116143858,167.888558221573,0.15615760771058482,135.36348224177578,0.0020694350823760033,0.3161906898021698,0.1428571492433548,0.4285714626312256,1,3,left_arm_joint1,lower,-2.6226043701171875e-06,right_arm_joint4,lower,-2.384185791015625e-06,-0.000003;1.401329;0.286143;0.923803;2.299010;1.360645;2.953539,0.000005;0.479492;0.915028;-0.000002;0.011809;0.197708;0.000020,1,right
79,0.6105109075266782,167.48112895569326,0.15555405623292554,134.07971509287265,0.002103193663060665,0.31489720940589905,0.1428571492433548,0.4285714626312256,1,3,left_arm_joint1,lower,-2.6226043701171875e-06,right_arm_joint4,lower,-9.5367431640625e-07,-0.000003;1.402645;0.286498;0.925549;2.298444;1.359297;2.962931,0.000008;0.482147;0.912050;-0.000001;0.011243;0.203666;0.000014,1,right
80,0.6101099881569605,167.057120625814,0.15514320289824088,133.31190991254977,0.002135405782610178,0.3132530748844147,0.1428571492433548,0.4285714626312256,1,3,left_arm_joint1,lower,-2.384185791015625e-06,right_arm_joint4,lower,-1.9073486328125e-06,-0.000002;1.403988;0.286862;0.927320;2.297878;1.357959;2.972496,0.000481;0.482940;0.912347;-0.000002;0.011038;0.206373;0.000000,1,right
81,0.6098310096691427,166.61011297407194,0.1552286305111106,132.7436407899614,0.002161122392863035,0.31256258487701416,0.1428571492433548,0.4285714626312256,1,3,left_arm_joint1,lower,-3.0994415283203125e-06,right_arm_joint1,lower,-5.7220458984375e-06,-0.000003;1.405358;0.287230;0.929114;2.297311;1.356629;2.982194,-0.000006;0.483217;0.911825;-0.000001;0.011234;0.206719;0.000001,1,right
82,0.6099815914735863,166.15712047603884,0.15534493857963136,132.09584515953364,0.002198505448177457,0.31236732006073,0.1428571492433548,0.4285714626312256,1,3,left_arm_joint1,lower,-2.86102294921875e-06,right_arm_joint4,lower,-1.9073486328125e-06,-0.000003;1.406757;0.287607;0.930937;2.296743;1.355309;2.992097,0.000452;0.483021;0.912389;-0.000002;0.011117;0.206142;0.000000,1,right
83,0.6105698541911306,165.75331026696054,0.15551441476743078,131.08565539555838,0.0022259759716689587,0.3133847415447235,0.1428571492433548,0.4285714626312256,1,3,left_arm_joint1,lower,-3.337860107421875e-06,right_arm_joint7,lower,-4.76837158203125e-07,-0.000003;1.408180;0.287989;0.932780;2.296175;1.353997;3.002149,0.000321;0.482409;0.911274;-0.000000;0.010713;0.206955;-0.000000,1,right
84,0.6115021145627617,165.37597883046487,0.1559954201411797,130.0573436112267,0.0022601827513426542,0.313867449760437,0.1428571492433548,0.4285714626312256,1,3,left_arm_joint1,lower,-2.86102294921875e-06,right_arm_joint1,lower,-1.0013580322265625e-05,-0.000003;1.409634;0.288378;0.934650;2.295605;1.352697;3.012387,-0.000010;0.484533;0.910364;-0.000001;0.010462;0.206855;0.000001,1,right
85,0.6126095340473202,164.9106695106128,0.1569670528106625,129.8767211169254,0.0022969909477978945,0.3162562847137451,0.1428571492433548,0.4285714626312256,1,3,left_arm_joint1,lower,-2.1457672119140625e-06,right_arm_joint4,lower,-1.6689300537109375e-06,-0.000002;1.411095;0.288756;0.936540;2.294969;1.351418;3.008978,0.001060;0.482768;0.911579;-0.000002;0.010619;0.208255;0.000000,1,right
86,0.6138973588085793,164.35843835396238,0.15728342423954395,129.80106246066222,0.0022796951234340668,0.31694352626800537,0.1428571492433548,0.4285714626312256,1,3,left_arm_joint1,lower,-2.384185791015625e-06,right_arm_joint4,lower,-1.1920928955078125e-06,-0.000002;1.412547;0.289124;0.938398;2.294187;1.350236;2.998661,0.000274;0.486423;0.908831;-0.000001;0.010276;0.208898;-0.000000,1,right
87,0.6150078451703711,163.74117933539918,0.15770704935621882,129.51041609988408,0.002252905862405896,0.3186627924442291,0.1428571492433548,0.4285714626312256,1,3,left_arm_joint1,lower,-2.86102294921875e-06,right_arm_joint4,lower,-7.152557373046875e-07,-0.000003;1.414043;0.289509;0.940194;2.293463;1.348962;2.988566,0.000728;0.488515;0.906204;-0.000001;0.010377;0.211323;-0.000000,1,right
88,0.6162246390991241,163.07386793236813,0.15778940328355137,128.58419478327826,0.002231509191915393,0.3187631666660309,0.1428571492433548,0.4285714626312256,1,3,left_arm_joint1,lower,-2.6226043701171875e-06,right_arm_joint7,lower,-2.384185791015625e-07,-0.000003;1.415529;0.289878;0.941978;2.292727;1.347677;2.978606,0.001148;0.493600;0.902192;0.000000;0.010111;0.213126;-0.000000,1,right
89,0.6177639804641913,162.7813384186728,0.15772253268777736,127.31971027060408,0.0008815511246211827,0.3189699351787567,0.1428571492433548,0.4285714626312256,1,3,left_arm_joint1,lower,-2.1457672119140625e-06,right_arm_joint4,lower,-2.384185791015625e-07,-0.000002;1.416155;0.289713;0.942964;2.292085;1.345880;2.976651,0.001002;0.501178;0.897451;-0.000000;0.010305;0.214999;-0.000000,1,right
90,0.6186243932983114,162.7457675119029,0.1571993945099255,127.17900815103766,0.000633206800557673,0.3180353045463562,0.1428571492433548,0.4285714626312256,1,3,left_arm_joint1,lower,-4.76837158203125e-07,right_arm_joint4,lower,-4.76837158203125e-07,-0.000000;1.416499;0.289378;0.943675;2.291492;1.343937;2.977155,0.001380;0.507427;0.893249;-0.000000;0.010262;0.215555;-0.000000,1,right
91,0.6190201719099591,162.6511063603782,0.15681495029621778,127.41275157309977,0.0003935891727451235,0.31705188751220703,0.1428571492433548,0.4285714626312256,1,3,left_arm_joint1,lower,1.430511474609375e-06,right_arm_joint4,lower,-9.5367431640625e-07,0.000001;1.416672;0.289214;0.944055;2.291293;1.342843;2.977896,0.001900;0.514226;0.888821;-0.000001;0.010226;0.214354;0.000000,1,right
92,0.6192418822869715,162.53566710513496,0.15654613258201275,127.10143193980802,0.0002298131730640307,0.31706175208091736,0.1428571492433548,0.4285714626312256,1,3,left_arm_joint1,lower,7.152557373046875e-07,right_arm_joint7,lower,-1.1920928955078125e-06,0.000001;1.416752;0.289112;0.944320;2.291204;1.341961;2.978088,0.001802;0.521970;0.883510;-0.000000;0.010369;0.212757;-0.000001,1,right
93,0.6192846793627521,162.47730758834157,0.15650851594800913,127.0676465517531,0.00022872805129736662,0.3174758553504944,0.1428571492433548,0.4285714626312256,1,3,left_arm_joint1,lower,4.76837158203125e-07,right_arm_joint4,lower,-4.76837158203125e-07,0.000000;1.416830;0.289009;0.944586;2.291114;1.341071;2.978262,0.002551;0.529305;0.877769;-0.000000;0.010236;0.210804;0.000000,1,right
94,0.6190326164810679,162.46441458718206,0.1564980760609217,127.01167487722667,0.00023179555137176067,0.31818801164627075,0.1428571492433548,0.4285714626312256,1,3,left_arm_joint1,lower,7.152557373046875e-07,right_arm_joint4,lower,-1.1920928955078125e-06,0.000001;1.416912;0.288908;0.944855;2.291025;1.340181;2.978453,0.002614;0.538340;0.872647;-0.000001;0.010192;0.208530;0.000000,1,right
95,0.6188768586804136,162.49085812756084,0.1564794382245647,127.48588057381232,0.0002204158517997712,0.31888818740844727,0.1428571492433548,0.4285714626312256,1,3,left_arm_joint1,lower,-2.384185791015625e-07,right_arm_joint4,lower,-1.1920928955078125e-06,-0.000000;1.416994;0.288810;0.945121;2.290860;1.339331;2.978534,0.002443;0.546225;0.866623;-0.000001;0.010794;0.205479;0.000000,1,right
96,0.6189238439383198,162.49891090875303,0.15684786036336926,127.98383586321049,0.00021768096485175192,0.3202415406703949,0.1428571492433548,0.4285714626312256,1,3,left_arm_joint1,lower,2.384185791015625e-07,right_arm_joint4,lower,-1.1920928955078125e-06,0.000000;1.417067;0.288711;0.945363;2.290504;1.338578;2.978534,0.003198;0.553184;0.861366;-0.000001;0.010633;0.202314;0.000000,1,right
97,0.6190638026132791,162.5194817480874,0.15717485129660524,128.3351718191432,0.00021966442000120878,0.322536826133728,0.1428571492433548,0.4285714626312256,1,3,left_arm_joint1,lower,-4.76837158203125e-07,right_arm_joint4,lower,-2.86102294921875e-06,-0.000000;1.417140;0.288613;0.945606;2.290144;1.337824;2.978543,0.001232;0.561897;0.854800;-0.000003;0.010576;0.198693;0.000000,1,right
98,0.6193932631560308,162.5080997869747,0.15784908025149882,129.05167350258154,0.00021894117526244372,0.3252699077129364,0.1428571492433548,0.4285714626312256,1,3,left_arm_joint1,lower,0.0,right_arm_joint4,lower,-7.152557373046875e-07,0.000000;1.417212;0.288514;0.945848;2.289785;1.337066;2.978542,0.003431;0.563994;0.853097;-0.000001;0.010792;0.198700;0.000000,1,right
99,0.6197452932675285,162.45193759297717,0.15832057673077887,129.11023063593362,0.00022040840121917427,0.3265899121761322,0.1428571492433548,0.4285714626312256,1,3,left_arm_joint1,lower,0.0,right_arm_joint4,lower,-1.9073486328125e-06,0.000000;1.417285;0.288414;0.946093;2.289423;1.336307;2.978538,0.002759;0.569459;0.850655;-0.000002;0.010533;0.197040;-0.000001,1,right
100,0.6201046206065318,162.37489810434803,0.15847650174891686,128.50428114390724,0.0002205026103183627,0.32820287346839905,0.1428571492433548,0.5714285969734192,1,4,left_arm_joint1,lower,0.0,right_arm_joint4,lower,-2.384185791015625e-06,0.000000;1.417358;0.288314;0.946337;2.289061;1.335544;2.978535,0.000070;0.573455;0.847119;-0.000002;0.008309;0.194709;0.000000,1,right
101,0.6209824072066021,162.38775952614128,0.1593763872458549,128.45497701767547,0.00022109493147581816,0.3303740918636322,0.1428571492433548,0.5714285969734192,1,4,left_arm_joint1,lower,0.0,right_arm_joint4,lower,-1.430511474609375e-06,0.000000;1.417432;0.288214;0.946583;2.288699;1.334779;2.978537,0.000212;0.574282;0.846052;-0.000001;0.007259;0.194411;0.000001,1,right
102,0.6216913965315705,162.48657698476578,0.1598788234570414,127.74170113177274,0.00022144138347357512,0.33102574944496155,0.1428571492433548,0.5714285969734192,1,4,left_arm_joint1,lower,2.384185791015625e-07,right_arm_joint4,lower,-7.152557373046875e-07,0.000000;1.417506;0.288113;0.946828;2.288337;1.334012;2.978536,0.000685;0.572504;0.846936;-0.000001;0.006644;0.192958;0.000000,1,right
103,0.6220380400462142,162.6402124777479,0.1605911690832051,128.11715798392487,0.00022222421830520034,0.33166781067848206,0.1428571492433548,0.5714285969734192,1,4,left_arm_joint1,lower,2.384185791015625e-07,right_arm_joint4,lower,-1.6689300537109375e-06,0.000000;1.417580;0.288012;0.947075;2.287974;1.333243;2.978537,0.000994;0.570908;0.847944;-0.000002;0.005997;0.190454;0.000001,1,right
104,0.6223757663858045,162.79347307900912,0.16140647594392601,128.49018436303177,0.00022290275956038386,0.33254384994506836,0.1428571492433548,0.5714285969734192,1,4,left_arm_joint1,lower,-2.384185791015625e-07,right_arm_joint4,lower,-2.86102294921875e-06,-0.000000;1.417654;0.287911;0.947322;2.287608;1.332472;2.978538,0.001097;0.569408;0.848763;-0.000003;0.005501;0.186865;-0.000000,1,right
105,0.6227142989471076,162.92555650862477,0.16252323369998212,129.39910923416807,0.00022522946528624743,0.3339904546737671,0.1428571492433548,0.5714285969734192,1,4,left_arm_joint1,lower,0.0,right_arm_joint4,lower,-2.1457672119140625e-06,0.000000;1.417730;0.287809;0.947570;2.287243;1.331698;2.978549,0.000784;0.568065;0.849338;-0.000002;0.005101;0.182096;0.000001,1,right
106,0.6228227254612514,163.035564003807,0.1635355327904293,130.06212273834433,0.00022515868477057666,0.3358914256095886,0.1428571492433548,0.5714285969734192,1,4,left_arm_joint1,lower,0.0,right_arm_joint4,lower,-2.6226043701171875e-06,0.000000;1.417805;0.287707;0.947820;2.286877;1.330922;2.978557,0.000518;0.566805;0.849923;-0.000003;0.004711;0.177573;0.000001,1,right
107,0.6228386017684077,163.05676513962865,0.1645301754456743,131.1051903275852,0.00022605009144172072,0.3376769423484802,0.1428571492433548,0.5714285969734192,1,4,left_arm_joint1,lower,0.0,right_arm_joint4,lower,-1.6689300537109375e-06,0.000000;1.417882;0.287604;0.948069;2.286507;1.330143;2.978552,0.000222;0.565688;0.850401;-0.000002;0.004352;0.173156;0.000000,1,right
108,0.6228555928261559,163.05379737342884,0.16532499649191387,131.8156677655772,0.00022608468134421855,0.3392273783683777,0.1428571492433548,0.5714285969734192,1,4,left_arm_joint1,lower,2.384185791015625e-07,right_arm_joint4,lower,-2.6226043701171875e-06,0.000000;1.417958;0.287501;0.948319;2.286137;1.329361;2.978553,0.001313;0.563529;0.851214;-0.000003;0.004495;0.169998;0.000000,1,right
109,0.6232750532755431,163.0246722444222,0.1656523786345048,132.37570531764416,0.00022822406026534736,0.3403383791446686,0.1428571492433548,0.5714285969734192,1,4,left_arm_joint1,lower,-2.384185791015625e-07,right_arm_joint4,lower,-3.5762786865234375e-06,-0.000000;1.418035;0.287398;0.948572;2.285766;1.328576;2.978543,0.000847;0.564904;0.850989;-0.000004;0.004003;0.167613;0.000000,1,right
110,0.6238207867901667,163.03625442669454,0.16650810257225343,133.14930903518677,0.0002283294452354312,0.34223657846450806,0.1428571492433548,0.5714285969734192,1,4,left_arm_joint1,lower,-2.384185791015625e-07,right_arm_joint4,lower,-2.6226043701171875e-06,-0.000000;1.418113;0.287294;0.948824;2.285396;1.327791;2.978551,0.002477;0.564461;0.850426;-0.000003;0.004873;0.167361;0.000000,1,right
111,0.6243494394752823,163.0956658532743,0.16681302045233343,133.49061533279513,0.00022841725149191916,0.3430077135562897,0.1428571492433548,0.5714285969734192,1,4,left_arm_joint1,lower,0.0,right_arm_joint4,lower,-2.6226043701171875e-06,0.000000;1.418190;0.287189;0.949077;2.285023;1.327003;2.978546,0.002124;0.564726;0.850867;-0.000003;0.004510;0.165349;0.000000,1,right
112,0.6248195755569794,163.19390423735842,0.1671768418897347,134.27198530054062,0.00022916603484191,0.3440844714641571,0.1428571492433548,0.5714285969734192,1,4,left_arm_joint1,lower,-2.384185791015625e-07,right_arm_joint4,lower,-3.0994415283203125e-06,-0.000000;1.418268;0.287084;0.949331;2.284652;1.326213;2.978540,0.002817;0.564940;0.849932;-0.000003;0.004177;0.164732;-0.000001,1,right
113,0.6250787746572036,163.3828846315735,0.16809499648903736,134.81677606097728,0.00023046295973472297,0.34528523683547974,0.1428571492433548,0.5714285969734192,1,4,left_arm_joint1,lower,0.0,right_arm_joint4,lower,-2.6226043701171875e-06,0.000000;1.418346;0.286979;0.949585;2.284279;1.325422;2.978530,0.003509;0.563662;0.849916;-0.000003;0.004012;0.162819;0.000000,1,right
114,0.6250264752805501,163.47955897871117,0.16832330342168228,135.31754396017226,0.00023057313228491694,0.3457183241844177,0.1428571492433548,0.5714285969734192,1,4,left_arm_joint1,lower,2.384185791015625e-07,right_arm_joint4,lower,-4.0531158447265625e-06,0.000000;1.418425;0.286874;0.949840;2.283906;1.324628;2.978521,0.003935;0.562088;0.850511;-0.000004;0.003835;0.161237;0.000000,1,right
115,0.6249354369451261,163.57921761878106,0.16817319311369042,135.97269216164682,0.00023229421640280634,0.3451920449733734,0.1428571492433548,0.5714285969734192,1,4,left_arm_joint1,lower,-2.384185791015625e-07,right_arm_joint4,lower,-3.337860107421875e-06,-0.000000;1.418503;0.286768;0.950095;2.283529;1.323830;2.978511,0.005435;0.561004;0.850774;-0.000003;0.003515;0.160398;0.000000,1,right
116,0.6247503699084275,163.69689836075943,0.16815064618825515,136.4718254332607,0.00023348417016677558,0.34482449293136597,0.1428571492433548,0.5714285969734192,1,4,left_arm_joint1,lower,0.0,right_arm_joint4,lower,-2.6226043701171875e-06,0.000000;1.418583;0.286662;0.950353;2.283151;1.323029;2.978498,0.007916;0.558724;0.851741;-0.000003;0.003275;0.159811;0.000001,1,right
117,0.6246075891320414,163.794373799911,0.16822161411737943,136.64235170395582,0.00023385138774756342,0.34431177377700806,0.1428571492433548,0.4285714626312256,1,3,left_arm_joint1,lower,0.0,right_arm_joint4,lower,-3.5762786865234375e-06,0.000000;1.418663;0.286554;0.950611;2.282773;1.322227;2.978489,0.011310;0.555062;0.852637;-0.000004;0.003097;0.158696;0.000000,1,right
118,0.6244302099350153,163.91170537590426,0.16802409360934506,136.3566386386598,0.0002347129920963198,0.3439568877220154,0.1428571492433548,0.4285714626312256,1,3,left_arm_joint1,lower,2.384185791015625e-07,right_arm_joint4,lower,-3.0994415283203125e-06,0.000000;1.418744;0.286446;0.950871;2.282394;1.321422;2.978478,0.013541;0.553153;0.853335;-0.000003;0.002997;0.158132;0.000000,1,right
119,0.6243166674867978,164.004824143692,0.16759478821899262,135.98437876676832,0.00023594021331518888,0.34303706884384155,0.1428571492433548,0.4285714626312256,1,3,left_arm_joint1,lower,-4.76837158203125e-07,right_arm_joint4,lower,-4.291534423828125e-06,-0.000000;1.418825;0.286339;0.951130;2.282014;1.320614;2.978463,0.015601;0.552821;0.852671;-0.000004;0.003107;0.157892;-0.000000,1,right
120,0.6244805782983787,164.09077460255622,0.16722841514028539,135.27263682923257,0.00023612061340827495,0.3430232107639313,0.1428571492433548,0.4285714626312256,1,3,left_arm_joint1,lower,0.0,right_arm_joint4,lower,-2.86102294921875e-06,0.000000;1.418906;0.286230;0.951391;2.281632;1.319803;2.978452,0.017011;0.554024;0.851446;-0.000003;0.003411;0.158982;-0.000000,1,right
121,0.6248289167052714,164.16582687761772,0.16672918299792114,134.4136360571631,0.00023709930246695876,0.3425844609737396,0.1428571492433548,0.4285714626312256,1,3,left_arm_joint1,lower,-2.384185791015625e-07,right_arm_joint4,lower,-2.86102294921875e-06,-0.000000;1.418989;0.286122;0.951653;2.281252;1.318991;2.978440,0.018734;0.555182;0.850576;-0.000003;0.003598;0.160755;0.000000,1,right
122,0.6253085542635386,164.22180347655262,0.16634419123544825,133.95945940274746,0.00023758571478538215,0.34182605147361755,0.1428571492433548,0.4285714626312256,1,3,left_arm_joint1,lower,0.0,right_arm_joint4,lower,-1.9073486328125e-06,0.000000;1.419071;0.286014;0.951915;2.280869;1.318175;2.978428,0.021695;0.553772;0.851733;-0.000002;0.003584;0.162368;-0.000000,1,right
123,0.6257289033549126,164.2945659124794,0.16632733217626477,133.46962255482416,0.00023925944697111845,0.3416559398174286,0.1428571492433548,0.4285714626312256,1,3,left_arm_joint1,lower,0.0,right_arm_joint4,lower,-1.9073486328125e-06,0.000000;1.419153;0.285903;0.952178;2.280483;1.317356;2.978414,0.025594;0.549752;0.853287;-0.000002;0.003567;0.164080;0.000000,1,right
124,0.6260222026347882,164.38349767451314,0.1661025625561542,133.09178848134502,0.00023935310309752822,0.34134989976882935,0.1428571492433548,0.4285714626312256,1,3,left_arm_joint1,lower,-2.384185791015625e-07,right_arm_joint4,lower,-3.337860107421875e-06,-0.000000;1.419237;0.285794;0.952442;2.280097;1.316536;2.978400,0.026260;0.548141;0.853591;-0.000003;0.003901;0.165414;0.000000,1,right
125,0.6258570743509917,164.6727362063072,0.16569282052320627,132.16645045996853,0.00024059682618826628,0.34079253673553467,0.1428571492433548,0.4285714626312256,1,3,left_arm_joint1,lower,-2.384185791015625e-07,right_arm_joint4,lower,-2.384185791015625e-06,-0.000000;1.419321;0.285683;0.952708;2.279711;1.315713;2.978386,0.025165;0.551729;0.851795;-0.000002;0.003941;0.167582;0.000000,1,right
126,0.6256744405568831,164.71588281333425,0.16493268191367258,132.04028689600946,0.0002407937281532213,0.3405100703239441,0.1428571492433548,0.4285714626312256,1,3,left_arm_joint1,lower,2.384185791015625e-07,right_arm_joint4,lower,-2.1457672119140625e-06,0.000000;1.419405;0.285573;0.952973;2.279324;1.314887;2.978374,0.024601;0.555089;0.850432;-0.000002;0.004338;0.171033;-0.000000,1,right
127,0.6252975432181671,164.7009392900698,0.16473184397177973,131.74357381436397,0.0002418788499198854,0.34119337797164917,0.1428571492433548,0.4285714626312256,1,3,left_arm_joint1,lower,-4.76837158203125e-07,right_arm_joint4,lower,-1.9073486328125e-06,-0.000000;1.419490;0.285461;0.953240;2.278936;1.314059;2.978361,0.025520;0.555589;0.850279;-0.000002;0.004727;0.176001;-0.000000,1,right
128,0.6250765148334094,164.72241702801676,0.16461987429448927,131.72721744279232,0.0002424445701763034,0.3412415385246277,0.1428571492433548,0.4285714626312256,1,3,left_arm_joint1,lower,-2.384185791015625e-07,right_arm_joint4,lower,-1.430511474609375e-06,-0.000000;1.419575;0.285349;0.953507;2.278547;1.313230;2.978347,0.026636;0.554424;0.850902;-0.000001;0.005025;0.180809;0.000000,1,right
129,0.6248073396344799,164.7242127685591,0.16417705326387017,131.45720703779423,0.00024310022126883268,0.3410186171531677,0.1428571492433548,0.4285714626312256,1,3,left_arm_joint1,lower,-7.152557373046875e-07,right_arm_joint4,lower,-1.9073486328125e-06,-0.000001;1.419660;0.285238;0.953776;2.278158;1.312398;2.978331,0.027626;0.554850;0.850976;-0.000002;0.005301;0.186872;-0.000000,1,right
130,0.6245707028771919,164.76942155607856,0.16331949759843403,130.88389840456378,0.00024500011932104826,0.3391937017440796,0.1428571492433548,0.4285714626312256,1,3,left_arm_joint1,lower,0.0,right_arm_joint4,lower,-1.6689300537109375e-06,0.000000;1.419746;0.285126;0.954047;2.277765;1.311562;2.978316,0.027817;0.556965;0.850079;-0.000002;0.005666;0.192260;-0.000000,1,right
131,0.6244632029385508,164.83702622901822,0.1626171374054383,130.36528330732813,0.0002456690708640963,0.3380170166492462,0.1428571492433548,0.4285714626312256,1,3,left_arm_joint1,lower,-2.384185791015625e-07,right_arm_joint4,lower,-1.6689300537109375e-06,-0.000000;1.419833;0.285013;0.954317;2.277371;1.310722;2.978300,0.027682;0.559628;0.848845;-0.000002;0.006180;0.197217;0.000000,1,right
132,0.6243636699537917,164.94674827651798,0.16211957019483755,129.88616684655833,0.0002463816781528294,0.3370378613471985,0.1428571492433548,0.4285714626312256,1,3,left_arm_joint1,lower,-2.384185791015625e-07,right_arm_joint4,lower,-1.6689300537109375e-06,-0.000000;1.419921;0.284899;0.954590;2.276977;1.309880;2.978285,0.027502;0.562121;0.847717;-0.000002;0.006698;0.201476;0.000000,1,right
133,0.6243741983104885,164.970520129242,0.16163596849154765,129.65513679481907,0.00024712193408049643,0.3359415829181671,0.1428571492433548,0.4285714626312256,1,3,left_arm_joint1,lower,2.384185791015625e-07,right_arm_joint4,lower,-9.5367431640625e-07,0.000000;1.420009;0.284785;0.954861;2.276582;1.309036;2.978270,0.027342;0.564117;0.846795;-0.000001;0.007146;0.204828;0.000000,1,right
134,0.6245187228873427,164.9649421661066,0.1614349714550244,129.66667496917108,0.00015488266944885254,0.33561864495277405,0.1428571492433548,0.4285714626312256,1,3,left_arm_joint1,lower,-2.384185791015625e-07,right_arm_joint4,lower,-1.1920928955078125e-06,-0.000000;1.420064;0.284714;0.955030;2.276333;1.308511;2.978254,0.027245;0.565841;0.846004;-0.000001;0.007538;0.207926;0.000000,1,right
135,0.6245162836730398,164.94270333610214,0.1613431933761397,129.58107831102814,3.2245050078927306e-06,0.3352343440055847,0.1428571492433548,0.4285714626312256,1,3,left_arm_joint1,lower,2.384185791015625e-07,right_arm_joint4,lower,-9.5367431640625e-07,0.000000;1.420063;0.284714;0.955031;2.276334;1.308507;2.978239,0.027070;0.567403;0.845279;-0.000001;0.007860;0.210278;0.000000,1,right
136,0.6245980411332238,164.95683357984447,0.161088008891064,129.50928257146933,2.4714640858292114e-06,0.33510294556617737,0.1428571492433548,0.4285714626312256,1,3,left_arm_joint1,lower,0.0,right_arm_joint4,lower,-1.430511474609375e-06,0.000000;1.420063;0.284714;0.955031;2.276335;1.308508;2.978223,0.025533;0.571095;0.842715;-0.000001;0.006805;0.212394;0.000000,1,right
137,0.6246692611274004,164.91525245834094,0.16060241942921857,128.68049295418254,2.317662847417523e-06,0.3348601460456848,0.1428571492433548,0.4285714626312256,1,3,left_arm_joint1,lower,0.0,right_arm_joint4,lower,-2.384185791015625e-06,0.000000;1.420063;0.284714;0.955031;2.276335;1.308508;2.978208,0.023779;0.576749;0.839953;-0.000002;0.006831;0.215474;0.000000,1,right
138,0.6247420002780343,164.82274897013218,0.16079626772206698,128.27402307731825,2.445387053739978e-06,0.3354857861995697,0.1428571492433548,0.4285714626312256,1,3,left_arm_joint1,lower,2.384185791015625e-07,right_arm_joint4,lower,-2.1457672119140625e-06,0.000000;1.420064;0.284714;0.955031;2.276334;1.308507;2.978193,0.022913;0.580024;0.838342;-0.000002;0.007127;0.217924;0.000000,1,right
139,0.6245870423024628,164.77857420343372,0.16120126057271345,127.6927235709544,2.537454975026776e-06,0.33657601475715637,0.1428571492433548,0.4285714626312256,1,3,left_arm_joint1,lower,2.384185791015625e-07,right_arm_joint4,lower,-1.6689300537109375e-06,0.000000;1.420064;0.284714;0.955031;2.276335;1.308508;2.978178,0.022954;0.581033;0.837883;-0.000002;0.007448;0.220218;0.000000,1,right
140,0.6244090986233128,164.78937715717566,0.16147814515702077,126.86805329304438,2.8397357709764037e-06,0.3374904990196228,0.1428571492433548,0.4285714626312256,1,3,left_arm_joint1,lower,-2.384185791015625e-07,right_arm_joint4,lower,-7.152557373046875e-07,-0.000000;1.420063;0.284714;0.955030;2.276334;1.308508;2.978162,0.023340;0.581368;0.837811;-0.000001;0.007725;0.222843;0.000000,1,right
141,0.6245151790603267,164.8145290367347,0.16131313958961183,126.54322497148294,2.3549157504021423e-06,0.33717721700668335,0.1428571492433548,0.4285714626312256,1,3,left_arm_joint1,lower,2.384185791015625e-07,right_arm_joint4,lower,-1.430511474609375e-06,0.000000;1.420063;0.284714;0.955030;2.276335;1.308508;2.978147,0.023580;0.581990;0.837596;-0.000001;0.007961;0.225302;0.000000,1,right
142,0.6248473549879339,164.87934211185657,0.16126491241455607,126.44838587697113,2.469335413479712e-06,0.33672288060188293,0.1428571492433548,0.4285714626312256,1,3,left_arm_joint1,lower,0.0,right_arm_joint4,lower,-1.1920928955078125e-06,0.000000;1.420064;0.284714;0.955031;2.276334;1.308508;2.978132,0.023510;0.582905;0.837183;-0.000001;0.008145;0.226814;0.000000,1,right
143,0.6252506794643954,165.00660483376512,0.16107715516312787,125.96292767464107,2.303293967997888e-06,0.33609738945961,0.1428571492433548,0.4285714626312256,1,3,left_arm_joint1,lower,-2.384185791015625e-07,right_arm_joint4,lower,-1.430511474609375e-06,-0.000000;1.420064;0.284714;0.955031;2.276334;1.308507;2.978117,0.023347;0.583728;0.836787;-0.000001;0.008281;0.227682;0.000001,1,right
144,0.6258406902682064,165.10982851113488,0.16100720631132376,125.97372498897765,2.393765271335724e-06,0.33549582958221436,0.1428571492433548,0.4285714626312256,1,3,left_arm_joint1,lower,0.0,right_arm_joint4,lower,-1.6689300537109375e-06,0.000000;1.420063;0.284714;0.955031;2.276334;1.308508;2.978102,0.023161;0.584099;0.836574;-0.000002;0.008348;0.227513;0.000000,1,right
145,0.6261190559264723,165.13265597250705,0.16150127468747666,126.21655196502036,2.294246769452002e-06,0.33611148595809937,0.1428571492433548,0.4285714626312256,1,3,left_arm_joint1,lower,0.0,right_arm_joint4,lower,-1.1920928955078125e-06,0.000000;1.420063;0.284714;0.955031;2.276334;1.308507;2.978087,0.023005;0.584017;0.836568;-0.000001;0.008352;0.226578;0.000000,1,right
146,0.626326668848086,165.14747997902637,0.16206837065941596,126.78543872598776,2.5768365503608948e-06,0.3368486166000366,0.1428571492433548,0.4285714626312256,1,3,left_arm_joint1,lower,-4.76837158203125e-07,right_arm_joint4,lower,-1.430511474609375e-06,-0.000000;1.420064;0.284714;0.955031;2.276334;1.308507;2.978071,0.022859;0.583553;0.836732;-0.000001;0.008280;0.224888;0.000000,1,right
147,0.6265517907259254,165.2037271530236,0.16304763627228608,127.76106291295005,2.4022801881073974e-06,0.3379773497581482,0.1428571492433548,0.4285714626312256,1,3,left_arm_joint1,lower,-2.384185791015625e-07,right_arm_joint4,lower,-1.430511474609375e-06,-0.000000;1.420064;0.284714;0.955032;2.276334;1.308507;2.978057,0.022621;0.582543;0.837107;-0.000001;0.008102;0.221634;0.000000,1,right
148,0.626653765481524,165.26041958313084,0.16373782746002868,127.69383790082473,2.881246018660022e-06,0.3390279710292816,0.1428571492433548,0.4285714626312256,1,3,left_arm_joint1,lower,2.384185791015625e-07,right_arm_joint4,lower,-1.9073486328125e-06,0.000000;1.420063;0.284714;0.955031;2.276334;1.308509;2.978041,0.022514;0.581021;0.837735;-0.000002;0.007833;0.217974;0.000001,1,right
149,0.6268021647460302,165.31668825149995,0.16431771456270355,128.8205976380172,2.605042482173303e-06,0.339815229177475,0.1428571492433548,0.4285714626312256,1,3,left_arm_joint1,lower,0.0,right_arm_joint4,lower,-1.9073486328125e-06,0.000000;1.420063;0.284714;0.955031;2.276334;1.308507;2.978027,0.022532;0.578985;0.838614;-0.000002;0.007487;0.213875;0.000000,1,right
150,0.6266453350028811,165.43222404406174,0.1645018785959122,129.46875784919723,2.5331974029541016e-06,0.34033721685409546,0.1428571492433548,0.4285714626312256,1,3,left_arm_joint1,lower,2.384185791015625e-07,right_arm_joint4,lower,-1.6689300537109375e-06,0.000000;1.420064;0.284713;0.955031;2.276335;1.308507;2.978012,0.022828;0.576722;0.839661;-0.000002;0.007118;0.210695;0.000000,1,right
151,0.6264282101570661,165.61498521468388,0.16430125661044256,129.50850772796528,2.4640135052322876e-06,0.34013494849205017,0.1428571492433548,0.4285714626312256,1,3,left_arm_joint1,lower,2.384185791015625e-07,right_arm_joint4,lower,-1.430511474609375e-06,0.000000;1.420063;0.284714;0.955031;2.276334;1.308507;2.977996,0.023160;0.574828;0.840549;-0.000001;0.006787;0.208446;0.000000,1,right
152,0.6261460397714909,165.7683961503806,0.164016941827246,129.99906017011875,2.4421940452157287e-06,0.3395184576511383,0.1428571492433548,0.4285714626312256,1,3,left_arm_joint1,lower,0.0,right_arm_joint4,lower,-1.9073486328125e-06,0.000000;1.420063;0.284714;0.955031;2.276334;1.308508;2.977982,0.023276;0.573572;0.841114;-0.000002;0.006514;0.206459;0.000000,1,right
153,0.6259609002515538,165.85189635478363,0.16354985925373253,131.7848288134732,2.444854999339441e-06,0.3384324014186859,0.1428571492433548,0.4285714626312256,1,3,left_arm_joint1,lower,0.0,right_arm_joint4,lower,-2.1457672119140625e-06,0.000000;1.420064;0.284714;0.955031;2.276334;1.308507;2.977967,0.023210;0.572733;0.841463;-0.000002;0.006272;0.204428;0.000000,1,right
154,0.6260682274633164,165.9118210340798,0.16325129060442417,131.36962823167227,2.6119607809960144e-06,0.3383183777332306,0.1428571492433548,0.4285714626312256,1,3,left_arm_joint1,lower,2.384185791015625e-07,right_arm_joint4,lower,-2.6226043701171875e-06,0.000000;1.420063;0.284714;0.955031;2.276334;1.308507;2.977951,0.023271;0.572189;0.841713;-0.000003;0.006097;0.203628;-0.000000,1,right
155,0.6262905982251467,166.0207100152692,0.16330544306499228,130.8831390983337,2.487429583197809e-06,0.33779826760292053,0.1428571492433548,0.4285714626312256,1,3,left_arm_joint1,lower,2.384185791015625e-07,right_arm_joint4,lower,-2.384185791015625e-06,0.000000;1.420063;0.284714;0.955031;2.276335;1.308508;2.977936,0.023066;0.571708;0.841877;-0.000002;0.005933;0.201638;0.000000,1,right
156,0.6265372938083649,166.11633675787647,0.16337632775494468,130.58748066257928,2.4879618649720214e-06,0.3377125859260559,0.1428571492433548,0.4285714626312256,1,3,left_arm_joint1,lower,0.0,right_arm_joint4,lower,-2.1457672119140625e-06,0.000000;1.420064;0.284714;0.955031;2.276335;1.308509;2.977921,0.022962;0.570834;0.842220;-0.000002;0.005727;0.199404;-0.000000,1,right
157,0.6267603283627529,166.18863652543658,0.16366428767940405,130.65559841086662,2.9131772407708922e-06,0.3381842374801636,0.1428571492433548,0.4285714626312256,1,3,left_arm_joint1,lower,0.0,right_arm_joint4,lower,-1.6689300537109375e-06,0.000000;1.420064;0.284714;0.955031;2.276334;1.308506;2.977906,0.022971;0.569890;0.842619;-0.000002;0.005545;0.197280;0.000001,1,right
158,0.6270696693836014,166.2556642789076,0.1638121386489534,130.50457004732175,2.5800297862588195e-06,0.3385181725025177,0.1428571492433548,0.4285714626312256,1,3,left_arm_joint1,lower,-2.384185791015625e-07,right_arm_joint4,lower,-2.1457672119140625e-06,-0.000000;1.420064;0.284714;0.955031;2.276335;1.308507;2.977890,0.022921;0.569234;0.842911;-0.000002;0.005387;0.195528;0.000000,1,right
159,0.6277481420543217,166.33328403580822,0.16402538571191827,131.23082692729105,2.376203156018164e-06,0.3385699987411499,0.1428571492433548,0.4285714626312256,1,3,left_arm_joint1,lower,2.384185791015625e-07,right_arm_joint4,lower,-1.1920928955078125e-06,0.000000;1.420063;0.284714;0.955031;2.276335;1.308508;2.977875,0.022729;0.568680;0.843107;-0.000001;0.005239;0.193324;0.000000,1,right
160,0.6283007596452304,166.37681311374908,0.16406467409659786,131.41219277491857,2.3703491933702026e-06,0.3387323021888733,0.1428571492433548,0.4285714626312256,1,3,left_arm_joint1,lower,2.384185791015625e-07,right_arm_joint4,lower,-2.6226043701171875e-06,0.000000;1.420064;0.284714;0.955032;2.276335;1.308508;2.977860,0.022639;0.568152;0.843324;-0.000003;0.005086;0.191707;0.000001,1,right
161,0.6287339640035392,166.383842282603,0.16410171819468336,131.65085838051806,2.3708812477707397e-06,0.33870187401771545,0.1428571492433548,0.4285714626312256,1,3,left_arm_joint1,lower,-2.384185791015625e-07,right_arm_joint4,lower,-1.9073486328125e-06,-0.000000;1.420064;0.284714;0.955031;2.276334;1.308508;2.977845,0.022512;0.567752;0.843489;-0.000002;0.004944;0.190176;0.000000,1,right
162,0.6288749209160279,166.48650262477307,0.16401785692913376,131.6052013776137,2.567789579188684e-06,0.33845770359039307,0.1428571492433548,0.4285714626312256,1,3,left_arm_joint1,lower,0.0,right_arm_joint4,lower,-2.1457672119140625e-06,0.000000;1.420064;0.284714;0.955031;2.276334;1.308506;2.977831,0.022362;0.567360;0.843592;-0.000002;0.004814;0.188753;0.000000,1,right
163,0.6289122646092655,166.5922170104275,0.16421564171961803,131.97648225381278,2.7258481622993713e-06,0.33873918652534485,0.1428571492433548,0.4285714626312256,1,3,left_arm_joint1,lower,2.384185791015625e-07,right_arm_joint4,lower,-2.384185791015625e-06,0.000000;1.420064;0.284714;0.955030;2.276335;1.308508;2.977816,0.022419;0.566772;0.843879;-0.000002;0.004753;0.187500;0.000001,1,right
164,0.6287332532969347,166.72604715449526,0.1646112924417493,132.34564859111794,2.325113428014447e-06,0.3396957814693451,0.1428571492433548,0.4285714626312256,1,3,left_arm_joint1,lower,2.384185791015625e-07,right_arm_joint4,lower,-2.6226043701171875e-06,0.000000;1.420064;0.284714;0.955030;2.276335;1.308508;2.977801,0.022472;0.566517;0.844115;-0.000003;0.004662;0.186734;0.000001,1,right
165,0.6287930813921969,166.79769556801992,0.1648815412275951,133.6866191275174,2.561935389167047e-06,0.3405812978744507,0.1428571492433548,0.4285714626312256,1,3,left_arm_joint1,lower,-4.76837158203125e-07,right_arm_joint4,lower,-2.384185791015625e-06,-0.000000;1.420064;0.284714;0.955031;2.276334;1.308508;2.977786,0.022561;0.566375;0.844161;-0.000002;0.004629;0.186951;0.000000,1,right
166,0.6287615415024005,166.8783537432668,0.16521349818134007,134.72060323362962,2.2335777885018615e-06,0.34136727452278137,0.1428571492433548,0.4285714626312256,1,3,left_arm_joint1,lower,-2.384185791015625e-07,right_arm_joint4,lower,-2.1457672119140625e-06,-0.000000;1.420064;0.284714;0.955031;2.276334;1.308507;2.977772,0.022470;0.566698;0.843982;-0.000002;0.004603;0.187400;-0.000000,1,right
167,0.6288125643621941,166.97477262299302,0.16546477205929128,135.1594723028907,2.255929530292633e-06,0.3422774374485016,0.1428571492433548,0.4285714626312256,1,3,left_arm_joint1,lower,-4.76837158203125e-07,right_arm_joint4,lower,-2.1457672119140625e-06,-0.000000;1.420064;0.284714;0.955031;2.276334;1.308507;2.977757,0.022389;0.567509;0.843604;-0.000002;0.004624;0.188702;-0.000000,1,right
168,0.6286569086447095,167.05245088397098,0.16547379286126962,135.30125377244678,2.2724270820617676e-06,0.34289684891700745,0.1428571492433548,0.4285714626312256,1,3,left_arm_joint1,lower,0.0,right_arm_joint4,lower,-1.9073486328125e-06,0.000000;1.420064;0.284714;0.955031;2.276334;1.308507;2.977742,0.022397;0.568400;0.843188;-0.000002;0.004765;0.191050;0.000000,1,right
169,0.6285710649229272,167.13687571623365,0.16558198889562772,135.0525943073849,2.414520395177533e-06,0.34329524636268616,0.1428571492433548,0.4285714626312256,1,3,left_arm_joint1,lower,2.384185791015625e-07,right_arm_joint4,lower,-1.430511474609375e-06,0.000000;1.420063;0.284714;0.955031;2.276334;1.308507;2.977727,0.022524;0.569236;0.842867;-0.000001;0.004965;0.193469;0.000001,1,right
170,0.6283989541917003,167.19453590361428,0.16526479568589128,134.74658332749942,2.3777997739671264e-06,0.34305110573768616,0.1428571492433548,0.4285714626312256,1,3,left_arm_joint1,lower,2.384185791015625e-07,right_arm_joint4,lower,-1.6689300537109375e-06,0.000000;1.420063;0.284714;0.955031;2.276335;1.308507;2.977712,0.022749;0.570064;0.842555;-0.000002;0.005181;0.196476;0.000000,1,right
171,0.6285497365116286,167.20111185187855,0.16471427349193832,134.94466581225916,2.558210098868585e-06,0.34233126044273376,0.1428571492433548,0.4285714626312256,1,3,left_arm_joint1,lower,2.384185791015625e-07,right_arm_joint4,lower,-1.9073486328125e-06,0.000000;1.420064;0.284714;0.955031;2.276336;1.308508;2.977696,0.022964;0.571084;0.842160;-0.000002;0.005415;0.199887;0.000000,1,right
172,0.6285097041933699,167.18925772868215,0.1639555775082442,134.9916765429105,2.392700935160974e-06,0.3410729169845581,0.1428571492433548,0.4285714626312256,1,3,left_arm_joint1,lower,0.0,right_arm_joint4,lower,-2.1457672119140625e-06,0.000000;1.420064;0.284714;0.955031;2.276335;1.308508;2.977682,0.023208;0.572354;0.841671;-0.000002;0.005704;0.203676;0.000000,1,right
173,0.6283169064611698,167.11472353775102,0.16308511969619457,134.2546239669056,2.605042482173303e-06,0.33962735533714294,0.1428571492433548,0.4285714626312256,1,3,left_arm_joint1,lower,-4.76837158203125e-07,right_arm_joint4,lower,-1.6689300537109375e-06,-0.000000;1.420064;0.284714;0.955031;2.276335;1.308507;2.977667,0.023318;0.574016;0.840979;-0.000002;0.006097;0.207683;0.000000,1,right
174,0.6281893455016689,167.07834637567473,0.16214440180948492,132.74638244365354,2.6300551780877868e-06,0.3381761312484741,0.1428571492433548,0.4285714626312256,1,3,left_arm_joint1,lower,0.0,right_arm_joint4,lower,-1.9073486328125e-06,0.000000;1.420063;0.284714;0.955031;2.276334;1.308508;2.977652,0.023398;0.575925;0.840183;-0.000002;0.006502;0.212019;0.000001,1,right
175,0.628044402957172,166.96912074941423,0.16160369540241773,131.00489039244505,2.4485802896379028e-06,0.33745077252388,0.1428571492433548,0.4285714626312256,1,3,left_arm_joint1,lower,0.0,right_arm_joint4,lower,-1.430511474609375e-06,0.000000;1.420063;0.284714;0.955030;2.276335;1.308507;2.977637,0.023486;0.577855;0.839366;-0.000001;0.006917;0.216460;-0.000000,1,right
176,0.6278947114077392,166.85651891609166,0.16138143693097878,130.10279080886144,2.612493062770227e-06,0.3369782567024231,0.1428571492433548,0.4285714626312256,1,3,left_arm_joint1,lower,4.76837158203125e-07,right_arm_joint4,lower,-1.430511474609375e-06,0.000000;1.420064;0.284714;0.955032;2.276334;1.308507;2.977622,0.023437;0.579742;0.838534;-0.000001;0.007315;0.220100;-0.000001,1,right
177,0.6277609829042845,166.72774018552897,0.1612891775757443,129.6754271950934,2.4570952064095763e-06,0.33703234791755676,0.1428571492433548,0.4285714626312256,1,3,left_arm_joint1,lower,2.384185791015625e-07,right_arm_joint4,lower,-1.9073486328125e-06,0.000000;1.420064;0.284714;0.955031;2.276335;1.308507;2.977608,0.023434;0.581485;0.837779;-0.000002;0.007687;0.223649;0.000001,1,right
178,0.6275730240521977,166.6636358930138,0.16108523162845143,129.05119452245413,2.393232989561511e-06,0.336823433637619,0.1428571492433548,0.4285714626312256,1,3,left_arm_joint1,lower,2.384185791015625e-07,right_arm_joint4,lower,-9.5367431640625e-07,0.000000;1.420064;0.284714;0.955031;2.276334;1.308507;2.977593,0.023411;0.583135;0.837054;-0.000001;0.008023;0.226907;0.000000,1,right
179,0.6274044773613346,166.63712158830836,0.1606983110380453,127.4654063819702,2.3714135295449523e-06,0.33603259921073914,0.1428571492433548,0.4285714626312256,1,3,left_arm_joint1,lower,-2.384185791015625e-07,right_arm_joint4,lower,-1.430511474609375e-06,-0.000000;1.420064;0.284714;0.955031;2.276334;1.308507;2.977578,0.023359;0.584600;0.836401;-0.000001;0.008317;0.229636;0.000000,1,right
180,0.6274756217990617,166.64129806241158,0.16001060427126046,125.60831208248409,2.3549157504021423e-06,0.3349554240703583,0.1428571492433548,0.4285714626312256,1,3,left_arm_joint1,lower,0.0,right_arm_joint4,lower,-1.1920928955078125e-06,0.000000;1.420064;0.284714;0.955031;2.276335;1.308508;2.977564,0.023415;0.585912;0.835834;-0.000001;0.008595;0.232607;0.000000,1,right
181,0.6274704038967943,166.64896128824628,0.15923321613187486,123.99868211344675,2.469867467880249e-06,0.33332979679107666,0.1428571492433548,0.4285714626312256,1,3,left_arm_joint1,lower,2.384185791015625e-07,right_arm_joint4,lower,-7.152557373046875e-07,0.000000;1.420064;0.284714;0.955031;2.276334;1.308508;2.977549,0.023386;0.587275;0.835237;-0.000001;0.008852;0.235236;0.000000,1,right
182,0.6274194917800792,166.60387970449509,0.1584512556647646,122.57069260411328,2.3272421003639465e-06,0.3323172926902771,0.1428571492433548,0.4285714626312256,1,3,left_arm_joint1,lower,2.384185791015625e-07,right_arm_joint4,lower,-1.430511474609375e-06,0.000000;1.420064;0.284714;0.955030;2.276335;1.308508;2.977534,0.022271;0.589782;0.833134;-0.000001;0.008041;0.238081;0.000000,1,right
183,0.6273136076930823,166.49800242663284,0.1577667353475308,121.61391026917262,2.311276602995349e-06,0.3313067555427551,0.1428571492433548,0.4285714626312256,1,3,left_arm_joint1,lower,0.0,right_arm_joint4,lower,-1.1920928955078125e-06,0.000000;1.420064;0.284714;0.955031;2.276335;1.308508;2.977519,0.020372;0.595807;0.830169;-0.000001;0.007888;0.241348;0.000000,1,right
184,0.6271308586863433,166.4357782725962,0.1574461797631731,120.5868419871191,2.4065375328063965e-06,0.3309408724308014,0.1428571492433548,0.4285714626312256,1,3,left_arm_joint1,lower,0.0,right_arm_joint4,lower,-1.1920928955078125e-06,0.000000;1.420064;0.284714;0.955031;2.276334;1.308507;2.977504,0.019310;0.599738;0.828228;-0.000001;0.008216;0.244345;0.000000,1,right
185,0.6269467026612263,166.410563638094,0.1571596206080529,118.68357403544151,2.3304353362618713e-06,0.3304848074913025,0.1428571492433548,0.4285714626312256,1,3,left_arm_joint1,lower,-2.384185791015625e-07,right_arm_joint4,lower,-9.5367431640625e-07,-0.000000;1.420063;0.284714;0.955031;2.276334;1.308506;2.977490,0.019268;0.601137;0.827598;-0.000001;0.008589;0.247066;0.000000,1,right
186,0.6268324212373226,166.4932920816954,0.1565721552872111,117.14623003168806,2.691788495212677e-06,0.3297693431377411,0.1428571492433548,0.4285714626312256,1,3,left_arm_joint1,lower,2.384185791015625e-07,right_arm_joint4,lower,-7.152557373046875e-07,0.000000;1.420064;0.284714;0.955031;2.276335;1.308507;2.977475,0.019727;0.601698;0.827454;-0.000001;0.008928;0.250501;-0.000000,1,right
187,0.6269770979391562,166.5230299017933,0.15601274980734292,116.00601986271805,2.3847180727898376e-06,0.32838746905326843,0.1428571492433548,0.4285714626312256,1,3,left_arm_joint1,lower,2.384185791015625e-07,right_arm_joint4,lower,-1.1920928955078125e-06,0.000000;1.420064;0.284714;0.955032;2.276335;1.308507;2.977460,0.019947;0.602490;0.827169;-0.000001;0.009212;0.253201;0.000000,1,right
188,0.6267733400396065,166.49473004103584,0.15557505319108497,114.79259542212432,2.5667252430139342e-06,0.32751545310020447,0.1428571492433548,0.4285714626312256,1,3,left_arm_joint1,lower,-2.384185791015625e-07,right_arm_joint4,lower,-7.152557373046875e-07,-0.000000;1.420063;0.284714;0.955030;2.276334;1.308507;2.977446,0.019993;0.603489;0.826757;-0.000001;0.009445;0.255477;0.000000,1,right
189,0.6263399293286779,166.45111418249957,0.15496023328960726,113.35070605911201,2.729041398197296e-06,0.32672062516212463,0.1428571492433548,0.4285714626312256,1,3,left_arm_joint1,lower,2.384185791015625e-07,right_arm_joint4,lower,-7.152557373046875e-07,0.000000;1.420064;0.284714;0.955030;2.276335;1.308508;2.977431,0.020168;0.604479;0.826379;-0.000001;0.009676;0.258405;0.000000,1,right
190,0.6259848942351294,166.41892285908358,0.1540277308646197,112.26367251248664,2.5699182515381835e-06,0.32508736848831177,0.1428571492433548,0.4285714626312256,1,3,left_arm_joint1,lower,-2.384185791015625e-07,right_arm_joint7,lower,-2.384185791015625e-07,-0.000000;1.420064;0.284714;0.955031;2.276335;1.308508;2.977416,0.020421;0.605449;0.826025;0.000000;0.009926;0.261647;-0.000000,1,right
191,0.6258201239174258,166.44606844384762,0.15318984833948973,112.2287664774033,2.5044596441148315e-06,0.3234829008579254,0.1428571492433548,0.2857142984867096,1,2,left_arm_joint1,lower,0.0,right_arm_joint4,lower,-2.384185791015625e-07,0.000000;1.420063;0.284714;0.955030;2.276334;1.308509;2.977402,0.020642;0.606483;0.825637;-0.000000;0.010185;0.264855;0.000000,1,right
192,0.625515040289054,166.47753092379264,0.15215608564614067,111.97786625169009,2.904130042225006e-06,0.3216014802455902,0.1428571492433548,0.2857142984867096,1,2,left_arm_joint1,lower,0.0,right_arm_joint4,lower,-7.152557373046875e-07,0.000000;1.420064;0.284714;0.955032;2.276334;1.308506;2.977387,0.020862;0.607629;0.825198;-0.000001;0.010458;0.268297;0.000000,1,right
193,0.6251409489128926,166.5029874801653,0.1511936094631116,111.83042672867533,2.5773688321351074e-06,0.3196845054626465,0.1428571492433548,0.2857142984867096,1,2,left_arm_joint1,lower,-2.384185791015625e-07,right_arm_joint4,lower,-7.152557373046875e-07,-0.000000;1.420064;0.284714;0.955032;2.276335;1.308508;2.977372,0.021015;0.608934;0.824683;-0.000001;0.010734;0.271712;0.000000,1,right
194,0.624943718422919,166.54726032543047,0.15040427431674255,112.72836937593709,2.3229847556649474e-06,0.31811094284057617,0.1428571492433548,0.2857142984867096,1,2,left_arm_joint1,lower,2.384185791015625e-07,right_arm_joint4,lower,-1.1920928955078125e-06,0.000000;1.420064;0.284714;0.955032;2.276335;1.308508;2.977358,0.020272;0.610994;0.822330;-0.000001;0.010723;0.274668;0.000000,1,right
195,0.6247869026023574,166.52706924271192,0.1497077985837069,113.82741857896713,2.3102122668205993e-06,0.3166692852973938,0.1428571492433548,0.2857142984867096,1,2,left_arm_joint1,lower,0.0,right_arm_joint4,lower,-2.384185791015625e-07,0.000000;1.420064;0.284714;0.955031;2.276334;1.308507;2.977345,0.017062;0.618260;0.818436;-0.000000;0.010423;0.276185;-0.000000,1,right
196,0.6246379816326927,166.47103334289923,0.14949129525759342,113.99709288947898,2.429953838145593e-06,0.3154798448085785,0.1428571492433548,0.2857142984867096,1,2,left_arm_joint1,lower,0.0,right_arm_joint4,lower,-1.1920928955078125e-06,0.000000;1.420064;0.284714;0.955031;2.276334;1.308508;2.977329,0.015726;0.621300;0.816767;-0.000001;0.010616;0.276068;0.000000,1,right
197,0.6246739763972626,166.39509766073976,0.14923879763504538,114.56340840117737,2.345336497455719e-06,0.31420594453811646,0.1428571492433548,0.2857142984867096,1,2,left_arm_joint1,lower,0.0,right_arm_joint4,lower,-4.76837158203125e-07,0.000000;1.420063;0.284714;0.955031;2.276334;1.308508;2.977314,0.015959;0.620170;0.817297;-0.000000;0.010718;0.274579;0.000000,1,right
198,0.6247303726293558,166.36312277949455,0.14933646374994847,116.68668189110697,2.5353263026772765e-06,0.3131070137023926,0.1428571492433548,0.2857142984867096,1,2,left_arm_joint1,lower,0.0,right_arm_joint4,lower,-9.5367431640625e-07,0.000000;1.420064;0.284714;0.955032;2.276335;1.308507;2.977299,0.016459;0.617429;0.818602;-0.000001;0.010532;0.270880;0.000000,1,right
199,0.6249644138600324,166.30194528080332,0.14994068672509747,119.00881081601703,2.4230353119492065e-06,0.31368476152420044,0.1428571492433548,0.2857142984867096,1,2,left_arm_joint1,lower,0.0,right_arm_joint4,lower,-9.5367431640625e-07,0.000000;1.420063;0.284714;0.955031;2.276335;1.308507;2.977285,0.016736;0.614687;0.819845;-0.000001;0.010126;0.266175;-0.000000,1,right
200,0.625171945762955,166.26389619436327,0.15059440821811998,120.55774163500612,2.373542201894452e-06,0.31484454870224,0.1428571492433548,0.4285714626312256,1,3,left_arm_joint1,lower,0.0,right_arm_joint4,lower,-9.5367431640625e-07,0.000000;1.420064;0.284714;0.955031;2.276335;1.308508;2.977270,0.016707;0.612590;0.820720;-0.000001;0.009646;0.261481;-0.000000,1,right
201,0.6254197295125795,166.27615168598257,0.1514960620206318,120.89513553109195,2.427824938422418e-06,0.3171333074569702,0.1428571492433548,0.4285714626312256,1,3,left_arm_joint1,lower,0.0,right_arm_joint4,lower,-1.1920928955078125e-06,0.000000;1.420064;0.284714;0.955030;2.276335;1.308508;2.977256,0.016531;0.611304;0.821223;-0.000001;0.009207;0.257863;-0.000000,1,right
202,0.625582091471477,166.36624455250245,0.15229808261719185,120.737497979488,2.5981239559769165e-06,0.31956911087036133,0.1428571492433548,0.4285714626312256,1,3,left_arm_joint1,lower,2.384185791015625e-07,right_arm_joint4,lower,-1.6689300537109375e-06,0.000000;1.420063;0.284713;0.955030;2.276334;1.308506;2.977242,0.016304;0.610893;0.821349;-0.000002;0.008887;0.255914;0.000000,1,right
203,0.6259250543424317,166.44165821766066,0.15261208450468866,120.42017973342841,2.8003539682686096e-06,0.320575088262558,0.1428571492433548,0.4285714626312256,1,3,left_arm_joint1,lower,-2.384185791015625e-07,right_arm_joint4,lower,-1.1920928955078125e-06,-0.000000;1.420063;0.284714;0.955031;2.276335;1.308508;2.977227,0.016016;0.610983;0.821236;-0.000001;0.008710;0.254747;0.000000,1,right
204,0.626002952851108,166.53772860318304,0.1527589321392902,120.24894060115408,2.474657321727136e-06,0.32093554735183716,0.1428571492433548,0.4285714626312256,1,3,left_arm_joint1,lower,0.0,right_arm_joint4,lower,-1.1920928955078125e-06,0.000000;1.420064;0.284714;0.955031;2.276334;1.308506;2.977213,0.015808;0.610996;0.821172;-0.000001;0.008616;0.253776;0.000001,1,right
205,0.6262259466335423,166.60824185377018,0.15279921149072623,120.05995186658329,2.236770797026111e-06,0.32110175490379333,0.1428571492433548,0.4285714626312256,1,3,left_arm_joint1,lower,-2.384185791015625e-07,right_arm_joint4,lower,-1.6689300537109375e-06,-0.000000;1.420064;0.284714;0.955031;2.276334;1.308507;2.977199,0.015748;0.610815;0.821233;-0.000002;0.008546;0.253098;0.000000,1,right
206,0.6261196676649408,166.67456097170242,0.15308450101359794,119.7654541602827,2.2064364202378783e-06,0.321808397769928,0.1428571492433548,0.4285714626312256,1,3,left_arm_joint1,lower,0.0,right_arm_joint4,lower,-1.430511474609375e-06,0.000000;1.420063;0.284714;0.955031;2.276335;1.308507;2.977185,0.015728;0.610651;0.821297;-0.000001;0.008489;0.252676;0.000000,1,right
207,0.6259803510816444,166.64398669440428,0.15338706973886737,119.33853696566388,2.349593842154718e-06,0.3220383822917938,0.1428571492433548,0.4285714626312256,1,3,left_arm_joint1,lower,0.0,right_arm_joint4,lower,-2.1457672119140625e-06,0.000000;1.420063;0.284714;0.955031;2.276334;1.308506;2.977170,0.015599;0.610417;0.821359;-0.000002;0.008412;0.251523;0.000000,1,right
208,0.6259921920406594,166.59383667707206,0.1536758016910454,118.98352491910198,2.4150526769517455e-06,0.3227318227291107,0.1428571492433548,0.4285714626312256,1,3,left_arm_joint1,lower,0.0,right_arm_joint4,lower,-1.430511474609375e-06,0.000000;1.420063;0.284714;0.955030;2.276334;1.308509;2.977156,0.015565;0.610112;0.821481;-0.000001;0.008324;0.250714;0.000001,1,right
209,0.6260521023169787,166.52852239995394,0.15406666442734412,119.19876425052195,2.6135573989449767e-06,0.3235289752483368,0.1428571492433548,0.4285714626312256,1,3,left_arm_joint1,lower,2.384185791015625e-07,right_arm_joint4,lower,-1.9073486328125e-06,0.000000;1.420064;0.284714;0.955032;2.276335;1.308508;2.977142,0.015490;0.609935;0.821535;-0.000002;0.008242;0.249994;0.000000,1,right
210,0.6263448864102166,166.49759071104492,0.1542826858125856,119.99953476745253,2.4911548734962707e-06,0.32441800832748413,0.1428571492433548,0.4285714626312256,1,3,left_arm_joint1,lower,0.0,right_arm_joint4,lower,-1.1920928955078125e-06,0.000000;1.420063;0.284714;0.955031;2.276335;1.308507;2.977128,0.015504;0.610033;0.821502;-0.000001;0.008213;0.250298;0.000000,1,right
211,0.6265743444342919,166.4565016793274,0.15450015539015804,120.76788784643874,2.3410789253830444e-06,0.32552585005760193,0.1428571492433548,0.4285714626312256,1,3,left_arm_joint1,lower,0.0,right_arm_joint4,lower,-1.1920928955078125e-06,0.000000;1.420064;0.284714;0.955031;2.276335;1.308507;2.977113,0.015585;0.610605;0.821285;-0.000001;0.008295;0.252001;0.000000,1,right
212,0.6267328932653172,166.4475545051213,0.15468620630027036,120.80192822739942,2.5480987915216247e-06,0.32685741782188416,0.1428571492433548,0.4285714626312256,1,3,left_arm_joint1,lower,2.384185791015625e-07,right_arm_joint4,lower,-1.1920928955078125e-06,0.000000;1.420063;0.284714;0.955031;2.276334;1.308508;2.977099,0.015788;0.611705;0.820879;-0.000001;0.008527;0.255456;0.000000,1,right
213,0.626566697104953,166.4932279786756,0.15468137443837096,119.72756654674919,2.3543834686279297e-06,0.32773351669311523,0.1428571492433548,0.4285714626312256,1,3,left_arm_joint1,lower,0.0,right_arm_joint4,lower,-1.430511474609375e-06,0.000000;1.420063;0.284714;0.955030;2.276335;1.308507;2.977085,0.016036;0.613362;0.820257;-0.000001;0.008898;0.260339;0.000000,1,right
214,0.6263182089519909,166.59115322175472,0.15422749249703133,118.93362480364789,2.283070898556616e-06,0.3270733058452606,0.1428571492433548,0.4285714626312256,1,3,left_arm_joint1,lower,-2.384185791015625e-07,right_arm_joint4,lower,-9.5367431640625e-07,-0.000000;1.420064;0.284714;0.955030;2.276335;1.308507;2.977072,0.016174;0.615362;0.819448;-0.000001;0.009349;0.265385;-0.000000,1,right
215,0.6259763183817167,166.64915413709676,0.1536783392598405,118.19708946929967,2.4703997496544616e-06,0.3262982964515686,0.1428571492433548,0.4285714626312256,1,3,left_arm_joint1,lower,2.384185791015625e-07,right_arm_joint4,lower,-7.152557373046875e-07,0.000000;1.420063;0.284713;0.955031;2.276335;1.308507;2.977057,0.016332;0.617456;0.818599;-0.000001;0.009846;0.270741;0.000000,1,right
216,0.6257781940455437,166.69472753316725,0.15306742023722672,117.26070937274355,2.555017090344336e-06,0.3252187669277191,0.1428571492433548,0.2857142984867096,1,2,left_arm_joint1,lower,-2.384185791015625e-07,right_arm_joint4,lower,-7.152557373046875e-07,-0.000000;1.420063;0.284714;0.955031;2.276334;1.308507;2.977042,0.016467;0.619528;0.817747;-0.000001;0.010351;0.275918;0.000000,1,right
217,0.6254807293538515,166.71153541848022,0.1525358069768303,115.51228978796432,2.3373536350845825e-06,0.32436010241508484,0.1428571492433548,0.2857142984867096,1,2,left_arm_joint1,lower,4.76837158203125e-07,right_arm_joint4,lower,-7.152557373046875e-07,0.000000;1.420063;0.284714;0.955032;2.276335;1.308506;2.977028,0.016662;0.621539;0.816940;-0.000001;0.010854;0.281229;-0.000000,1,right
218,0.6251836815722758,166.70838831858904,0.1521499715123503,114.0935368179672,2.427824938422418e-06,0.3232698440551758,0.1428571492433548,0.2857142984867096,1,2,left_arm_joint1,lower,0.0,right_arm_joint7,lower,-2.384185791015625e-07,0.000000;1.420064;0.284714;0.955031;2.276334;1.308507;2.977014,0.016576;0.623913;0.815674;0.000000;0.011674;0.285323;-0.000000,1,right
219,0.6248870879838254,166.6274564661904,0.1516044319359328,112.53896687222218,2.298504114151001e-06,0.32278504967689514,0.1428571492433548,0.2857142984867096,1,2,left_arm_joint1,lower,2.384185791015625e-07,right_arm_joint7,lower,0.0,0.000000;1.420063;0.284714;0.955031;2.276334;1.308508;2.977000,0.014861;0.629459;0.812864;0.000000;0.012418;0.289375;0.000000,1,right
220,0.6245677641560827,166.50171096770896,0.1509676571550664,110.42552335032205,2.197389221691992e-06,0.3223387897014618,0.1428571492433548,0.2857142984867096,1,2,left_arm_joint1,lower,2.384185791015625e-07,right_arm_joint4,lower,0.0,0.000000;1.420064;0.284714;0.955030;2.276335;1.308507;2.976987,0.013296;0.633696;0.809799;0.000000;0.011778;0.293871;0.000000,1,right
221,0.6240824557372259,166.39052214228153,0.15013822323932516,107.84548367576619,2.188342023146106e-06,0.32087644934654236,0.1428571492433548,0.2857142984867096,1,2,left_arm_joint1,lower,0.0,right_arm_joint4,lower,0.0,0.000000;1.420064;0.284714;0.955031;2.276335;1.308507;2.976973,0.011567;0.639270;0.806999;0.000000;0.010941;0.298339;0.000000,1,right
222,0.6236862111952285,166.33756758022474,0.14972108476863666,104.88934508476245,2.2745559817849426e-06,0.3198340833187103,0.1428571492433548,0.2857142984867096,1,2,left_arm_joint1,lower,4.76837158203125e-07,right_arm_joint7,lower,2.384185791015625e-07,0.000000;1.420064;0.284714;0.955031;2.276335;1.308508;2.976960,0.010936;0.642552;0.805290;0.000000;0.011469;0.302151;0.000000,1,right
223,0.6236067570419978,166.27865611402675,0.14907489181952616,101.2319952295944,2.331499672436621e-06,0.3191327452659607,0.1428571492433548,0.4285714626312256,1,3,left_arm_joint1,lower,-2.384185791015625e-07,right_arm_joint7,lower,0.0,-0.000000;1.420064;0.284714;0.955031;2.276335;1.308508;2.976946,0.009854;0.646559;0.803193;0.000000;0.012169;0.306415;0.000000,1,right
224,0.6232187724802597,166.26358377525185,0.1485205948346293,97.87740979284405,2.3102122668205993e-06,0.3184269070625305,0.1428571492433548,0.4285714626312256,1,3,left_arm_joint1,lower,2.384185791015625e-07,right_arm_joint4,lower,2.384185791015625e-07,0.000000;1.420064;0.284714;0.955030;2.276335;1.308508;2.976933,0.008855;0.649587;0.800893;0.000000;0.011604;0.310623;0.000000,1,right
225,0.6226208289096704,166.26766877086592,0.14780675378388144,94.65022534418392,2.4496446258126525e-06,0.31679168343544006,0.1428571492433548,0.4285714626312256,1,3,left_arm_joint1,lower,0.0,right_arm_joint7,lower,7.152557373046875e-07,0.000000;1.420064;0.284714;0.955032;2.276335;1.308509;2.976919,0.008219;0.652839;0.799315;0.000001;0.011130;0.314487;0.000001,1,right
226,0.621987039699081,166.23254743564019,0.14722256608168757,91.86985461191922,2.4879618649720214e-06,0.3152220845222473,0.1428571492433548,0.4285714626312256,1,3,left_arm_joint1,lower,2.384185791015625e-07,right_arm_joint7,lower,2.384185791015625e-07,0.000000;1.420064;0.284714;0.955031;2.276334;1.308507;2.976906,0.006785;0.656551;0.797322;0.000001;0.011375;0.317055;0.000000,1,right
227,0.6212580090329961,166.14823458195602,0.1467837519180691,89.37728708274005,2.4469836716889404e-06,0.3138735890388489,0.1428571492433548,0.4285714626312256,1,3,left_arm_joint1,lower,-4.76837158203125e-07,right_arm_joint7,lower,-4.76837158203125e-07,-0.000000;1.420063;0.284714;0.955031;2.276334;1.308506;2.976892,0.006877;0.657578;0.796882;0.000000;0.011835;0.319122;-0.000000,1,right
228,0.6205673591653673,165.97658613838044,0.14611879138581274,87.11017969142496,2.5789654500840697e-06,0.31192532181739807,0.1428571492433548,0.4285714626312256,1,3,left_arm_joint1,lower,0.0,right_arm_joint7,lower,0.0,0.000000;1.420063;0.284714;0.955030;2.276335;1.308508;2.976878,0.007014;0.657783;0.796814;0.000001;0.012054;0.320394;0.000000,1,right
229,0.619996349080445,165.8993713291662,0.14540500518969068,85.869919971006,2.3304353362618713e-06,0.3100743293762207,0.1428571492433548,0.4285714626312256,1,3,left_arm_joint1,lower,0.0,right_arm_joint7,lower,7.152557373046875e-07,0.000000;1.420064;0.284714;0.955032;2.276334;1.308507;2.976864,0.007409;0.657323;0.797149;0.000001;0.012156;0.321116;0.000001,1,right
230,0.6194746116716016,165.85846589799715,0.145167698351922,85.49553045439767,2.579497504484607e-06,0.3091505765914917,0.1428571492433548,0.4285714626312256,1,3,left_arm_joint1,lower,0.0,right_arm_joint7,lower,2.384185791015625e-07,0.000000;1.420064;0.284713;0.955032;2.276335;1.308507;2.976848,0.007782;0.656667;0.797554;0.000001;0.012195;0.321290;0.000000,1,right
231,0.6188270383625244,165.83267222442672,0.14532941701997767,85.9716633614486,2.2894571429787902e-06,0.3089803457260132,0.1428571492433548,0.4285714626312256,1,3,left_arm_joint1,lower,-2.384185791015625e-07,right_arm_joint7,lower,0.0,-0.000000;1.420064;0.284714;0.955031;2.276335;1.308508;2.976834,0.008000;0.656031;0.797899;0.000000;0.012171;0.320789;0.000000,1,right
232,0.6182473209615863,165.8163933007634,0.14535178293933465,86.45484021651957,2.5363906388520263e-06,0.3093925416469574,0.1428571492433548,0.4285714626312256,1,3,left_arm_joint1,lower,-4.76837158203125e-07,right_arm_joint7,lower,7.152557373046875e-07,-0.000000;1.420064;0.284714;0.955031;2.276334;1.308506;2.976821,0.008266;0.655726;0.798133;0.000001;0.012127;0.321299;0.000001,1,right
233,0.6174883283648416,165.76104531238875,0.14535343399617714,86.68588513099834,2.466142177581787e-06,0.30895933508872986,0.1428571492433548,0.4285714626312256,1,3,left_arm_joint1,lower,0.0,right_arm_joint7,lower,0.0,0.000000;1.420063;0.284714;0.955031;2.276334;1.308507;2.976807,0.008332;0.655623;0.798208;0.000001;0.012107;0.321318;0.000000,1,right
234,0.6167529548966332,165.6806975781834,0.14510327851024488,86.089770270758,2.0079314708709717e-06,0.308371901512146,0.1428571492433548,0.4285714626312256,1,3,left_arm_joint1,lower,2.384185791015625e-07,right_arm_joint7,lower,0.0,0.000000;1.420064;0.284714;0.955030;2.276334;1.308507;2.976795,0.008487;0.655450;0.798344;0.000001;0.012086;0.321583;0.000000,1,right
235,0.6160320914063607,165.6688746807653,0.14453045004092863,85.47432759522134,2.497541117918445e-06,0.30688849091529846,0.1428571492433548,0.4285714626312256,1,3,left_arm_joint1,lower,-2.384185791015625e-07,right_arm_joint7,lower,2.384185791015625e-07,-0.000000;1.420064;0.284714;0.955030;2.276335;1.308509;2.976781,0.008672;0.655244;0.798507;0.000001;0.012067;0.321902;0.000000,1,right
236,0.6151524315536493,165.6730349865698,0.14380971554820202,85.06583405002591,2.9009368063270813e-06,0.3055042028427124,0.1428571492433548,0.4285714626312256,1,3,left_arm_joint1,lower,0.0,right_arm_joint7,lower,-4.76837158203125e-07,0.000000;1.420064;0.284714;0.955031;2.276334;1.308506;2.976767,0.008969;0.655163;0.798663;0.000001;0.012066;0.323019;-0.000000,1,right
237,0.6143581977669942,165.6987710321179,0.14307549791282873,84.51975997858271,2.629522896313574e-06,0.30401521921157837,0.1428571492433548,0.4285714626312256,1,3,left_arm_joint1,lower,2.384185791015625e-07,right_arm_joint7,lower,4.76837158203125e-07,0.000000;1.420064;0.284714;0.955031;2.276335;1.308508;2.976753,0.009295;0.655318;0.798740;0.000001;0.012106;0.324811;0.000000,1,right
238,0.6138164060786017,165.67534465887385,0.14275398903164535,84.12056221478139,2.3330962903855834e-06,0.30310454964637756,0.1428571492433548,0.4285714626312256,1,3,left_arm_joint1,lower,0.0,right_arm_joint4,lower,7.152557373046875e-07,0.000000;1.420064;0.284714;0.955031;2.276335;1.308507;2.976740,0.009537;0.655541;0.798745;0.000001;0.012197;0.326366;0.000001,1,right
239,0.6133834650033151,165.65748444457802,0.1426085911772411,83.99412667185244,2.3506581783294678e-06,0.30200570821762085,0.1428571492433548,0.4285714626312256,1,3,left_arm_joint1,lower,-2.384185791015625e-07,right_arm_joint7,lower,9.5367431640625e-07,-0.000000;1.420064;0.284714;0.955031;2.276335;1.308507;2.976725,0.009692;0.655441;0.798842;0.000001;0.012270;0.326786;0.000001,1,right
240,0.6127789745700967,165.60883556681134,0.14273326881057427,83.6660495276739,2.166522563129547e-06,0.3017233908176422,0.1428571492433548,0.4285714626312256,1,3,left_arm_joint1,lower,0.0,right_arm_joint7,lower,4.76837158203125e-07,0.000000;1.420064;0.284714;0.955031;2.276334;1.308507;2.976712,0.009888;0.654950;0.799113;0.000001;0.012294;0.326534;0.000000,1,right
241,0.6121783249291831,165.58217628484567,0.14267224310058602,83.27141172182571,2.229320216429187e-06,0.30108171701431274,0.1428571492433548,0.2857142984867096,1,2,left_arm_joint1,lower,2.384185791015625e-07,right_arm_joint4,lower,4.76837158203125e-07,0.000000;1.420064;0.284714;0.955031;2.276335;1.308508;2.976700,0.010018;0.654339;0.799407;0.000000;0.012257;0.325725;0.000001,1,right
242,0.6118619555053213,165.57136256989895,0.142605329287786,83.10214074148736,2.3921686533867614e-06,0.3006626069545746,0.1428571492433548,0.2857142984867096,1,2,left_arm_joint1,lower,0.0,right_arm_joint4,lower,7.152557373046875e-07,0.000000;1.420063;0.284714;0.955031;2.276335;1.308508;2.976686,0.010046;0.653744;0.799659;0.000001;0.012180;0.324482;0.000001,1,right
243,0.6115214893614995,165.6008450885141,0.14258576789200425,83.3218661896358,2.125544369846466e-06,0.3003132939338684,0.1428571492433548,0.4285714626312256,1,3,left_arm_joint1,lower,-2.384185791015625e-07,right_arm_joint4,lower,4.76837158203125e-07,-0.000000;1.420064;0.284714;0.955031;2.276335;1.308508;2.976673,0.009956;0.653221;0.799842;0.000000;0.012074;0.322888;0.000000,1,right
244,0.611185405195768,165.63337165204408,0.142730065925321,83.45464584257111,2.266041065013269e-06,0.3006935715675354,0.1428571492433548,0.4285714626312256,1,3,left_arm_joint1,lower,-2.384185791015625e-07,right_arm_joint4,lower,2.384185791015625e-07,-0.000000;1.420064;0.284714;0.955031;2.276335;1.308506;2.976660,0.009841;0.652830;0.799959;0.000000;0.011949;0.321497;0.000001,1,right
245,0.6109789949499101,165.62092258554253,0.1428547530687945,83.55347745426252,2.2825386167824036e-06,0.30059918761253357,0.1428571492433548,0.4285714626312256,1,3,left_arm_joint1,lower,2.384185791015625e-07,right_arm_joint4,lower,0.0,0.000000;1.420064;0.284714;0.955031;2.276336;1.308507;2.976647,0.009527;0.652362;0.800063;0.000000;0.011638;0.319396;0.000001,1,right
246,0.6107480894697731,165.6169386599964,0.14294875192271664,83.51998781096646,2.2447536593972472e-06,0.30091172456741333,0.1428571492433548,0.2857142984867096,1,2,left_arm_joint1,lower,2.384185791015625e-07,right_arm_joint4,lower,-2.384185791015625e-07,0.000000;1.420064;0.284714;0.955031;2.276334;1.308507;2.976634,0.010165;0.650668;0.801029;-0.000000;0.011312;0.317801;0.000002,1,right
247,0.6106791613954727,165.60979219549034,0.14281701343421238,83.50181139678777,2.4161170131264953e-06,0.30084770917892456,0.1428571492433548,0.2857142984867096,1,2,left_arm_joint1,lower,-2.384185791015625e-07,right_arm_joint4,lower,2.384185791015625e-07,-0.000000;1.420063;0.284714;0.955031;2.276335;1.308507;2.976620,0.010170;0.650344;0.801156;0.000000;0.011456;0.317211;0.000001,1,right
248,0.6103180197312953,165.58532254439032,0.14235736547919273,83.21057759209602,2.435275519019342e-06,0.30034300684928894,0.1428571492433548,0.2857142984867096,1,2,left_arm_joint1,lower,0.0,right_arm_joint4,lower,0.0,0.000000;1.420064;0.284713;0.955031;2.276333;1.308506;2.976608,0.010431;0.649867;0.801487;0.000000;0.010963;0.317517;0.000001,1,right
249,0.609926963591929,165.6024061148111,0.14167419543163004,82.71663548240184,2.3256457097886596e-06,0.2992432713508606,0.1428571492433548,0.2857142984867096,1,2,left_arm_joint1,lower,0.0,right_arm_joint4,lower,0.0,0.000000;1.420063;0.284714;0.955031;2.276334;1.308507;2.976595,0.010076;0.650901;0.800878;0.000000;0.011289;0.318247;0.000001,1,right
250,0.609627395889356,165.57271989143916,0.1411419391831669,82.43671031075631,2.0201719053147826e-06,0.29829642176628113,0.1428571492433548,0.4285714626312256,1,3,left_arm_joint1,lower,2.384185791015625e-07,right_arm_joint4,lower,-2.384185791015625e-07,0.000000;1.420063;0.284714;0.955030;2.276334;1.308507;2.976583,0.009771;0.651919;0.800383;-0.000000;0.011114;0.318827;0.000001,1,right
251,0.6095580061219134,165.563602560182,0.14119491006541202,82.36859735536945,2.0797765500901733e-06,0.29848235845565796,0.1428571492433548,0.4285714626312256,1,3,left_arm_joint1,lower,0.0,right_arm_joint4,lower,0.0,0.000000;1.420063;0.284714;0.955030;2.276334;1.308507;2.976569,0.009822;0.652195;0.800290;0.000000;0.011493;0.319750;0.000001,1,right
252,0.609455709137033,165.53010676018724,0.14118831368389134,82.2110288556854,2.280409944432904e-06,0.2987924814224243,0.1428571492433548,0.4285714626312256,1,3,left_arm_joint1,lower,0.0,right_arm_joint4,lower,7.152557373046875e-07,0.000000;1.420064;0.284714;0.955031;2.276335;1.308508;2.976557,0.009519;0.653152;0.799743;0.000001;0.011623;0.320759;0.000001,1,right
253,0.6093144840768413,165.49856872869296,0.1413755117668574,82.03972350133546,2.291053533554077e-06,0.29938066005706787,0.1428571492433548,0.4285714626312256,1,3,left_arm_joint1,lower,2.384185791015625e-07,right_arm_joint4,lower,2.384185791015625e-07,0.000000;1.420064;0.284714;0.955031;2.276334;1.308506;2.976543,0.009483;0.653902;0.799421;0.000000;0.011745;0.322279;0.000001,1,right
254,0.6093079355604116,165.4178658126058,0.1413867286926088,81.82886429013689,2.627926278364612e-06,0.29945454001426697,0.1428571492433548,0.4285714626312256,1,3,left_arm_joint1,lower,0.0,right_arm_joint4,lower,2.384185791015625e-07,0.000000;1.420063;0.284713;0.955031;2.276334;1.308507;2.976527,0.009606;0.654349;0.799281;0.000000;0.011878;0.323835;0.000001,1,right
255,0.6093204986752474,165.32256638206263,0.14150452010709744,81.20549221275263,2.3197915197670227e-06,0.2995540201663971,0.1428571492433548,0.4285714626312256,1,3,left_arm_joint1,lower,0.0,right_arm_joint4,lower,0.0,0.000000;1.420064;0.284714;0.955031;2.276335;1.308507;2.976514,0.009782;0.654561;0.799258;0.000000;0.012006;0.325130;0.000001,1,right
256,0.6093422768121834,165.23835090038406,0.14178886594744894,80.73321701066146,2.2899891973793274e-06,0.29967042803764343,0.1428571492433548,0.4285714626312256,1,3,left_arm_joint1,lower,-2.384185791015625e-07,right_arm_joint4,lower,9.5367431640625e-07,-0.000000;1.420064;0.284714;0.955031;2.276335;1.308507;2.976501,0.009912;0.654507;0.799323;0.000001;0.012100;0.325578;0.000001,1,right
257,0.6093243054894086,165.1979020021834,0.1424671496819295,80.74640373551469,2.211758101111627e-06,0.3006751239299774,0.1428571492433548,0.4285714626312256,1,3,left_arm_joint1,lower,0.0,right_arm_joint4,lower,7.152557373046875e-07,0.000000;1.420064;0.284713;0.955031;2.276335;1.308505;2.976489,0.009962;0.654171;0.799466;0.000001;0.012138;0.325055;0.000001,1,right
258,0.6093787004071318,165.22007777741413,0.14296667136692887,81.23804616410663,2.5661929612397216e-06,0.3014488220214844,0.1428571492433548,0.4285714626312256,1,3,left_arm_joint1,lower,0.0,right_arm_joint4,lower,-2.384185791015625e-07,0.000000;1.420063;0.284714;0.955031;2.276334;1.308507;2.976475,0.009956;0.653741;0.799631;-0.000000;0.012113;0.324071;0.000001,1,right
259,0.6094493397162293,165.3336555732106,0.14342522544515107,81.87287863831459,2.2362387426255737e-06,0.30260169506073,0.1428571492433548,0.4285714626312256,1,3,left_arm_joint1,lower,2.384185791015625e-07,right_arm_joint4,lower,0.0,0.000000;1.420064;0.284714;0.955031;2.276335;1.308506;2.976463,0.009922;0.653489;0.799721;0.000000;0.012050;0.323380;0.000001,1,right
260,0.6092711420514967,165.44196273730284,0.14328731402774358,82.34512472006405,2.3309673906624084e-06,0.302870512008667,0.1428571492433548,0.4285714626312256,1,3,left_arm_joint1,lower,0.0,right_arm_joint4,lower,7.152557373046875e-07,0.000000;1.420064;0.284714;0.955031;2.276334;1.308508;2.976449,0.009909;0.653650;0.799655;0.000001;0.012007;0.323714;0.000001,1,right
