gaolecheng/EgoVLA_Release/ik_debug/Push-Box_room_1_table_2_episode_('episode_52.hdf5', 0.011941)_0_ik_debug.csv
step,left_pos_err_m,left_rot_err_deg,right_pos_err_m,right_rot_err_deg,left_joint_track_err,right_joint_track_err,left_near_limit_ratio,right_near_limit_ratio,left_near_limit_count,right_near_limit_count,left_worst_joint,left_worst_side,left_min_margin_rad,right_worst_joint,right_worst_side,right_min_margin_rad,left_joint_margin_rad_list,right_joint_margin_rad_list,ik_ignore_orientation,ik_active_arm
0,0.451286155088852,142.7446615931367,0.12067730989013876,118.5335328844257,4.255772000760771e-05,0.22962024807929993,0.1428571492433548,0.4285714626312256,1,3,left_arm_joint3,upper,0.008771181106567383,right_arm_joint7,lower,-1.1920928955078125e-06,0.516939;0.899916;0.008771;0.386895;2.111702;1.141465;2.393507,0.020351;0.000020;1.194230;0.000002;0.099341;0.172021;-0.000001,1,right
1,0.4527818956079107,142.13456312319008,0.1309365004928456,105.28953921833386,4.298346539144404e-05,0.25642532110214233,0.1428571492433548,0.2857142984867096,1,2,left_arm_joint3,upper,0.00883936882019043,right_arm_joint7,lower,-4.76837158203125e-07,0.517032;0.899896;0.008839;0.386885;2.111752;1.141510;2.393522,0.035594;0.010798;1.172509;0.000001;0.107243;0.299690;-0.000000,1,right
2,0.454657694629014,141.0942601433934,0.13225718267748715,101.65409485615152,4.311970405979082e-05,0.26006627082824707,0.1428571492433548,0.2857142984867096,1,2,left_arm_joint3,upper,0.00890660285949707,right_arm_joint7,lower,2.384185791015625e-07,0.517123;0.899874;0.008907;0.386874;2.111802;1.141555;2.393537,0.037342;0.036715;1.154933;0.000003;0.127828;0.430129;0.000000,1,right
3,0.45673440844258345,139.83299009545664,0.129481593018312,96.66319703913022,4.2898314859485254e-05,0.25663602352142334,0.1428571492433548,0.2857142984867096,1,2,left_arm_joint3,upper,0.008974313735961914,right_arm_joint4,lower,-2.384185791015625e-07,0.517214;0.899853;0.008974;0.386863;2.111853;1.141599;2.393552,0.038303;0.053622;1.146738;-0.000000;0.138173;0.555730;0.000002,1,right
4,0.4591327956432744,138.32320678636262,0.12905468105935222,89.860517550043,4.318782521295361e-05,0.2520347833633423,0.1428571492433548,0.2857142984867096,1,2,left_arm_joint3,upper,0.009042739868164062,right_arm_joint4,lower,-4.76837158203125e-07,0.517306;0.899832;0.009043;0.386853;2.111903;1.141643;2.393567,0.047248;0.074595;1.133866;-0.000000;0.122388;0.661179;0.000001,1,right
5,0.45995909109600297,136.55847456646467,0.13144626872193751,81.15636086102428,4.311970405979082e-05,0.25234630703926086,0.1428571492433548,0.2857142984867096,1,2,left_arm_joint3,upper,0.009111881256103516,right_arm_joint4,lower,-5.9604644775390625e-06,0.517398;0.899811;0.009112;0.386843;2.111954;1.141687;2.393583,0.063283;0.090292;1.118141;-0.000006;0.117911;0.764203;0.000000,1,right
6,0.4605745785237458,135.25248777076487,0.13438116634897418,75.04614451801066,4.312822056817822e-05,0.2538563013076782,0.1428571492433548,0.2857142984867096,1,2,left_arm_joint3,upper,0.009180307388305664,right_arm_joint4,lower,-2.6226043701171875e-06,0.517490;0.899790;0.009180;0.386832;2.112005;1.141730;2.393598,0.076897;0.094209;1.105861;-0.000003;0.126950;0.862185;0.000000,1,right
7,0.46068748734208437,134.01399508728122,0.1349987409979975,70.87173568536399,4.3162279325770214e-05,0.2513856291770935,0.1428571492433548,0.2857142984867096,1,2,left_arm_joint3,upper,0.00924825668334961,right_arm_joint4,lower,-5.0067901611328125e-06,0.517583;0.899768;0.009248;0.386822;2.112056;1.141775;2.393613,0.087975;0.091829;1.098575;-0.000005;0.136446;0.946674;-0.000000,1,right
8,0.4610701807909678,132.79849026572182,0.13249191818663705,68.09903065760136,4.294940663385205e-05,0.24237051606178284,0.1428571492433548,0.2857142984867096,1,2,left_arm_joint3,upper,0.009316682815551758,right_arm_joint7,lower,2.384185791015625e-07,0.517675;0.899748;0.009317;0.386811;2.112106;1.141819;2.393628,0.084977;0.079122;1.102044;0.000008;0.141225;1.020464;0.000000,1,right
9,0.46092371431711854,131.61740618768442,0.13125398410067213,66.84298374451149,4.308564530219883e-05,0.23339268565177917,0.1428571492433548,0.2857142984867096,1,2,left_arm_joint3,upper,0.009384632110595703,right_arm_joint7,lower,-2.384185791015625e-07,0.517766;0.899726;0.009385;0.386801;2.112156;1.141863;2.393643,0.080834;0.049052;1.112498;0.000003;0.148280;1.084438;-0.000000,1,right
10,0.46089621038647877,130.8246099575862,0.1308752765061571,66.56209888879965,4.332406388130039e-05,0.22660475969314575,0.1428571492433548,0.2857142984867096,1,2,left_arm_joint3,upper,0.009453773498535156,right_arm_joint7,lower,-7.152557373046875e-07,0.517859;0.899704;0.009454;0.386790;2.112207;1.141907;2.393657,0.077475;0.014138;1.125513;0.000002;0.146817;1.133417;-0.000001,1,right
11,0.46097354493445797,130.18957528451128,0.13138805714882357,66.26174203454683,4.350287781562656e-05,0.22586162388324738,0.1428571492433548,0.4285714626312256,1,3,left_arm_joint3,upper,0.009521961212158203,right_arm_joint7,lower,-2.384185791015625e-07,0.517951;0.899683;0.009522;0.386779;2.112258;1.141952;2.393672,0.075418;0.000046;1.130647;0.000003;0.146492;1.168563;-0.000000,1,right
12,0.4621241073300013,129.95021005929397,0.13019060104094,65.54302148256856,4.351990719442256e-05,0.22277861833572388,0.1428571492433548,0.4285714626312256,1,3,left_arm_joint3,upper,0.009590387344360352,right_arm_joint7,lower,0.0,0.518044;0.899661;0.009590;0.386769;2.112309;1.141997;2.393688,0.075158;0.000047;1.130860;0.000003;0.148293;1.194613;0.000000,1,right
13,0.46378047031803576,129.62735979651106,0.1280827448834916,65.23221268720462,4.3426243792055175e-05,0.21568161249160767,0.1428571492433548,0.4285714626312256,1,3,left_arm_joint3,upper,0.009660482406616211,right_arm_joint7,lower,2.384185791015625e-07,0.518138;0.899640;0.009660;0.386759;2.112361;1.142039;2.393703,0.075395;0.000041;1.130431;0.000003;0.148551;1.212542;0.000000,1,right
14,0.46584628377856047,129.3446543923359,0.12652200485161294,65.1619181634124,4.39286268374417e-05,0.21034444868564606,0.1428571492433548,0.4285714626312256,1,3,left_arm_joint3,upper,0.009729385375976562,right_arm_joint7,lower,-4.76837158203125e-07,0.518230;0.899618;0.009729;0.386747;2.112412;1.142086;2.393718,0.074861;0.000036;1.130789;0.000003;0.148630;1.224048;-0.000000,1,right
15,0.46757344742058093,129.14267617634738,0.1266677815223364,65.47838052804417,4.355396595201455e-05,0.20860716700553894,0.1428571492433548,0.4285714626312256,1,3,left_arm_joint3,upper,0.009797811508178711,right_arm_joint7,lower,2.384185791015625e-07,0.518324;0.899596;0.009798;0.386736;2.112463;1.142130;2.393733,0.074616;0.000038;1.130926;0.000004;0.148915;1.231358;0.000000,1,right
16,0.4685346541424318,129.0556377586997,0.1282741786381099,65.81124948942715,4.3690208258340135e-05,0.21151283383369446,0.1428571492433548,0.4285714626312256,1,3,left_arm_joint3,upper,0.009867668151855469,right_arm_joint7,lower,-2.384185791015625e-07,0.518417;0.899576;0.009868;0.386726;2.112514;1.142175;2.393748,0.074482;0.000044;1.131105;0.000003;0.149138;1.237192;-0.000000,1,right
17,0.4684497370254611,129.049748136797,0.12995379046564887,66.24029807014782,4.398823148221709e-05,0.2152618169784546,0.1428571492433548,0.4285714626312256,1,3,left_arm_joint3,upper,0.009936094284057617,right_arm_joint7,lower,-4.76837158203125e-07,0.518510;0.899552;0.009936;0.386715;2.112566;1.142220;2.393763,0.073061;0.000049;1.132237;0.000003;0.149571;1.241620;-0.000000,1,right
18,0.46817880922957344,129.1551469737129,0.12952462384528918,66.6357257093533,4.343475666246377e-05,0.21403557062149048,0.0,0.4285714626312256,0,3,left_arm_joint3,upper,0.010005950927734375,right_arm_joint7,lower,-2.384185791015625e-07,0.518603;0.899531;0.010006;0.386705;2.112618;1.142264;2.393778,0.070814;0.000049;1.135373;0.000004;0.152451;1.245596;-0.000000,1,right
19,0.4680735429742118,129.21786127546986,0.12849246227124975,67.26017354507384,4.38945644418709e-05,0.21150919795036316,0.0,0.4285714626312256,0,3,left_arm_joint3,upper,0.010074853897094727,right_arm_joint7,lower,-4.76837158203125e-07,0.518698;0.899510;0.010075;0.386694;2.112669;1.142310;2.393793,0.067818;0.000044;1.138532;0.000004;0.157523;1.246875;-0.000000,1,right
20,0.46786846424531453,129.1583682570091,0.12831723765427303,67.76306475551768,4.383495979709551e-05,0.21126709878444672,0.0,0.4285714626312256,0,3,left_arm_joint3,upper,0.010145425796508789,right_arm_joint7,lower,-2.384185791015625e-07,0.518791;0.899488;0.010145;0.386683;2.112720;1.142353;2.393808,0.066599;0.000043;1.140173;0.000003;0.159129;1.246781;-0.000000,1,right
21,0.46743269014439986,129.2113566029675,0.1289231231826882,68.04181823478102,4.367317524156533e-05,0.21207424998283386,0.0,0.4285714626312256,0,3,left_arm_joint3,upper,0.010214805603027344,right_arm_joint7,lower,2.384185791015625e-07,0.518884;0.899467;0.010215;0.386674;2.112772;1.142400;2.393822,0.067106;0.000039;1.139618;0.000003;0.158192;1.246287;0.000000,1,right
22,0.4671450143366437,129.23308021986057,0.12926361990528185,68.34571295923635,4.4056348997401074e-05,0.21173806488513947,0.0,0.4285714626312256,0,3,left_arm_joint3,upper,0.010283946990966797,right_arm_joint7,lower,2.384185791015625e-07,0.518979;0.899444;0.010284;0.386662;2.112824;1.142444;2.393836,0.066807;0.000032;1.139777;0.000003;0.159335;1.245763;0.000000,1,right
23,0.46694364956493545,129.23088734185308,0.1295621946676822,68.48366350145619,4.416704541654326e-05,0.21178561449050903,0.0,0.4285714626312256,0,3,left_arm_joint3,upper,0.010354280471801758,right_arm_joint7,lower,-2.384185791015625e-07,0.519073;0.899423;0.010354;0.386651;2.112876;1.142490;2.393852,0.066852;0.000036;1.139630;0.000003;0.159332;1.245556;-0.000000,1,right
24,0.4679462492811384,129.10938384015952,0.12914992839243783,68.69574080258606,4.3851989175891504e-05,0.2092069834470749,0.0,0.4285714626312256,0,3,left_arm_joint3,upper,0.010424375534057617,right_arm_joint7,lower,-4.76837158203125e-07,0.519167;0.899401;0.010424;0.386640;2.112927;1.142535;2.393864,0.068577;0.000053;1.137572;0.000003;0.156361;1.244973;-0.000000,1,right
25,0.4696761728014971,129.01774464333363,0.1275517701896956,69.46335097404119,4.3920110329054296e-05,0.20479825139045715,0.0,0.4285714626312256,0,3,left_arm_joint3,upper,0.010494232177734375,right_arm_joint7,lower,-2.384185791015625e-07,0.519261;0.899379;0.010494;0.386630;2.112979;1.142580;2.393879,0.072440;0.000049;1.133275;0.000002;0.150457;1.242733;-0.000000,1,right
26,0.47142306214107677,128.88058269715057,0.12600057615473986,70.37804068915476,4.4379918108461425e-05,0.20174045860767365,0.0,0.4285714626312256,0,3,left_arm_joint3,upper,0.010564565658569336,right_arm_joint7,lower,2.384185791015625e-07,0.519356;0.899358;0.010565;0.386620;2.113032;1.142626;2.393894,0.073292;0.000023;1.132264;0.000003;0.149698;1.237400;0.000000,1,right
27,0.4729171795227556,128.84845048293604,0.1252418096270492,71.67807852458422,4.4030803110217676e-05,0.2015267163515091,0.0,0.4285714626312256,0,3,left_arm_joint3,upper,0.010634899139404297,right_arm_joint7,lower,-7.152557373046875e-07,0.519451;0.899336;0.010635;0.386609;2.113084;1.142671;2.393908,0.074784;0.000047;1.130690;0.000003;0.149285;1.232401;-0.000001,1,right
28,0.47364304069688806,128.86826613649322,0.12512447312234828,72.30400491244613,4.4899330532643944e-05,0.2020445019006729,0.0,0.4285714626312256,0,3,left_arm_joint3,upper,0.010705709457397461,right_arm_joint7,lower,-9.5367431640625e-07,0.519546;0.899313;0.010706;0.386597;2.113136;1.142716;2.393924,0.074868;0.000047;1.130634;0.000003;0.148464;1.228954;-0.000001,1,right
29,0.47381886382787625,128.90847647890828,0.1250058704592323,72.79410472228219,4.437140160007402e-05,0.20219217240810394,0.0,0.4285714626312256,0,3,left_arm_joint3,upper,0.01077580451965332,right_arm_joint7,lower,-4.76837158203125e-07,0.519641;0.899290;0.010776;0.386586;2.113188;1.142762;2.393938,0.074835;0.000047;1.130669;0.000004;0.148195;1.227337;-0.000000,1,right
30,0.4739307633951754,128.87307280897605,0.12468933062656337,73.00137795179909,4.457576142158359e-05,0.202311173081398,0.0,0.4285714626312256,0,3,left_arm_joint3,upper,0.010846376419067383,right_arm_joint7,lower,2.384185791015625e-07,0.519736;0.899269;0.010846;0.386576;2.113241;1.142808;2.393954,0.074919;0.000048;1.130628;0.000004;0.148001;1.227498;0.000000,1,right
31,0.473943821338231,128.82709615247262,0.12468458467662347,73.39864113656138,4.472902946872637e-05,0.2032327502965927,0.0,0.4285714626312256,0,3,left_arm_joint3,upper,0.01091766357421875,right_arm_joint7,lower,0.0,0.519831;0.899246;0.010918;0.386564;2.113293;1.142853;2.393969,0.075067;0.000048;1.130529;0.000004;0.147790;1.228685;0.000000,1,right
32,0.4738419379823784,128.80368032635525,0.12503523576736778,73.3825197603392,4.422665006131865e-05,0.2046332210302353,0.0,0.4285714626312256,0,3,left_arm_joint3,upper,0.010987520217895508,right_arm_joint7,lower,2.384185791015625e-07,0.519927;0.899225;0.010988;0.386554;2.113346;1.142899;2.393984,0.075197;0.000049;1.130427;0.000004;0.147625;1.230672;0.000000,1,right
33,0.4736366368672679,128.821642764607,0.12564085088679441,73.16314998693224,4.4635366066358984e-05,0.2063986361026764,0.0,0.4285714626312256,0,3,left_arm_joint3,upper,0.011058568954467773,right_arm_joint7,lower,2.384185791015625e-07,0.520022;0.899203;0.011059;0.386544;2.113398;1.142945;2.393999,0.075306;0.000048;1.130332;0.000004;0.147467;1.233988;0.000000,1,right
34,0.473705408301749,128.7887906998329,0.12592730231492968,72.82752928742228,4.466091195354238e-05,0.20778077840805054,0.0,0.4285714626312256,0,3,left_arm_joint3,upper,0.01112985610961914,right_arm_joint7,lower,0.0,0.520117;0.899180;0.011130;0.386532;2.113451;1.142990;2.394013,0.075514;0.000049;1.130075;0.000004;0.147254;1.238893;0.000000,1,right
35,0.4738136517000819,128.72129011329463,0.12605490060626456,72.27722283909529,4.5018539822194725e-05,0.20891158282756805,0.0,0.4285714626312256,0,3,left_arm_joint3,upper,0.011200428009033203,right_arm_joint7,lower,2.384185791015625e-07,0.520214;0.899158;0.011200;0.386521;2.113504;1.143036;2.394028,0.075615;0.000049;1.130015;0.000004;0.147097;1.245527;0.000000,1,right
36,0.4746747667090391,128.60065330349917,0.126096518476481,72.27658948705633,4.5248441892908886e-05,0.21084953844547272,0.0,0.4285714626312256,0,3,left_arm_joint3,upper,0.01127171516418457,right_arm_joint7,lower,4.76837158203125e-07,0.520308;0.899135;0.011272;0.386510;2.113557;1.143083;2.394044,0.075790;0.000048;1.130000;0.000004;0.146782;1.253900;0.000000,1,right
37,0.4757647452757552,128.53341552982042,0.12428491194899786,72.8731535567038,4.4805663492297754e-05,0.20920716226100922,0.0,0.4285714626312256,0,3,left_arm_joint3,upper,0.011343002319335938,right_arm_joint7,lower,2.384185791015625e-07,0.520405;0.899113;0.011343;0.386500;2.113610;1.143129;2.394060,0.075787;0.000050;1.130031;0.000004;0.147017;1.262283;0.000000,1,right
38,0.47706294559173773,128.37283841580665,0.12190186395427544,73.65895498962787,4.509517384576611e-05,0.2067258059978485,0.0,0.4285714626312256,0,3,left_arm_joint3,upper,0.01141500473022461,right_arm_joint7,lower,2.384185791015625e-07,0.520500;0.899090;0.011415;0.386488;2.113663;1.143174;2.394075,0.075762;0.000051;1.130059;0.000003;0.147084;1.271048;0.000000,1,right
39,0.47860007456202097,128.3647899305606,0.11885893292191303,74.78112449284119,4.479715062188916e-05,0.20369234681129456,0.0,0.4285714626312256,0,3,left_arm_joint3,upper,0.011485815048217773,right_arm_joint7,lower,-2.384185791015625e-07,0.520597;0.899068;0.011486;0.386477;2.113716;1.143220;2.394089,0.075712;0.000052;1.130098;0.000002;0.147111;1.281495;-0.000000,1,right
40,0.4792723342115269,128.16448319469524,0.11771472469611018,74.97472449560887,4.491635991143994e-05,0.20225130021572113,0.0,0.4285714626312256,0,3,left_arm_joint3,upper,0.011557579040527344,right_arm_joint7,lower,2.384185791015625e-07,0.520694;0.899047;0.011558;0.386467;2.113769;1.143267;2.394104,0.075706;0.000052;1.130114;0.000003;0.147047;1.292430;0.000000,1,right
41,0.4795463149183928,128.10392244959468,0.11811833926718744,74.89657980114343,4.535913831205107e-05,0.20323480665683746,0.0,0.4285714626312256,0,3,left_arm_joint3,upper,0.011629104614257812,right_arm_joint4,lower,4.1961669921875e-05,0.520790;0.899024;0.011629;0.386456;2.113822;1.143315;2.394118,0.075623;0.000059;1.129730;0.000042;0.149440;1.303531;0.000059,1,right
42,0.4795577365757584,128.05177222456823,0.11951616942467627,74.89696562223367,4.540170994005166e-05,0.20729583501815796,0.0,0.4285714626312256,0,3,left_arm_joint3,upper,0.011701583862304688,right_arm_joint4,lower,1.430511474609375e-05,0.520887;0.899000;0.011702;0.386444;2.113876;1.143359;2.394133,0.075661;0.000028;1.128647;0.000014;0.152522;1.306835;0.001198,1,right
43,0.4794968598046509,127.94005222913302,0.12047279660108333,74.96335937685208,4.5010023313807324e-05,0.21056005358695984,0.0,0.4285714626312256,0,3,left_arm_joint3,upper,0.011773109436035156,right_arm_joint4,lower,9.059906005859375e-06,0.520984;0.898979;0.011773;0.386434;2.113930;1.143406;2.394148,0.075661;0.000019;1.128526;0.000009;0.153113;1.308234;0.001829,1,right
44,0.47915922224421303,127.80872371005093,0.1213458802129871,74.60819349493858,4.5503889850806445e-05,0.21305371820926666,0.0,0.4285714626312256,0,3,left_arm_joint3,upper,0.011844396591186523,right_arm_joint4,lower,9.298324584960938e-06,0.521081;0.898956;0.011844;0.386422;2.113982;1.143454;2.394163,0.075560;0.000013;1.128410;0.000009;0.154165;1.309248;0.002454,1,right
45,0.4787264855015155,127.66594410225312,0.12212633492559387,73.94508669143487,4.541022644843906e-05,0.21567746996879578,0.0,0.4285714626312256,0,3,left_arm_joint3,upper,0.0119171142578125,right_arm_joint4,lower,-1.33514404296875e-05,0.521178;0.898933;0.011917;0.386411;2.114037;1.143500;2.394177,0.075489;0.000006;1.128293;-0.000013;0.154427;1.311058;0.003675,1,right
46,0.4783622949011418,127.52285032082159,0.12308379744835904,73.39701395382451,4.5503889850806445e-05,0.2178865373134613,0.0,0.4285714626312256,0,3,left_arm_joint3,upper,0.011990070343017578,right_arm_joint4,lower,-1.9788742065429688e-05,0.521275;0.898910;0.011990;0.386400;2.114090;1.143546;2.394191,0.076138;0.000001;1.127457;-0.000020;0.156013;1.313724;0.005252,1,right
47,0.47800653051865255,127.36604560076218,0.12406020369288023,72.82798639886624,4.530804653768428e-05,0.2198670506477356,0.0,0.4285714626312256,0,3,left_arm_joint3,upper,0.012062311172485352,right_arm_joint4,lower,-2.5987625122070312e-05,0.521373;0.898887;0.012062;0.386389;2.114145;1.143592;2.394204,0.076779;0.000000;1.126367;-0.000026;0.155681;1.315771;0.005596,1,right
48,0.47846823441700437,127.11616023321261,0.12472623863673317,72.52613289816718,4.5657161535928026e-05,0.22204580903053284,0.0,0.4285714626312256,0,3,left_arm_joint3,upper,0.012134075164794922,right_arm_joint4,lower,-1.4781951904296875e-05,0.521470;0.898864;0.012134;0.386377;2.114199;1.143640;2.394218,0.079655;0.000003;1.123610;-0.000015;0.157090;1.320995;0.006284,1,right
49,0.4793346460768314,126.99440535972343,0.12474876212034806,72.76246050630306,4.5018539822194725e-05,0.22319823503494263,0.0,0.4285714626312256,0,3,left_arm_joint3,upper,0.012206792831420898,right_arm_joint4,lower,-5.6743621826171875e-05,0.521568;0.898842;0.012207;0.386367;2.114253;1.143686;2.394231,0.081429;-0.000003;1.119790;-0.000057;0.159387;1.326951;0.007521,1,right
50,0.480226415601877,126.94344080840202,0.12454282997448524,73.62590221078275,4.561458626994863e-05,0.22343553602695465,0.0,0.4285714626312256,0,3,left_arm_joint3,upper,0.012279033660888672,right_arm_joint4,lower,-4.076957702636719e-05,0.521665;0.898820;0.012279;0.386355;2.114306;1.143733;2.394245,0.090660;-0.000000;1.112447;-0.000041;0.157351;1.337528;0.009623,1,right
51,0.48164607238038004,126.87220431086959,0.12383900120150353,74.82123763645059,4.552943573798984e-05,0.22348013520240784,0.0,0.2857142984867096,0,2,left_arm_joint3,upper,0.012351751327514648,right_arm_joint4,lower,-8.320808410644531e-05,0.521764;0.898796;0.012352;0.386344;2.114361;1.143780;2.394257,0.092925;-0.000010;1.111179;-0.000083;0.163305;1.348917;0.011089,1,right
52,0.48239042326357473,126.74907485652808,0.12363660508964831,74.79917101836064,4.587003422784619e-05,0.22195078432559967,0.0,0.2857142984867096,0,2,left_arm_joint3,upper,0.012424945831298828,right_arm_joint4,lower,-5.221366882324219e-05,0.521862;0.898772;0.012425;0.386333;2.114415;1.143827;2.394271,0.100440;-0.000005;1.105984;-0.000052;0.160430;1.357778;0.010235,1,right
53,0.48276082281981814,126.76620450550931,0.12474326148096457,74.4040438785227,4.51462619821541e-05,0.2220315933227539,0.0,0.2857142984867096,0,2,left_arm_joint3,upper,0.012497425079345703,right_arm_joint4,lower,-6.937980651855469e-05,0.521959;0.898751;0.012497;0.386322;2.114469;1.143873;2.394284,0.105358;-0.000004;1.101670;-0.000069;0.162354;1.366685;0.011055,1,right
54,0.48267540022666755,126.72940729157045,0.1263669883670353,73.50989040504676,4.6031818783376366e-05,0.22417093813419342,0.0,0.2857142984867096,0,2,left_arm_joint3,upper,0.012570381164550781,right_arm_joint4,lower,-5.507469177246094e-05,0.522058;0.898728;0.012570;0.386311;2.114523;1.143922;2.394298,0.107720;-0.000010;1.100325;-0.000055;0.166265;1.371090;0.011616,1,right
55,0.48257516273917905,126.52107888691704,0.12755348664566998,72.57027858725681,4.6168057451723143e-05,0.22430486977100372,0.0,0.4285714626312256,0,3,left_arm_joint3,upper,0.01264333724975586,right_arm_joint4,lower,-5.030632019042969e-05,0.522156;0.898704;0.012643;0.386300;2.114577;1.143968;2.394314,0.111534;-0.000008;1.098377;-0.000050;0.166794;1.376393;0.009103,1,right
56,0.482095450036993,126.34003554744518,0.1290799238553486,71.37320039233305,4.615102807292715e-05,0.22531941533088684,0.0,0.4285714626312256,0,3,left_arm_joint3,upper,0.012717008590698242,right_arm_joint4,lower,-4.696846008300781e-05,0.522254;0.898681;0.012717;0.386287;2.114631;1.144016;2.394328,0.115423;-0.000009;1.096659;-0.000047;0.168424;1.381932;0.007363,1,right
57,0.4816223221162223,126.28932844877517,0.1306189268540194,70.12493149963353,4.5938151743030176e-05,0.22589655220508575,0.0,0.4285714626312256,0,3,left_arm_joint3,upper,0.012789726257324219,right_arm_joint4,lower,-2.9802322387695312e-05,0.522353;0.898658;0.012790;0.386277;2.114686;1.144063;2.394342,0.121199;-0.000008;1.094408;-0.000030;0.169442;1.388463;0.007772,1,right
58,0.4813067188589999,126.28018742984729,0.13214327897180939,69.09035555467426,4.64235054096207e-05,0.2259758859872818,0.0,0.4285714626312256,0,3,left_arm_joint3,upper,0.0128631591796875,right_arm_joint4,lower,-2.9325485229492188e-05,0.522451;0.898634;0.012863;0.386265;2.114742;1.144111;2.394356,0.129272;-0.000006;1.090920;-0.000029;0.170913;1.397946;0.008466,1,right
59,0.48097159541190715,126.35229254836118,0.13311685505667303,68.2994573388866,4.606587754096836e-05,0.22535209357738495,0.0,0.4285714626312256,0,3,left_arm_joint3,upper,0.012937545776367188,right_arm_joint4,lower,-2.288818359375e-05,0.522551;0.898610;0.012938;0.386253;2.114796;1.144158;2.394368,0.135415;-0.000005;1.088103;-0.000023;0.171457;1.404774;0.008926,1,right
60,0.4809558023313688,126.48702675464743,0.13472362366206264,67.96918875477992,4.574230842990801e-05,0.2272518426179886,0.0,0.4285714626312256,0,3,left_arm_joint3,upper,0.013010263442993164,right_arm_joint4,lower,-1.4066696166992188e-05,0.522651;0.898589;0.013010;0.386242;2.114850;1.144207;2.394381,0.140511;-0.000006;1.085411;-0.000014;0.174805;1.410922;0.008613,1,right
61,0.48042528277388413,126.36176301458376,0.136353739863104,67.60680377991514,4.5878547098254785e-05,0.23029351234436035,0.0,0.4285714626312256,0,3,left_arm_joint3,upper,0.013084888458251953,right_arm_joint4,lower,-1.049041748046875e-05,0.522749;0.898565;0.013085;0.386231;2.114906;1.144251;2.394393,0.144167;-0.000006;1.084409;-0.000010;0.174623;1.415744;0.009076,1,right
62,0.4799399569137239,126.13550335167079,0.13741322363105316,67.57245564883547,4.638093014364131e-05,0.23256726562976837,0.0,0.4285714626312256,0,3,left_arm_joint3,upper,0.013158082962036133,right_arm_joint4,lower,-3.0279159545898438e-05,0.522849;0.898542;0.013158;0.386220;2.114961;1.144301;2.394407,0.145485;-0.000010;1.083292;-0.000030;0.176546;1.419169;0.009016,1,right
63,0.4800358685506055,126.04453952547784,0.13816075653894305,67.73726930610128,4.6227662096498534e-05,0.23478980362415314,0.0,0.4285714626312256,0,3,left_arm_joint3,upper,0.013231992721557617,right_arm_joint4,lower,-2.9087066650390625e-05,0.522949;0.898518;0.013232;0.386209;2.115015;1.144348;2.394419,0.150809;-0.000008;1.080642;-0.000029;0.175997;1.426117;0.009103,1,right
64,0.4796883060395562,125.50350057784684,0.13826755412482483,67.49608688651263,4.6602319343946874e-05,0.23387126624584198,0.0,0.2857142984867096,0,2,left_arm_joint3,upper,0.013306617736816406,right_arm_joint4,lower,-2.384185791015625e-05,0.523049;0.898495;0.013307;0.386197;2.115071;1.144395;2.394433,0.151697;-0.000020;1.078437;-0.000024;0.182792;1.430669;0.010146,1,right
65,0.4794230194389356,125.36652625860802,0.13841835758184262,66.96740043208217,4.685776730184443e-05,0.23324911296367645,0.0,0.4285714626312256,0,3,left_arm_joint3,upper,0.013380050659179688,right_arm_joint4,lower,-3.075599670410156e-05,0.523148;0.898471;0.013380;0.386185;2.115126;1.144445;2.394448,0.151166;-0.000023;1.078062;-0.000031;0.183321;1.431836;0.007943,1,right
66,0.47916748417161564,125.40765042819103,0.1390916991945551,66.22040550688361,4.6432021918008104e-05,0.23495081067085266,0.0,0.4285714626312256,0,3,left_arm_joint3,upper,0.013454675674438477,right_arm_joint4,lower,-3.981590270996094e-05,0.523247;0.898448;0.013455;0.386174;2.115182;1.144492;2.394462,0.151165;-0.000025;1.077983;-0.000040;0.183368;1.432180;0.007348,1,right
67,0.4787636904666624,125.34991943860445,0.14025642195730595,65.52754724771513,4.6917371946619824e-05,0.23755817115306854,0.0,0.4285714626312256,0,3,left_arm_joint3,upper,0.013529062271118164,right_arm_joint4,lower,-4.5299530029296875e-05,0.523348;0.898424;0.013529;0.386163;2.115237;1.144540;2.394476,0.151189;-0.000025;1.077902;-0.000045;0.183406;1.432682;0.007211,1,right
68,0.47846246133590886,125.17141709386453,0.1407066062116338,64.78809223376273,4.675558739108965e-05,0.23831872642040253,0.0,0.4285714626312256,0,3,left_arm_joint3,upper,0.013603448867797852,right_arm_joint4,lower,-4.7206878662109375e-05,0.523448;0.898400;0.013603;0.386151;2.115293;1.144587;2.394492,0.151130;-0.000026;1.077915;-0.000047;0.183427;1.432695;0.007179,1,right
69,0.4779059072381833,125.2879278567602,0.14059375289234383,64.17892400125058,4.690034256782383e-05,0.23731739819049835,0.0,0.4285714626312256,0,3,left_arm_joint3,upper,0.013677597045898438,right_arm_joint4,lower,-4.2438507080078125e-05,0.523549;0.898377;0.013678;0.386140;2.115347;1.144637;2.394506,0.150996;-0.000025;1.078048;-0.000042;0.183415;1.431981;0.007142,1,right
70,0.4775584019050981,125.50453510883133,0.14028388831326977,63.750534012211375,4.670449925470166e-05,0.2363833636045456,0.0,0.4285714626312256,0,3,left_arm_joint3,upper,0.013752937316894531,right_arm_joint4,lower,-3.9577484130859375e-05,0.523649;0.898354;0.013753;0.386129;2.115404;1.144683;2.394520,0.150912;-0.000024;1.078148;-0.000040;0.183394;1.431479;0.007172,1,right
71,0.47719771196231725,125.69633471998682,0.13979392812905905,63.60666863373214,4.656826058635488e-05,0.23489665985107422,0.0,0.4285714626312256,0,3,left_arm_joint3,upper,0.013827085494995117,right_arm_joint4,lower,-3.4332275390625e-05,0.523750;0.898330;0.013827;0.386117;2.115460;1.144731;2.394532,0.150800;-0.000023;1.078273;-0.000034;0.183368;1.430806;0.007204,1,right
72,0.4768376589376384,125.78074852525307,0.1395513125186386,63.55001406428969,4.690034256782383e-05,0.2337941825389862,0.0,0.4285714626312256,0,3,left_arm_joint3,upper,0.013901472091674805,right_arm_joint4,lower,-2.9802322387695312e-05,0.523851;0.898307;0.013901;0.386106;2.115515;1.144781;2.394545,0.150634;-0.000021;1.078423;-0.000030;0.183353;1.430042;0.007255,1,right
73,0.4761797689464756,125.84787070179729,0.13965082498783346,63.46625448777142,4.6976976591395214e-05,0.23419451713562012,0.0,0.4285714626312256,0,3,left_arm_joint3,upper,0.013976812362670898,right_arm_joint4,lower,-2.6702880859375e-05,0.523952;0.898282;0.013977;0.386094;2.115571;1.144829;2.394557,0.150538;-0.000021;1.078499;-0.000027;0.183352;1.429605;0.007220,1,right
74,0.4756924681102938,125.87337517055538,0.13939953387292023,63.43841963925922,4.6891826059436426e-05,0.23424768447875977,0.0,0.4285714626312256,0,3,left_arm_joint3,upper,0.014051675796508789,right_arm_joint4,lower,-2.4080276489257812e-05,0.524052;0.898259;0.014052;0.386082;2.115627;1.144878;2.394571,0.150383;-0.000020;1.078635;-0.000024;0.183343;1.428750;0.007033,1,right
75,0.4752377339465101,125.8481180557854,0.13923576017034806,63.454768316215414,4.7419754992006347e-05,0.23418840765953064,0.0,0.4285714626312256,0,3,left_arm_joint3,upper,0.014127254486083984,right_arm_joint4,lower,-2.0265579223632812e-05,0.524154;0.898235;0.014127;0.386071;2.115684;1.144926;2.394585,0.150277;-0.000019;1.078731;-0.000020;0.183313;1.427721;0.006450,1,right
76,0.4750163032497903,125.68361102414715,0.1387499722834718,63.47880255685877,4.707915650215e-05,0.233905628323555,0.0,0.4285714626312256,0,3,left_arm_joint3,upper,0.01420283317565918,right_arm_joint2,upper,-8.821487426757812e-06,0.524255;0.898210;0.014203;0.386059;2.115740;1.144975;2.394597,0.150511;-0.000009;1.078581;0.000082;0.182855;1.423115;0.005276,1,right
77,0.4750906931116689,125.56606552592585,0.1384179495061415,63.35769890284818,4.7411238483618945e-05,0.23287279903888702,0.0,0.4285714626312256,0,3,left_arm_joint3,upper,0.014277935028076172,right_arm_joint2,upper,-5.602836608886719e-06,0.524357;0.898186;0.014278;0.386047;2.115796;1.145023;2.394611,0.150376;-0.000006;1.078828;0.000084;0.182782;1.421743;0.003641,1,right
78,0.47537467258531185,125.49020143627077,0.13823032875196997,63.29787856694601,4.7411238483618945e-05,0.23238615691661835,0.0,0.4285714626312256,0,3,left_arm_joint3,upper,0.014353752136230469,right_arm_joint2,upper,-3.5762786865234375e-06,0.524459;0.898163;0.014354;0.386036;2.115852;1.145073;2.394625,0.150351;-0.000004;1.078897;0.000090;0.182686;1.421287;0.003124,1,right
79,0.4754973523972628,125.49779777881054,0.1381978334820944,63.29233674435713,4.7360150347230956e-05,0.2322901487350464,0.0,0.4285714626312256,0,3,left_arm_joint3,upper,0.014429807662963867,right_arm_joint2,upper,-2.1457672119140625e-06,0.524560;0.898138;0.014430;0.386025;2.115909;1.145119;2.394639,0.150328;-0.000002;1.078943;0.000094;0.182622;1.421021;0.002916,1,right
80,0.4756646974509263,125.47898383673387,0.13818612288602183,63.27869296694388,4.786253339261748e-05,0.2323143482208252,0.0,0.4285714626312256,0,3,left_arm_joint3,upper,0.014505386352539062,right_arm_joint2,upper,-1.7881393432617188e-06,0.524662;0.898114;0.014505;0.386012;2.115965;1.145170;2.394654,0.150340;-0.000002;1.078950;0.000096;0.182608;1.421026;0.002863,1,right
81,0.4756171720591905,125.42613872888062,0.13838907899651443,63.232525397487855,4.747935963678174e-05,0.2328200489282608,0.0,0.4285714626312256,0,3,left_arm_joint3,upper,0.014581441879272461,right_arm_joint2,upper,-2.5033950805664062e-06,0.524765;0.898091;0.014581;0.386001;2.116021;1.145219;2.394666,0.150342;-0.000003;1.078941;0.000095;0.182611;1.421076;0.002879,1,right
82,0.4755376845433768,125.3647228175133,0.13862554896591686,63.19582982069033,4.76922323286999e-05,0.23339125514030457,0.0,0.4285714626312256,0,3,left_arm_joint3,upper,0.014657974243164062,right_arm_joint2,upper,-3.5762786865234375e-06,0.524867;0.898066;0.014658;0.385989;2.116079;1.145266;2.394681,0.150367;-0.000004;1.078912;0.000093;0.182628;1.421249;0.002948,1,right
83,0.47553720981584896,125.30995382563204,0.13878156940594494,63.201129312495326,4.7351633838843554e-05,0.2338114082813263,0.0,0.4285714626312256,0,3,left_arm_joint3,upper,0.014732837677001953,right_arm_joint2,upper,-3.4570693969726562e-06,0.524970;0.898042;0.014733;0.385977;2.116136;1.145316;2.394692,0.150363;-0.000003;1.078908;0.000093;0.182636;1.421288;0.002989,1,right
84,0.475540788257603,125.38921613453896,0.13886606922014938,63.26750716396945,4.7734807594679296e-05,0.23396381735801697,0.0,0.4285714626312256,0,3,left_arm_joint3,upper,0.014808893203735352,right_arm_joint2,upper,-3.4570693969726562e-06,0.525072;0.898018;0.014809;0.385965;2.116192;1.145365;2.394707,0.150354;-0.000003;1.078915;0.000093;0.182632;1.421247;0.002982,1,right
85,0.4754886154316526,125.47789487124298,0.13868752087221903,63.29432365221892,4.7675202949903905e-05,0.23356637358665466,0.0,0.4285714626312256,0,3,left_arm_joint3,upper,0.014885187149047852,right_arm_joint2,upper,-2.0265579223632812e-06,0.525175;0.897995;0.014885;0.385955;2.116249;1.145414;2.394723,0.150320;-0.000002;1.078950;0.000096;0.182608;1.421040;0.002905,1,right
86,0.4752592348258979,125.53073986159343,0.13849180282050325,63.303210401103264,4.796470966539346e-05,0.23297972977161407,0.0,0.4285714626312256,0,3,left_arm_joint3,upper,0.014962434768676758,right_arm_joint2,upper,-2.2649765014648438e-06,0.525277;0.897970;0.014962;0.385942;2.116306;1.145463;2.394735,0.150344;-0.000002;1.078942;0.000096;0.182605;1.421078;0.002882,1,right
87,0.47482428266026416,125.54980166231364,0.13855925813463243,63.3881835686466,4.797322617378086e-05,0.23300088942050934,0.0,0.4285714626312256,0,3,left_arm_joint3,upper,0.015038013458251953,right_arm_joint2,upper,-2.86102294921875e-06,0.525379;0.897945;0.015038;0.385931;2.116364;1.145512;2.394750,0.150359;-0.000003;1.078930;0.000095;0.182606;1.421138;0.002897,1,right
88,0.4745128720337589,125.47501937813571,0.1385838143861285,63.35219770145752,4.800728493137285e-05,0.2328895926475525,0.0,0.4285714626312256,0,3,left_arm_joint3,upper,0.015114307403564453,right_arm_joint2,upper,-2.9802322387695312e-06,0.525483;0.897921;0.015114;0.385919;2.116421;1.145562;2.394764,0.150384;-0.000003;1.078912;0.000094;0.182614;1.421239;0.002928,1,right
89,0.47425980794373174,125.36926466626952,0.13855762792288082,63.297946716205445,4.802431431016885e-05,0.2328108698129654,0.0,0.4285714626312256,0,3,left_arm_joint3,upper,0.015191078186035156,right_arm_joint2,upper,-3.4570693969726562e-06,0.525586;0.897896;0.015191;0.385907;2.116477;1.145612;2.394777,0.150397;-0.000003;1.078902;0.000094;0.182618;1.421299;0.002955,1,right
90,0.47402933090456484,125.29413036192716,0.13864478997320612,63.260380250960814,4.7419754992006347e-05,0.23296703398227692,0.0,0.4285714626312256,0,3,left_arm_joint3,upper,0.015267610549926758,right_arm_joint2,upper,-3.2186508178710938e-06,0.525689;0.897873;0.015268;0.385895;2.116535;1.145660;2.394787,0.150395;-0.000003;1.078905;0.000094;0.182617;1.421294;0.002964,1,right
91,0.4738931314857331,125.24040122535123,0.13867872745403254,63.22582205362546,4.8194615374086425e-05,0.23286691308021545,0.0,0.4285714626312256,0,3,left_arm_joint3,upper,0.015344858169555664,right_arm_joint2,upper,-3.0994415283203125e-06,0.525792;0.897848;0.015345;0.385883;2.116592;1.145710;2.394801,0.150398;-0.000003;1.078906;0.000094;0.182612;1.421275;0.002949,1,right
92,0.4738475546918486,125.18498121734643,0.13884897895642923,63.184628445783,4.812649422092363e-05,0.23324425518512726,0.0,0.4285714626312256,0,3,left_arm_joint3,upper,0.015421628952026367,right_arm_joint2,upper,-2.5033950805664062e-06,0.525896;0.897824;0.015422;0.385872;2.116650;1.145758;2.394815,0.150360;-0.000003;1.078934;0.000096;0.182601;1.421113;0.002897,1,right
93,0.4736712981337228,125.12399481242865,0.13924701050162822,63.03561434703553,4.867145253228955e-05,0.2340613156557083,0.0,0.4285714626312256,0,3,left_arm_joint3,upper,0.015498876571655273,right_arm_joint2,upper,-2.1457672119140625e-06,0.526000;0.897799;0.015499;0.385860;2.116707;1.145810;2.394830,0.150349;-0.000002;1.078941;0.000096;0.182601;1.421075;0.002876,1,right
94,0.4735978515350136,125.04162102237785,0.1396508748901239,62.86814513388736,4.8305308155249804e-05,0.2350756675004959,0.0,0.4285714626312256,0,3,left_arm_joint3,upper,0.015576362609863281,right_arm_joint2,upper,-2.5033950805664062e-06,0.526104;0.897775;0.015576;0.385848;2.116765;1.145859;2.394842,0.150332;-0.000003;1.078942;0.000096;0.182610;1.421077;0.002888,1,right
95,0.4736637669044385,124.98941557933912,0.14011653438275404,62.807598150900674,4.869699841947295e-05,0.23606570065021515,0.0,0.4285714626312256,0,3,left_arm_joint3,upper,0.015653610229492188,right_arm_joint2,upper,-2.384185791015625e-06,0.526207;0.897749;0.015654;0.385836;2.116823;1.145909;2.394856,0.150316;-0.000002;1.078948;0.000095;0.182612;1.421052;0.002892,1,right
96,0.4740713140088645,124.92710392007353,0.1402354299488856,62.88832171357843,4.783698750543408e-05,0.23624901473522186,0.0,0.4285714626312256,0,3,left_arm_joint3,upper,0.015730619430541992,right_arm_joint2,upper,-2.384185791015625e-06,0.526312;0.897726;0.015731;0.385824;2.116881;1.145959;2.394867,0.150323;-0.000002;1.078941;0.000095;0.182613;1.421081;0.002901,1,right
97,0.47450442732070236,124.9019291219977,0.14031329623571898,63.007342235339074,4.874808655586094e-05,0.2363947629928589,0.0,0.4285714626312256,0,3,left_arm_joint3,upper,0.015808582305908203,right_arm_joint2,upper,-2.384185791015625e-06,0.526417;0.897701;0.015809;0.385812;2.116940;1.146008;2.394881,0.150337;-0.000002;1.078930;0.000095;0.182618;1.421156;0.002930,1,right
98,0.4746062911006616,124.96921000584817,0.14016807276005025,63.119914654498544,4.8714027798268944e-05,0.23610420525074005,0.0,0.4285714626312256,0,3,left_arm_joint3,upper,0.015886306762695312,right_arm_joint2,upper,-2.6226043701171875e-06,0.526521;0.897675;0.015886;0.385800;2.116997;1.146059;2.394895,0.150330;-0.000003;1.078936;0.000094;0.182619;1.421121;0.002924,1,right
99,0.4745588866901707,124.95563767748436,0.14019421783137778,63.22200953379452,4.8824720579432324e-05,0.23615732789039612,0.0,0.4285714626312256,0,3,left_arm_joint3,upper,0.01596355438232422,right_arm_joint2,upper,-2.9802322387695312e-06,0.526626;0.897651;0.015964;0.385788;2.117055;1.146109;2.394910,0.150345;-0.000003;1.078925;0.000093;0.182622;1.421190;0.002944,1,right
100,0.4742586563397932,124.81199191933347,0.14033489780545516,63.15432150171899,4.8858779337024316e-05,0.23643207550048828,0.0,0.4285714626312256,0,3,left_arm_joint3,upper,0.016041994094848633,right_arm_joint2,upper,-3.814697265625e-06,0.526731;0.897626;0.016042;0.385775;2.117114;1.146159;2.394921,0.150380;-0.000004;1.078889;0.000090;0.182644;1.421390;0.003021,1,right
101,0.47394765994167615,124.64634678446477,0.14029831803573303,63.03052468844662,4.8892841732595116e-05,0.23672457039356232,0.0,0.4285714626312256,0,3,left_arm_joint3,upper,0.016120433807373047,right_arm_joint2,upper,-6.079673767089844e-06,0.526835;0.897601;0.016120;0.385764;2.117172;1.146210;2.394936,0.150441;-0.000006;1.078818;0.000083;0.182692;1.421821;0.003206,1,right
102,0.47373971840330825,124.57414387160748,0.14045100051920537,62.95961809702036,4.8714027798268944e-05,0.23737137019634247,0.0,0.4285714626312256,0,3,left_arm_joint3,upper,0.016197919845581055,right_arm_joint2,upper,-7.3909759521484375e-06,0.526940;0.897576;0.016198;0.385752;2.117230;1.146261;2.394948,0.150488;-0.000007;1.078755;0.000077;0.182742;1.422204;0.003411,1,right
103,0.47380660128922414,124.52313210959483,0.1404486181388796,62.842730977126415,4.9063139158533886e-05,0.23765990138053894,0.0,0.4285714626312256,0,3,left_arm_joint3,upper,0.01627635955810547,right_arm_joint2,upper,-9.059906005859375e-06,0.527046;0.897551;0.016276;0.385740;2.117289;1.146311;2.394962,0.150578;-0.000009;1.078657;0.000070;0.182805;1.422776;0.003681,1,right
104,0.4736426383029666,124.45179908147168,0.1405115538542076,62.70904092047615,4.822016126126982e-05,0.23803098499774933,0.0,0.4285714626312256,0,3,left_arm_joint3,upper,0.016353607177734375,right_arm_joint2,upper,-1.0132789611816406e-05,0.527151;0.897526;0.016354;0.385728;2.117347;1.146362;2.394969,0.150663;-0.000010;1.078564;0.000060;0.182877;1.423351;0.003984,1,right
105,0.4736400832126731,124.42295766781929,0.14050632059632437,62.530213294614406,4.8484122089575976e-05,0.23843909800052643,0.0,0.4285714626312256,0,3,left_arm_joint3,upper,0.016432762145996094,right_arm_joint2,upper,-1.0728836059570312e-05,0.527257;0.897501;0.016433;0.385715;2.117406;1.146411;2.394979,0.150704;-0.000011;1.078499;0.000055;0.182939;1.423755;0.004242,1,right
106,0.4733691132066846,124.46215056750886,0.14040168348727383,62.346908338266594,4.939522114000283e-05,0.23859462141990662,0.0,0.4285714626312256,0,3,left_arm_joint3,upper,0.016510725021362305,right_arm_joint2,upper,-1.0848045349121094e-05,0.527363;0.897476;0.016511;0.385703;2.117465;1.146463;2.394994,0.150731;-0.000011;1.078406;0.000063;0.183002;1.423953;0.004044,1,right
107,0.47324344162054893,124.47505199566551,0.1401417595376097,62.231280615542396,4.9531463446328416e-05,0.2384343296289444,0.0,0.4285714626312256,0,3,left_arm_joint3,upper,0.016590118408203125,right_arm_joint2,upper,-1.1086463928222656e-05,0.527468;0.897451;0.016590;0.385692;2.117524;1.146515;2.395008,0.150764;-0.000011;1.078362;0.000062;0.183023;1.423987;0.003667,1,right
108,0.47306477369338823,124.45697783066431,0.13982289393848832,62.193246081628274,4.954849282512441e-05,0.2379959374666214,0.0,0.4285714626312256,0,3,left_arm_joint3,upper,0.016669511795043945,right_arm_joint2,upper,-1.1086463928222656e-05,0.527575;0.897426;0.016670;0.385679;2.117583;1.146564;2.395022,0.150706;-0.000011;1.078387;0.000061;0.183049;1.423796;0.003479,1,right
109,0.4730948724992696,124.4699135031236,0.13949026511589807,62.185597236298946,4.9582551582716405e-05,0.23716023564338684,0.0,0.4285714626312256,0,3,left_arm_joint3,upper,0.016748905181884766,right_arm_joint2,upper,-1.1086463928222656e-05,0.527681;0.897399;0.016749;0.385667;2.117642;1.146614;2.395036,0.150744;-0.000011;1.078322;0.000060;0.183031;1.423892;0.003408,1,right
110,0.4729397330153467,124.50471652632545,0.13916335627141246,62.19000670172692,4.971879025106318e-05,0.23637740314006805,0.0,0.4285714626312256,0,3,left_arm_joint3,upper,0.016826629638671875,right_arm_joint2,upper,-1.0967254638671875e-05,0.527788;0.897374;0.016827;0.385655;2.117701;1.146667;2.395051,0.150727;-0.000011;1.078403;0.000066;0.182996;1.423593;0.003248,1,right
111,0.4730117713066924,124.45898887828947,0.13897453872038953,62.236259074593114,4.96166103403084e-05,0.23595693707466125,0.0,0.4285714626312256,0,3,left_arm_joint3,upper,0.0169064998626709,right_arm_joint2,upper,-1.0728836059570312e-05,0.527893;0.897348;0.016906;0.385642;2.117760;1.146717;2.395065,0.150697;-0.000011;1.078430;0.000067;0.183007;1.423482;0.003149,1,right
112,0.47253617157410455,124.4353223756146,0.13892464746711528,62.12040826662513,4.948888818034902e-05,0.236052006483078,0.0,0.4285714626312256,0,3,left_arm_joint3,upper,0.016984939575195312,right_arm_joint2,upper,-1.0251998901367188e-05,0.528000;0.897323;0.016985;0.385630;2.117820;1.146768;2.395079,0.150662;-0.000010;1.078416;0.000068;0.182987;1.423364;0.003090,1,right
113,0.47220831338084907,124.39171876810558,0.13886107396029487,61.92778042584749,4.980394078302197e-05,0.23600174486637115,0.0,0.4285714626312256,0,3,left_arm_joint3,upper,0.01706552505493164,right_arm_joint2,upper,-9.894371032714844e-06,0.528106;0.897298;0.017066;0.385618;2.117879;1.146818;2.395093,0.150652;-0.000010;1.078464;0.000072;0.182970;1.423198;0.002983,1,right
114,0.4720086974831948,124.42508314205817,0.1388376930741041,61.825070692164786,4.955700569553301e-05,0.23588073253631592,0.0,0.4285714626312256,0,3,left_arm_joint3,upper,0.017143964767456055,right_arm_joint2,upper,-9.894371032714844e-06,0.528214;0.897273;0.017144;0.385606;2.117939;1.146870;2.395106,0.150630;-0.000010;1.078487;0.000071;0.182982;1.423117;0.002920,1,right
115,0.4720582223590386,124.45613898341568,0.13857752999666995,61.77287993313641,5.009344749851152e-05,0.23518164455890656,0.0,0.4285714626312256,0,3,left_arm_joint3,upper,0.017223834991455078,right_arm_joint2,upper,-9.775161743164062e-06,0.528321;0.897246;0.017224;0.385593;2.117998;1.146921;2.395119,0.150610;-0.000010;1.078484;0.000074;0.182948;1.422966;0.002839,1,right
116,0.4720800400225098,124.45059296547895,0.1385539721694597,61.70974785871841,4.931007424602285e-05,0.23509828746318817,0.0,0.4285714626312256,0,3,left_arm_joint3,upper,0.017302751541137695,right_arm_joint2,upper,-8.940696716308594e-06,0.528429;0.897222;0.017303;0.385581;2.118058;1.146974;2.395130,0.150581;-0.000009;1.078544;0.000077;0.182935;1.422729;0.002712,1,right
117,0.47209619166856215,124.49886002791966,0.13850617057492842,61.664114968071154,4.955700569553301e-05,0.23495423793792725,0.0,0.4285714626312256,0,3,left_arm_joint3,upper,0.017383337020874023,right_arm_joint2,upper,-8.344650268554688e-06,0.528535;0.897196;0.017383;0.385569;2.118118;1.147024;2.395141,0.150530;-0.000008;1.078593;0.000082;0.182908;1.422441;0.002552,1,right
118,0.47202690563172606,124.64629562369042,0.13843631303695494,61.59815964506699,4.9897604185389355e-05,0.2347932755947113,0.0,0.4285714626312256,0,3,left_arm_joint3,upper,0.01746225357055664,right_arm_joint2,upper,-8.225440979003906e-06,0.528642;0.897170;0.017462;0.385557;2.118177;1.147075;2.395155,0.150517;-0.000008;1.078612;0.000083;0.182889;1.422318;0.002424,1,right
119,0.47179419945209833,124.76539437344914,0.13830219064965227,61.57096802864691,5.037444134359248e-05,0.2344064712524414,0.0,0.4285714626312256,0,3,left_arm_joint3,upper,0.01754283905029297,right_arm_joint2,upper,-8.344650268554688e-06,0.528750;0.897145;0.017543;0.385544;2.118237;1.147127;2.395170,0.150479;-0.000008;1.078612;0.000086;0.182882;1.422131;0.002335,1,right
120,0.4718330753384997,124.97675526563235,0.13810678559523357,61.622540677965894,5.044256249675527e-05,0.23389405012130737,0.0,0.4285714626312256,0,3,left_arm_joint3,upper,0.017622947692871094,right_arm_joint2,upper,-7.3909759521484375e-06,0.528859;0.897119;0.017623;0.385532;2.118297;1.147179;2.395185,0.150460;-0.000007;1.078640;0.000089;0.182855;1.421937;0.002210,1,right
121,0.4718777967281498,125.20926251340232,0.1377888181975041,61.68701028061313,5.0391470722388476e-05,0.2329414188861847,0.0,0.4285714626312256,0,3,left_arm_joint3,upper,0.017703533172607422,right_arm_joint2,upper,-6.9141387939453125e-06,0.528967;0.897093;0.017704;0.385520;2.118358;1.147230;2.395199,0.150477;-0.000007;1.078643;0.000092;0.182832;1.421885;0.002121,1,right
122,0.47190031120597714,125.37741048234663,0.13741842168739055,61.814815792984156,5.0476621254347265e-05,0.23210172355175018,0.0,0.4285714626312256,0,3,left_arm_joint3,upper,0.01778411865234375,right_arm_joint2,upper,-6.67572021484375e-06,0.529074;0.897067;0.017784;0.385507;2.118418;1.147282;2.395213,0.150486;-0.000007;1.078646;0.000093;0.182821;1.421854;0.002080,1,right
123,0.4718127049366888,125.47155354093766,0.13710827711748066,61.88375652615866,5.0365928473183885e-05,0.23125746846199036,0.0,0.4285714626312256,0,3,left_arm_joint3,upper,0.017863988876342773,right_arm_joint2,upper,-7.271766662597656e-06,0.529183;0.897040;0.017864;0.385494;2.118478;1.147334;2.395226,0.150520;-0.000007;1.078630;0.000092;0.182811;1.421939;0.002084,1,right
124,0.4714133581332241,125.5705697034995,0.13692107102739792,61.939925789381824,5.067246456746943e-05,0.23100939393043518,0.0,0.4285714626312256,0,3,left_arm_joint3,upper,0.0179445743560791,right_arm_joint2,upper,-6.556510925292969e-06,0.529291;0.897015;0.017945;0.385482;2.118539;1.147386;2.395241,0.150498;-0.000007;1.078649;0.000095;0.182806;1.421820;0.002004,1,right
125,0.4712150715906165,125.60168759079346,0.13665909683466618,62.02459055329816,5.050216714153066e-05,0.2304171323776245,0.0,0.4285714626312256,0,3,left_arm_joint3,upper,0.018026351928710938,right_arm_joint2,upper,-6.67572021484375e-06,0.529400;0.896990;0.018026;0.385470;2.118600;1.147438;2.395255,0.150503;-0.000007;1.078653;0.000095;0.182797;1.421783;0.001951,1,right
126,0.47120093284271414,125.61019772086392,0.13620518517026825,62.06338324331175,5.014453927287832e-05,0.2293112426996231,0.0,0.4285714626312256,0,3,left_arm_joint3,upper,0.018106460571289062,right_arm_joint2,upper,-6.198883056640625e-06,0.529509;0.896964;0.018106;0.385457;2.118660;1.147490;2.395263,0.150495;-0.000006;1.078676;0.000099;0.182769;1.421642;0.001867,1,right
127,0.4711323057755631,125.60047474696847,0.13594051761939083,62.093496755447944,5.109821358928457e-05,0.22874081134796143,0.0,0.4285714626312256,0,3,left_arm_joint3,upper,0.018187761306762695,right_arm_joint2,upper,-5.364418029785156e-06,0.529618;0.896937;0.018188;0.385445;2.118721;1.147542;2.395280,0.150473;-0.000005;1.078726;0.000103;0.182759;1.421457;0.001762,1,right
128,0.4711997344809411,125.58376832221923,0.13585224516816502,62.09589912924404,5.077464447822422e-05,0.22857630252838135,0.0,0.4285714626312256,0,3,left_arm_joint3,upper,0.018268585205078125,right_arm_joint2,upper,-5.125999450683594e-06,0.529726;0.896911;0.018269;0.385432;2.118782;1.147595;2.395294,0.150481;-0.000005;1.078775;0.000101;0.182730;1.421375;0.001682,1,right
129,0.47129943498178545,125.59392027234495,0.13576869440282105,62.10144950327437,5.0527709390735254e-05,0.22832107543945312,0.0,0.4285714626312256,0,3,left_arm_joint3,upper,0.018349170684814453,right_arm_joint2,upper,-3.933906555175781e-06,0.529836;0.896885;0.018349;0.385420;2.118843;1.147647;2.395306,0.150464;-0.000004;1.078775;0.000106;0.182717;1.421326;0.001665,1,right
130,0.4714191469189636,125.61700655928921,0.13574603279652406,62.10973932929399,5.065543518867344e-05,0.22832825779914856,0.0,0.4285714626312256,0,3,left_arm_joint3,upper,0.018430471420288086,right_arm_joint2,upper,-4.887580871582031e-06,0.529945;0.896859;0.018430;0.385407;2.118904;1.147700;2.395318,0.150418;-0.000005;1.078802;0.000103;0.182736;1.421165;0.001674,1,right
131,0.47151914125558747,125.60161921659976,0.13576735904648948,62.121726257075935,5.0680981075856835e-05,0.22838807106018066,0.0,0.4285714626312256,0,3,left_arm_joint3,upper,0.018512248992919922,right_arm_joint2,upper,-2.6226043701171875e-06,0.530054;0.896832;0.018512;0.385395;2.118964;1.147751;2.395331,0.150411;-0.000003;1.078844;0.000110;0.182688;1.420959;0.001691,1,right
132,0.47156474795261727,125.5938821266557,0.13574574273144743,62.13159942443837,5.100454654893838e-05,0.2283352166414261,0.0,0.4285714626312256,0,3,left_arm_joint3,upper,0.018593788146972656,right_arm_joint2,upper,-2.384185791015625e-06,0.530164;0.896807;0.018594;0.385383;2.119026;1.147804;2.395345,0.150412;-0.000002;1.078838;0.000112;0.182668;1.420923;0.001759,1,right
133,0.47153754787804825,125.59173374938024,0.1358164669535921,62.08081090397068,5.0425533117959276e-05,0.22855490446090698,0.0,0.4285714626312256,0,3,left_arm_joint3,upper,0.018675804138183594,right_arm_joint2,upper,-3.4570693969726562e-06,0.530274;0.896781;0.018676;0.385370;2.119087;1.147856;2.395354,0.150352;-0.000003;1.078849;0.000101;0.182737;1.420884;0.001746,1,right
134,0.47151476641032075,125.5976640544015,0.13590739012327574,62.02345082810156,5.158356361789629e-05,0.2286846935749054,0.0,0.4285714626312256,0,3,left_arm_joint3,upper,0.018756628036499023,right_arm_joint2,upper,-3.814697265625e-06,0.530384;0.896754;0.018757;0.385357;2.119148;1.147910;2.395369,0.150377;-0.000004;1.078834;0.000101;0.182740;1.420973;0.001723,1,right
135,0.4714851821836793,125.58900693830883,0.13607842653451444,61.964543220884025,5.115781823405996e-05,0.22907604277133942,0.0,0.4285714626312256,0,3,left_arm_joint3,upper,0.01883864402770996,right_arm_joint2,upper,-4.291534423828125e-06,0.530494;0.896728;0.018839;0.385345;2.119210;1.147961;2.395382,0.150397;-0.000004;1.078842;0.000100;0.182733;1.421019;0.001703,1,right
136,0.47150730248870054,125.57804122401028,0.1361119394096575,61.98624325890314,5.130256977281533e-05,0.22903922200202942,0.0,0.4285714626312256,0,3,left_arm_joint3,upper,0.0189211368560791,right_arm_joint2,upper,-4.410743713378906e-06,0.530604;0.896701;0.018921;0.385332;2.119271;1.148014;2.395395,0.150399;-0.000004;1.078808;0.000102;0.182754;1.421087;0.001670,1,right
137,0.4715771811884886,125.58522786617128,0.13619555964986915,62.04591238400674,5.119187699165195e-05,0.22927367687225342,0.0,0.4285714626312256,0,3,left_arm_joint3,upper,0.019002199172973633,right_arm_joint2,upper,-3.933906555175781e-06,0.530715;0.896675;0.019002;0.385319;2.119334;1.148067;2.395409,0.150391;-0.000004;1.078821;0.000102;0.182726;1.421014;0.001664,1,right
138,0.47164957526002055,125.5911412309008,0.1361929887253138,62.0883350895465,5.1234452257631347e-05,0.22919437289237976,0.0,0.4285714626312256,0,3,left_arm_joint3,upper,0.019084692001342773,right_arm_joint2,upper,-3.6954879760742188e-06,0.530825;0.896649;0.019085;0.385307;2.119395;1.148120;2.395422,0.150413;-0.000004;1.078858;0.000100;0.182697;1.421008;0.001673,1,right
139,0.47175892581006124,125.59612446261032,0.13611815924581383,62.11423406187308,5.1864557462977245e-05,0.22896048426628113,0.0,0.4285714626312256,0,3,left_arm_joint3,upper,0.01916670799255371,right_arm_joint2,upper,-3.933906555175781e-06,0.530935;0.896622;0.019167;0.385293;2.119457;1.148173;2.395437,0.150408;-0.000004;1.078820;0.000102;0.182742;1.421052;0.001669,1,right
140,0.4718300020352772,125.58296962281162,0.13605986400380143,62.12094539016332,5.171128941583447e-05,0.22884726524353027,0.0,0.4285714626312256,0,3,left_arm_joint3,upper,0.019249677658081055,right_arm_joint2,upper,-2.86102294921875e-06,0.531046;0.896595;0.019250;0.385282;2.119519;1.148226;2.395452,0.150404;-0.000003;1.078836;0.000108;0.182721;1.420975;0.001677,1,right
141,0.47194477109528477,125.5768880938318,0.13592581288870792,62.13042040949087,5.1540988351916894e-05,0.22854414582252502,0.0,0.4285714626312256,0,3,left_arm_joint3,upper,0.019331932067871094,right_arm_joint2,upper,-3.337860107421875e-06,0.531157;0.896568;0.019332;0.385269;2.119580;1.148279;2.395466,0.150396;-0.000003;1.078803;0.000106;0.182748;1.421027;0.001667,1,right
142,0.47208688073108024,125.56649261200668,0.13595277608092715,62.10173260019192,5.161762601346709e-05,0.22869114577770233,0.0,0.4285714626312256,0,3,left_arm_joint3,upper,0.019414901733398438,right_arm_joint2,upper,-3.2186508178710938e-06,0.531268;0.896542;0.019415;0.385256;2.119642;1.148331;2.395480,0.150405;-0.000003;1.078827;0.000108;0.182703;1.420963;0.001689,1,right
143,0.4720976634143677,125.57812524692908,0.13607075871903243,62.06673874942843,5.15239589731209e-05,0.22879451513290405,0.0,0.4285714626312256,0,3,left_arm_joint3,upper,0.019496679306030273,right_arm_joint2,upper,-2.6226043701171875e-06,0.531379;0.896515;0.019497;0.385243;2.119704;1.148386;2.395490,0.150414;-0.000003;1.078832;0.000110;0.182696;1.420970;0.001696,1,right
144,0.4721198258116288,125.58712366129986,0.13618769061233227,62.04000048424601,5.184752808418125e-05,0.22894316911697388,0.0,0.4285714626312256,0,3,left_arm_joint3,upper,0.01958012580871582,right_arm_joint2,upper,-2.6226043701171875e-06,0.531490;0.896487;0.019580;0.385230;2.119766;1.148439;2.395503,0.150412;-0.000003;1.078826;0.000109;0.182700;1.420968;0.001704,1,right
145,0.4721238809571833,125.56713174679567,0.13627333176856204,61.982645722025985,5.200079613132402e-05,0.22908127307891846,0.0,0.4285714626312256,0,3,left_arm_joint3,upper,0.019663095474243164,right_arm_joint2,upper,-2.7418136596679688e-06,0.531602;0.896461;0.019663;0.385217;2.119829;1.148492;2.395517,0.150415;-0.000003;1.078830;0.000110;0.182697;1.420969;0.001701,1,right
146,0.4720989521107664,125.54775293608049,0.13627586350157325,61.95892225453331,5.129405690240674e-05,0.22907011210918427,0.0,0.4285714626312256,0,3,left_arm_joint3,upper,0.019745826721191406,right_arm_joint2,upper,-3.5762786865234375e-06,0.531714;0.896434;0.019746;0.385205;2.119891;1.148546;2.395527,0.150393;-0.000004;1.078800;0.000107;0.182744;1.421012;0.001685,1,right
147,0.4720628887891192,125.51981607240384,0.13632450374460278,61.95162846699679,5.21370347996708e-05,0.2290964126586914,0.0,0.4285714626312256,0,3,left_arm_joint3,upper,0.019829511642456055,right_arm_joint2,upper,-3.2186508178710938e-06,0.531826;0.896407;0.019830;0.385192;2.119955;1.148598;2.395540,0.150365;-0.000003;1.078804;0.000107;0.182737;1.420921;0.001684,1,right
148,0.4720397804408649,125.48104807320291,0.13636488763367635,61.94316132438549,5.225624408922158e-05,0.22913777828216553,0.0,0.4285714626312256,0,3,left_arm_joint3,upper,0.019911527633666992,right_arm_joint2,upper,-3.4570693969726562e-06,0.531937;0.896380;0.019912;0.385179;2.120017;1.148654;2.395555,0.150348;-0.000003;1.078809;0.000108;0.182748;1.420908;0.001690,1,right
149,0.47218234745371246,125.46167339051823,0.1362937434195175,61.95382578958142,5.198376675252803e-05,0.22890926897525787,0.0,0.4285714626312256,0,3,left_arm_joint3,upper,0.019995450973510742,right_arm_joint2,upper,-2.86102294921875e-06,0.532049;0.896354;0.019995;0.385167;2.120080;1.148706;2.395570,0.150329;-0.000003;1.078810;0.000110;0.182729;1.420845;0.001720,1,right
150,0.4723017105922684,125.45724205485102,0.1362976084854673,62.00181143735348,5.1804952818201855e-05,0.22886154055595398,0.0,0.4285714626312256,0,3,left_arm_joint3,upper,0.020078420639038086,right_arm_joint2,upper,-2.1457672119140625e-06,0.532162;0.896327;0.020078;0.385153;2.120142;1.148760;2.395579,0.150380;-0.000002;1.078850;0.000108;0.182675;1.420918;0.001760,1,right
151,0.4722613668960461,125.42076461113032,0.1362943012963296,62.01022229037168,5.252020855550654e-05,0.22889144718647003,0.0,0.4285714626312256,0,3,left_arm_joint3,upper,0.020162105560302734,right_arm_joint2,upper,-2.1457672119140625e-06,0.532274;0.896300;0.020162;0.385140;2.120205;1.148814;2.395595,0.150360;-0.000002;1.078756;0.000111;0.182697;1.420775;0.001848,1,right
152,0.4723620591149996,125.39240926340152,0.13628075375817886,62.04412249248668,5.257981320028193e-05,0.2288653552532196,0.0,0.4285714626312256,0,3,left_arm_joint3,upper,0.020246505737304688,right_arm_joint2,upper,1.3113021850585938e-06,0.532386;0.896272;0.020247;0.385128;2.120268;1.148866;2.395610,0.150500;0.000001;1.079024;0.000097;0.182580;1.420950;0.001819,1,right
153,0.47233970891224464,125.39057455903595,0.13630767090251036,62.07314383047643,5.253723793430254e-05,0.22875863313674927,0.0,0.4285714626312256,0,3,left_arm_joint3,upper,0.020329713821411133,right_arm_joint2,upper,2.384185791015625e-06,0.532499;0.896245;0.020330;0.385114;2.120331;1.148921;2.395623,0.150545;0.000002;1.079068;0.000096;0.182546;1.420996;0.001859,1,right
154,0.4721872052790149,125.38592679001208,0.13636413369259767,62.05378798105264,5.2792689530178905e-05,0.22872033715248108,0.0,0.4285714626312256,0,3,left_arm_joint3,upper,0.020413637161254883,right_arm_joint2,upper,-3.0994415283203125e-06,0.532612;0.896217;0.020414;0.385101;2.120394;1.148976;2.395638,0.150346;-0.000003;1.078830;0.000108;0.182692;1.420847;0.001916,1,right
155,0.4721620215545593,125.3862156732981,0.1363841436847018,62.0358067872962,5.209446317167021e-05,0.22884739935398102,0.0,0.4285714626312256,0,3,left_arm_joint3,upper,0.02049708366394043,right_arm_joint2,upper,-2.9802322387695312e-06,0.532725;0.896190;0.020497;0.385089;2.120457;1.149028;2.395651,0.150352;-0.000003;1.078778;0.000108;0.182687;1.420862;0.001934,1,right
156,0.4721306532982429,125.3727133706535,0.1363774113291745,62.03392642053275,5.269050961942412e-05,0.2288099080324173,0.0,0.4285714626312256,0,3,left_arm_joint3,upper,0.020581960678100586,right_arm_joint2,upper,-1.0728836059570312e-06,0.532838;0.896164;0.020582;0.385076;2.120520;1.149084;2.395665,0.150415;-0.000001;1.078881;0.000110;0.182644;1.420990;0.001919,1,right
157,0.47215454731915574,125.34178717098841,0.1363277875351484,62.03546532366189,5.255427095107734e-05,0.2286180853843689,0.0,0.4285714626312256,0,3,left_arm_joint3,upper,0.02066636085510254,right_arm_joint2,upper,1.1920928955078125e-07,0.532951;0.896136;0.020666;0.385063;2.120584;1.149137;2.395676,0.150418;0.000000;1.078788;0.000115;0.182635;1.420882;0.001927,1,right
158,0.4720821466950569,125.35446977562907,0.13636029204948083,62.01535875995362,5.299704571370967e-05,0.22878460586071014,0.0,0.4285714626312256,0,3,left_arm_joint3,upper,0.020750761032104492,right_arm_joint2,upper,3.4570693969726562e-06,0.533065;0.896108;0.020751;0.385049;2.120647;1.149192;2.395689,0.150485;0.000003;1.078922;0.000122;0.182588;1.420840;0.001897,1,right
159,0.47204896860490453,125.36820756958717,0.13636471581681783,61.997589383115454,5.286080704536289e-05,0.22864003479480743,0.0,0.4285714626312256,0,3,left_arm_joint3,upper,0.020834684371948242,right_arm_joint2,upper,2.5033950805664062e-06,0.533179;0.896082;0.020835;0.385036;2.120711;1.149248;2.395703,0.150464;0.000003;1.078857;0.000119;0.182631;1.420994;0.001926,1,right
160,0.47216260440448166,125.34487912965251,0.1363980066153877,61.988287218582926,5.252020855550654e-05,0.22868970036506653,0.0,0.4285714626312256,0,3,left_arm_joint3,upper,0.0209197998046875,right_arm_joint2,upper,-3.0994415283203125e-06,0.533293;0.896054;0.020920;0.385024;2.120774;1.149301;2.395715,0.150351;-0.000003;1.078902;0.000089;0.182687;1.420832;0.001871,1,right
161,0.4721876158374029,125.33091323892104,0.13646729711564717,62.01789288503946,5.3482399380300194e-05,0.22897997498512268,0.0,0.4285714626312256,0,3,left_arm_joint3,upper,0.021004438400268555,right_arm_joint2,upper,-2.9802322387695312e-06,0.533406;0.896025;0.021004;0.385010;2.120839;1.149355;2.395729,0.150288;-0.000003;1.078917;0.000097;0.182694;1.420633;0.001889,1,right
162,0.47225405296286255,125.32110324904211,0.13644397938585423,62.01792133126301,5.2911898819729686e-05,0.22892849147319794,0.0,0.4285714626312256,0,3,left_arm_joint3,upper,0.021089792251586914,right_arm_joint2,upper,-3.6954879760742188e-06,0.533521;0.895998;0.021090;0.384998;2.120903;1.149410;2.395742,0.150334;-0.000004;1.078948;0.000080;0.182617;1.420736;0.001860,1,right
163,0.47235771534082516,125.29141075293654,0.1364271503591657,62.050317148974536,5.315031739883125e-05,0.2288859635591507,0.0,0.4285714626312256,0,3,left_arm_joint3,upper,0.021174192428588867,right_arm_joint2,upper,-3.2186508178710938e-06,0.533636;0.895971;0.021174;0.384984;2.120967;1.149465;2.395756,0.150280;-0.000003;1.078858;0.000092;0.182707;1.420597;0.001918,1,right
164,0.47223065889961907,125.24653980808414,0.13646149571229382,62.049219103520834,5.335467358236201e-05,0.22887243330478668,0.0,0.4285714626312256,0,3,left_arm_joint3,upper,0.021259546279907227,right_arm_joint2,upper,-2.9802322387695312e-06,0.533750;0.895943;0.021260;0.384972;2.121031;1.149520;2.395770,0.150370;-0.000003;1.078963;0.000081;0.182557;1.420777;0.001949,1,right
165,0.47219579945973933,125.17876931710938,0.1364391910459909,62.058996606004094,5.3022591600893065e-05,0.22885815799236298,0.0,0.4285714626312256,0,3,left_arm_joint3,upper,0.02134561538696289,right_arm_joint2,upper,-3.5762786865234375e-06,0.533864;0.895916;0.021346;0.384959;2.121095;1.149573;2.395783,0.150275;-0.000004;1.078956;0.000083;0.182639;1.420625;0.001923,1,right
166,0.4720592318949761,125.14040272447147,0.13654641276560817,62.02821332173743,5.332913133315742e-05,0.22908835113048553,0.0,0.4285714626312256,0,3,left_arm_joint3,upper,0.021429777145385742,right_arm_joint2,upper,2.384185791015625e-07,0.533978;0.895888;0.021430;0.384945;2.121160;1.149629;2.395796,0.150380;0.000000;1.078941;0.000111;0.182601;1.420792;0.001982,1,right
167,0.4720321178807391,125.16280748336258,0.13666536542763835,62.012819211820855,5.2639417845057324e-05,0.22930395603179932,0.0,0.4285714626312256,0,3,left_arm_joint3,upper,0.021515846252441406,right_arm_joint2,upper,2.0265579223632812e-06,0.534093;0.895860;0.021516;0.384932;2.121224;1.149683;2.395804,0.150371;0.000002;1.078833;0.000115;0.182657;1.420796;0.002004,1,right
168,0.4720425549183905,125.16653507503555,0.1365843692312047,62.03271595919269,5.3482399380300194e-05,0.22905226051807404,0.0,0.4285714626312256,0,3,left_arm_joint3,upper,0.021601200103759766,right_arm_joint2,upper,2.5033950805664062e-06,0.534209;0.895833;0.021601;0.384919;2.121288;1.149739;2.395818,0.150480;0.000003;1.078854;0.000120;0.182585;1.420934;0.001976,1,right
169,0.47220582344862094,125.19561486114951,0.13661550659692712,62.085879836956444,5.3925177780911326e-05,0.22914856672286987,0.0,0.4285714626312256,0,3,left_arm_joint3,upper,0.021686077117919922,right_arm_joint2,upper,-1.5497207641601562e-06,0.534324;0.895804;0.021686;0.384905;2.121352;1.149794;2.395832,0.150347;-0.000002;1.078738;0.000112;0.182696;1.420815;0.001982,1,right
170,0.4722192351988057,125.18110904954847,0.1365974558849432,62.135798120447774,5.4061416449258104e-05,0.22925731539726257,0.0,0.4285714626312256,0,3,left_arm_joint3,upper,0.021772146224975586,right_arm_joint2,upper,4.0531158447265625e-06,0.534439;0.895775;0.021772;0.384891;2.121418;1.149849;2.395847,0.150493;0.000004;1.079090;0.000093;0.182541;1.420804;0.001955,1,right
171,0.4723399487240364,125.15050647214433,0.13645574661964233,62.184253798214236,5.320992204360664e-05,0.2288605123758316,0.0,0.4285714626312256,0,3,left_arm_joint3,upper,0.02185821533203125,right_arm_joint2,upper,3.2186508178710938e-06,0.534554;0.895748;0.021858;0.384879;2.121482;1.149904;2.395858,0.150532;0.000003;1.079098;0.000097;0.182527;1.420931;0.001948,1,right
172,0.47250034439261485,125.12244405113901,0.13636151778568278,62.2127611792443,5.326952668838203e-05,0.22872483730316162,0.0,0.4285714626312256,0,3,left_arm_joint3,upper,0.02194380760192871,right_arm_joint2,upper,3.2186508178710938e-06,0.534670;0.895720;0.021944;0.384865;2.121547;1.149960;2.395868,0.150487;0.000003;1.079160;0.000088;0.182503;1.420789;0.001951,1,right
173,0.47254096144895247,125.09716843800004,0.13627152952990626,62.22332608333521,5.3865573136135936e-05,0.2285119742155075,0.0,0.4285714626312256,0,3,left_arm_joint3,upper,0.02203059196472168,right_arm_joint2,upper,2.6226043701171875e-06,0.534786;0.895691;0.022031;0.384852;2.121612;1.150014;2.395882,0.150484;0.000003;1.079133;0.000091;0.182523;1.420801;0.001901,1,right
174,0.4725031405298605,125.0654169607746,0.13639399641449654,62.19978628954107,5.2639417845057324e-05,0.2288142442703247,0.0,0.4285714626312256,0,3,left_arm_joint3,upper,0.02211594581604004,right_arm_joint2,upper,3.337860107421875e-06,0.534901;0.895663;0.022116;0.384839;2.121677;1.150070;2.395887,0.150516;0.000003;1.079093;0.000096;0.182538;1.420921;0.001930,1,right
175,0.4724873193604384,125.07218188498842,0.13655162282519595,62.19687611565858,5.434241029433906e-05,0.2290729433298111,0.0,0.4285714626312256,0,3,left_arm_joint3,upper,0.022202730178833008,right_arm_joint2,upper,2.9802322387695312e-06,0.535017;0.895635;0.022203;0.384825;2.121742;1.150126;2.395902,0.150529;0.000003;1.079092;0.000098;0.182543;1.420949;0.001928,1,right
176,0.47251570522724673,125.05540264655546,0.1367156539000903,62.192513551935434,5.337170296115801e-05,0.22936061024665833,0.0,0.4285714626312256,0,3,left_arm_joint3,upper,0.022288799285888672,right_arm_joint2,upper,3.933906555175781e-06,0.535134;0.895608;0.022289;0.384812;2.121806;1.150182;2.395911,0.150539;0.000004;1.079068;0.000109;0.182584;1.420989;0.001918,1,right
177,0.4724205158692841,125.01839002124986,0.13667383149699722,62.21565900978828,5.4035870562074706e-05,0.22921684384346008,0.0,0.4285714626312256,0,3,left_arm_joint3,upper,0.022376060485839844,right_arm_joint2,upper,-3.2186508178710938e-06,0.535250;0.895578;0.022376;0.384799;2.121872;1.150236;2.395925,0.150331;-0.000003;1.078986;0.000078;0.182612;1.420738;0.001907,1,right
178,0.4724772586243667,124.97662993346877,0.13665741981847535,62.22590162847781,5.425725976238027e-05,0.2291521281003952,0.0,0.4285714626312256,0,3,left_arm_joint3,upper,0.02246260643005371,right_arm_joint2,upper,-3.6954879760742188e-06,0.535367;0.895551;0.022463;0.384786;2.121938;1.150292;2.395938,0.150347;-0.000004;1.078943;0.000083;0.182605;1.420808;0.001922,1,right
179,0.4725076342010549,124.91487123996332,0.13660987306616726,62.285416234345114,5.422320100478828e-05,0.22905689477920532,0.0,0.4285714626312256,0,3,left_arm_joint3,upper,0.02254939079284668,right_arm_joint2,upper,-3.5762786865234375e-06,0.535484;0.895522;0.022549;0.384772;2.122004;1.150347;2.395951,0.150335;-0.000004;1.078933;0.000083;0.182608;1.420770;0.001926,1,right
180,0.4724388966295764,124.87175094769181,0.1366378406520241,62.30522329390138,5.474260979099199e-05,0.2290978580713272,0.0,0.4285714626312256,0,3,left_arm_joint3,upper,0.022637128829956055,right_arm_joint2,upper,-4.76837158203125e-07,0.535601;0.895495;0.022637;0.384759;2.122069;1.150405;2.395965,0.150382;-0.000000;1.078929;0.000108;0.182623;1.420826;0.001939,1,right
181,0.4724367476031754,124.8332216431076,0.13661726331967836,62.31645672609328,5.444458656711504e-05,0.22903558611869812,0.0,0.4285714626312256,0,3,left_arm_joint3,upper,0.022724151611328125,right_arm_joint2,upper,1.1920928955078125e-07,0.535718;0.895464;0.022724;0.384745;2.122136;1.150459;2.395978,0.150393;0.000000;1.078782;0.000114;0.182672;1.420877;0.001961,1,right
182,0.4724898072375159,124.82292718723265,0.13643026227380337,62.30378911135882,5.837849312229082e-05,0.2287472039461136,0.0,0.4285714626312256,0,3,left_arm_joint3,upper,0.022810935974121094,right_arm_joint2,upper,2.5033950805664062e-06,0.535835;0.895436;0.022811;0.384732;2.122200;1.150517;2.395937,0.150573;0.000003;1.079052;0.000097;0.182534;1.421036;0.001859,1,right
183,0.47239742215354047,124.83051802040094,0.13653184643945024,62.300704592481885,6.0703074268531054e-05,0.2289469987154007,0.0,0.4285714626312256,0,3,left_arm_joint3,upper,0.022898435592651367,right_arm_joint2,upper,-3.2186508178710938e-06,0.535952;0.895408;0.022898;0.384718;2.122267;1.150573;2.395881,0.150331;-0.000003;1.078845;0.000106;0.182693;1.420789;0.001900,1,right
184,0.47241713514409606,124.83343718172908,0.13648286724766656,62.33270370415527,6.049871808500029e-05,0.22889816761016846,0.0,0.4285714626312256,0,3,left_arm_joint3,upper,0.022985458374023438,right_arm_joint2,upper,-1.1920928955078125e-07,0.536070;0.895380;0.022985;0.384705;2.122333;1.150629;2.395827,0.150418;-0.000000;1.078911;0.000112;0.182620;1.420918;0.001907,1,right
185,0.4723307988347212,124.87253364083209,0.13647928269278137,62.307584441612086,6.0600897995755076e-05,0.22907008230686188,0.0,0.4285714626312256,0,3,left_arm_joint3,upper,0.023072481155395508,right_arm_joint2,upper,3.6954879760742188e-06,0.536187;0.895350;0.023072;0.384691;2.122398;1.150684;2.395770,0.150450;0.000004;1.078873;0.000120;0.182598;1.420909;0.001944,1,right
186,0.4722484974424813,124.90430336934892,0.13650583990118625,62.31917858087093,6.067753201932646e-05,0.22912491858005524,0.0,0.4285714626312256,0,3,left_arm_joint3,upper,0.02315998077392578,right_arm_joint2,upper,-1.1920928955078125e-07,0.536304;0.895322;0.023160;0.384678;2.122464;1.150742;2.395715,0.150359;-0.000000;1.078780;0.000113;0.182680;1.420805;0.001986,1,right
187,0.472224923457512,124.9238888928432,0.13635525081067273,62.32461014938615,6.092446346883662e-05,0.22889238595962524,0.0,0.4285714626312256,0,3,left_arm_joint3,upper,0.023247241973876953,right_arm_joint2,upper,2.384185791015625e-06,0.536422;0.895293;0.023247;0.384664;2.122530;1.150798;2.395659,0.150550;0.000002;1.079059;0.000093;0.182525;1.420993;0.001893,1,right
188,0.472124018853387,124.94402605986957,0.13621979679324941,62.31352919634451,6.1026643379591405e-05,0.22858361899852753,0.0,0.4285714626312256,0,3,left_arm_joint3,upper,0.02333521842956543,right_arm_joint2,upper,-2.2649765014648438e-06,0.536540;0.895265;0.023335;0.384650;2.122597;1.150854;2.395602,0.150313;-0.000002;1.078870;0.000105;0.182696;1.420726;0.001923,1,right
189,0.47211371774807964,124.95118560633406,0.13608545186520835,62.29590863311094,6.10862480243668e-05,0.2284419685602188,0.0,0.4285714626312256,0,3,left_arm_joint3,upper,0.023423433303833008,right_arm_joint2,upper,-1.0728836059570312e-06,0.536658;0.895236;0.023423;0.384638;2.122663;1.150910;2.395544,0.150378;-0.000001;1.078838;0.000111;0.182659;1.420814;0.001972,1,right
190,0.4720331572130032,124.97314902399056,0.13595459174679594,62.28059112643514,6.066050264053047e-05,0.22814054787158966,0.0,0.4285714626312256,0,3,left_arm_joint3,upper,0.023511409759521484,right_arm_joint2,upper,-2.1457672119140625e-06,0.536777;0.895207;0.023511;0.384624;2.122730;1.150967;2.395492,0.150289;-0.000002;1.078734;0.000110;0.182737;1.420744;0.001907,1,right
191,0.4719345412606909,124.97952960141481,0.13584168894250845,62.27202025305725,6.16822944721207e-05,0.22796662151813507,0.0,0.4285714626312256,0,3,left_arm_joint3,upper,0.023598909378051758,right_arm_joint2,upper,-1.430511474609375e-06,0.536895;0.895178;0.023599;0.384610;2.122796;1.151023;2.395433,0.150373;-0.000001;1.078801;0.000111;0.182665;1.420811;0.001914,1,right
192,0.4718504188200291,125.00588232523282,0.13585528907867703,62.246386195910034,6.120545731391758e-05,0.22798845171928406,0.0,0.4285714626312256,0,3,left_arm_joint3,upper,0.023687124252319336,right_arm_joint2,upper,-2.2649765014648438e-06,0.537014;0.895149;0.023687;0.384596;2.122863;1.151080;2.395378,0.150351;-0.000002;1.078784;0.000108;0.182674;1.420852;0.001955,1,right
193,0.47197602300113617,125.01576907044998,0.1359019038672766,62.25270099998022,6.086485882406123e-05,0.2281288355588913,0.0,0.4285714626312256,0,3,left_arm_joint3,upper,0.023775339126586914,right_arm_joint2,upper,5.960464477539062e-07,0.537132;0.895120;0.023775;0.384583;2.122929;1.151137;2.395323,0.150377;0.000001;1.078927;0.000110;0.182631;1.420835;0.001938,1,right
194,0.47201251268728,125.04448332637843,0.13588738263357586,62.26516905178553,6.157159805297852e-05,0.22804805636405945,0.0,0.4285714626312256,0,3,left_arm_joint3,upper,0.023864269256591797,right_arm_joint2,upper,2.9802322387695312e-06,0.537251;0.895091;0.023864;0.384568;2.122997;1.151192;2.395266,0.150436;0.000003;1.078871;0.000118;0.182647;1.420974;0.001968,1,right
195,0.47200085755420973,125.05580850590067,0.136009878933418,62.287386213998815,6.114585266914219e-05,0.22845891118049622,0.0,0.4285714626312256,0,3,left_arm_joint3,upper,0.023952245712280273,right_arm_joint2,upper,4.172325134277344e-06,0.537370;0.895061;0.023952;0.384555;2.123064;1.151250;2.395213,0.150378;0.000004;1.078883;0.000118;0.182635;1.420776;0.002025,1,right
196,0.47204719105185017,125.06060971537732,0.13598830020850336,62.31884416118219,6.195477180881426e-05,0.22832496464252472,0.0,0.4285714626312256,0,3,left_arm_joint3,upper,0.02404165267944336,right_arm_joint2,upper,3.5762786865234375e-06,0.537489;0.895032;0.024042;0.384541;2.123131;1.151307;2.395155,0.150442;0.000004;1.078866;0.000120;0.182592;1.420898;0.002021,1,right
197,0.4719317154292746,125.04421849172527,0.13600643018016056,62.28204344132231,6.183556251926348e-05,0.22852973639965057,0.0,0.4285714626312256,0,3,left_arm_joint3,upper,0.024130821228027344,right_arm_joint2,upper,5.4836273193359375e-06,0.537609;0.895003;0.024131;0.384528;2.123198;1.151364;2.395098,0.150414;0.000005;1.078923;0.000121;0.182598;1.420830;0.002042,1,right
198,0.4719172445168046,125.06543486159086,0.13610135593348965,62.25507494203053,6.148645479697734e-05,0.2287137508392334,0.0,0.4285714626312256,0,3,left_arm_joint3,upper,0.024219512939453125,right_arm_joint2,upper,4.5299530029296875e-06,0.537728;0.894974;0.024220;0.384514;2.123265;1.151421;2.395042,0.150421;0.000005;1.078961;0.000122;0.182586;1.420710;0.001973,1,right
199,0.4719118268623358,125.07406152320965,0.13613637487552904,62.21731956581543,6.2303886807058e-05,0.22876732051372528,0.0,0.4285714626312256,0,3,left_arm_joint3,upper,0.024308443069458008,right_arm_joint2,upper,3.6954879760742188e-06,0.537848;0.894945;0.024308;0.384500;2.123333;1.151479;2.394984,0.150389;0.000004;1.078877;0.000117;0.182648;1.420842;0.001997,1,right
200,0.47179066952164134,125.07438903347962,0.1361780548180094,62.19298968703744,6.194625893840566e-05,0.22888202965259552,0.0,0.4285714626312256,0,3,left_arm_joint3,upper,0.024398088455200195,right_arm_joint2,upper,4.172325134277344e-06,0.537969;0.894915;0.024398;0.384486;2.123400;1.151536;2.394929,0.150427;0.000004;1.078888;0.000120;0.182599;1.420883;0.002021,1,right
201,0.4717568765631097,125.08137227103254,0.1361978817234806,62.17498265774754,6.188665429363027e-05,0.22895821928977966,0.0,0.4285714626312256,0,3,left_arm_joint3,upper,0.024487972259521484,right_arm_joint2,upper,2.7418136596679688e-06,0.538089;0.894886;0.024488;0.384473;2.123468;1.151593;2.394873,0.150413;0.000003;1.078852;0.000117;0.182608;1.420866;0.002033,1,right
202,0.47177869235487807,125.0959255198238,0.136242182574114,62.175261291294575,6.261894304770976e-05,0.22907552123069763,0.0,0.4285714626312256,0,3,left_arm_joint3,upper,0.02457737922668457,right_arm_joint2,upper,3.4570693969726562e-06,0.538210;0.894856;0.024577;0.384459;2.123537;1.151651;2.394816,0.150428;0.000003;1.078872;0.000119;0.182595;1.420885;0.002032,1,right
203,0.47165897026554393,125.10655160580777,0.13629792249736608,62.18235671752804,6.260191003093496e-05,0.2291681468486786,0.0,0.4285714626312256,0,3,left_arm_joint3,upper,0.024666786193847656,right_arm_joint2,upper,3.2186508178710938e-06,0.538330;0.894826;0.024667;0.384444;2.123604;1.151709;2.394756,0.150419;0.000003;1.078867;0.000119;0.182601;1.420874;0.002036,1,right
204,0.4716612388720729,125.09595479521944,0.13631572782452006,62.203169566898005,6.240606307983398e-05,0.22929614782333374,0.0,0.4285714626312256,0,3,left_arm_joint3,upper,0.02475738525390625,right_arm_joint2,upper,1.3113021850585938e-06,0.538451;0.894797;0.024757;0.384431;2.123672;1.151768;2.394701,0.150409;0.000001;1.078836;0.000117;0.182611;1.420873;0.002028,1,right
205,0.4716825230164948,125.12604985950705,0.13630561039774808,62.19949808957994,6.262745591811836e-05,0.22923977673053741,0.0,0.4285714626312256,0,3,left_arm_joint3,upper,0.024847030639648438,right_arm_joint2,upper,4.0531158447265625e-06,0.538572;0.894767;0.024847;0.384417;2.123741;1.151825;2.394643,0.150427;0.000004;1.078886;0.000120;0.182596;1.420901;0.002032,1,right
206,0.4717326147788034,125.13627597022328,0.1363225356927896,62.215902328170614,6.291696627158672e-05,0.22930209338665009,0.0,0.4285714626312256,0,3,left_arm_joint3,upper,0.024937868118286133,right_arm_joint2,upper,3.337860107421875e-06,0.538693;0.894738;0.024938;0.384403;2.123809;1.151883;2.394584,0.150408;0.000003;1.078871;0.000120;0.182599;1.420843;0.002043,1,right
207,0.4716998689751228,125.19137450767533,0.13642607170666032,62.22545234901369,6.307023431872949e-05,0.22949595749378204,0.0,0.4285714626312256,0,3,left_arm_joint3,upper,0.025028228759765625,right_arm_joint2,upper,5.602836608886719e-06,0.538815;0.894707;0.025028;0.384389;2.123878;1.151941;2.394526,0.150414;0.000006;1.078954;0.000121;0.182585;1.420765;0.002047,1,right
208,0.47172597184385195,125.259559925872,0.13650960080469998,62.24141119029367,6.271260645007715e-05,0.22960452735424042,0.0,0.4285714626312256,0,3,left_arm_joint3,upper,0.02511906623840332,right_arm_joint2,upper,4.76837158203125e-06,0.538937;0.894677;0.025119;0.384375;2.123946;1.151999;2.394471,0.150391;0.000005;1.078914;0.000121;0.182588;1.420732;0.002035,1,right
209,0.47167489994474215,125.29070259148239,0.1366302199762768,62.247736370385134,6.289993325481191e-05,0.22968162596225739,0.0,0.4285714626312256,0,3,left_arm_joint3,upper,0.025209426879882812,right_arm_joint2,upper,-1.5497207641601562e-06,0.539059;0.894647;0.025209;0.384361;2.124015;1.152057;2.394412,0.150230;-0.000002;1.078809;0.000105;0.182737;1.420553;0.001967,1,right
210,0.4716205774422361,125.31369353736685,0.13666186305453584,62.258109847856794,6.275517807807773e-05,0.22986015677452087,0.0,0.4285714626312256,0,3,left_arm_joint3,upper,0.02530050277709961,right_arm_joint2,upper,-1.9073486328125e-06,0.539180;0.894618;0.025301;0.384347;2.124084;1.152115;2.394355,0.150289;-0.000002;1.078822;0.000101;0.182676;1.420625;0.001985,1,right
211,0.4715551429439913,125.3074708996687,0.13665270448757014,62.2672742707958,6.341082917060703e-05,0.2298346757888794,0.0,0.4285714626312256,0,3,left_arm_joint3,upper,0.0253908634185791,right_arm_joint2,upper,-2.86102294921875e-06,0.539303;0.894588;0.025391;0.384333;2.124152;1.152174;2.394296,0.150283;-0.000003;1.079000;0.000075;0.182581;1.420605;0.001932,1,right
212,0.47157448044116207,125.26612616007219,0.13658100720162583,62.24876911753927,6.353003846015781e-05,0.2296404093503952,0.0,0.4285714626312256,0,3,left_arm_joint3,upper,0.0254824161529541,right_arm_joint2,upper,-1.1920928955078125e-06,0.539424;0.894558;0.025482;0.384318;2.124221;1.152232;2.394238,0.150300;-0.000001;1.078938;0.000095;0.182657;1.420500;0.001951,1,right
213,0.4716311927553993,125.24176017983187,0.13641218360767332,62.23230799181991,6.30361755611375e-05,0.229200080037117,0.0,0.4285714626312256,0,3,left_arm_joint3,upper,0.0255739688873291,right_arm_joint2,upper,-1.3113021850585938e-06,0.539548;0.894528;0.025574;0.384305;2.124290;1.152291;2.394182,0.150315;-0.000001;1.079069;0.000074;0.182520;1.420556;0.001961,1,right
214,0.47164603738922906,125.23603132102056,0.13639119091593463,62.26310929450515,6.364924774970859e-05,0.22920134663581848,0.0,0.4285714626312256,0,3,left_arm_joint3,upper,0.025664806365966797,right_arm_joint2,upper,1.6689300537109375e-06,0.539670;0.894498;0.025665;0.384291;2.124360;1.152350;2.394122,0.150368;0.000002;1.079043;0.000093;0.182578;1.420534;0.001987,1,right
215,0.47155780982758383,125.2372588336647,0.1363657015086649,62.25002169973969,6.367479363689199e-05,0.2291387915611267,0.0,0.4285714626312256,0,3,left_arm_joint3,upper,0.025757312774658203,right_arm_joint2,upper,4.887580871582031e-06,0.539793;0.894468;0.025757;0.384277;2.124429;1.152408;2.394063,0.150359;0.000005;1.079022;0.000113;0.182537;1.420529;0.002055,1,right
216,0.47154905558964116,125.22647749283053,0.13633891576140536,62.277482242119305,6.331716576823965e-05,0.22904157638549805,0.0,0.4285714626312256,0,3,left_arm_joint3,upper,0.025848388671875,right_arm_joint2,upper,7.271766662597656e-06,0.539916;0.894436;0.025848;0.384263;2.124499;1.152466;2.394007,0.150336;0.000007;1.078972;0.000122;0.182584;1.420608;0.002107,1,right
217,0.47152271180989286,125.27126165316099,0.13629651449615626,62.29110378150753,6.410053902072832e-05,0.22887463867664337,0.0,0.4285714626312256,0,3,left_arm_joint3,upper,0.02593994140625,right_arm_joint2,upper,3.5762786865234375e-07,0.540039;0.894407;0.025940;0.384248;2.124568;1.152526;2.393947,0.150210;0.000000;1.078844;0.000103;0.182693;1.420381;0.002058,1,right
218,0.4715395984770044,125.30381770948198,0.1362635605847328,62.292543571547505,6.435599061660469e-05,0.22886741161346436,0.0,0.4285714626312256,0,3,left_arm_joint3,upper,0.0260312557220459,right_arm_joint2,upper,1.1920928955078125e-06,0.540163;0.894376;0.026031;0.384234;2.124638;1.152585;2.393885,0.150256;0.000001;1.078861;0.000102;0.182628;1.420428;0.002067,1,right
219,0.47145438253564853,125.33882926572464,0.13605716284923305,62.3024445328319,6.350449257297441e-05,0.2284104973077774,0.0,0.4285714626312256,0,3,left_arm_joint3,upper,0.026123523712158203,right_arm_joint2,upper,2.7418136596679688e-06,0.540286;0.894345;0.026124;0.384220;2.124707;1.152643;2.393828,0.150426;0.000003;1.079171;0.000087;0.182468;1.420628;0.002002,1,right
220,0.47144547773186546,125.37492975811975,0.136000613174527,62.29484969521429,6.35896431049332e-05,0.22822636365890503,0.0,0.4285714626312256,0,3,left_arm_joint3,upper,0.026215791702270508,right_arm_joint2,upper,4.5299530029296875e-06,0.540410;0.894314;0.026216;0.384206;2.124778;1.152701;2.393772,0.150388;0.000005;1.079043;0.000108;0.182571;1.420511;0.001999,1,right
221,0.4713605388300899,125.4246264700414,0.13597197153283389,62.25096949490526,6.341082917060703e-05,0.22811073064804077,0.0,0.4285714626312256,0,3,left_arm_joint3,upper,0.02630782127380371,right_arm_joint2,upper,7.271766662597656e-06,0.540533;0.894285;0.026308;0.384192;2.124847;1.152760;2.393716,0.150359;0.000007;1.078964;0.000122;0.182580;1.420635;0.002063,1,right
222,0.47122365846135494,125.46693701467063,0.13590860907270672,62.17896283717624,6.472213135566562e-05,0.22781209647655487,0.0,0.4285714626312256,0,3,left_arm_joint3,upper,0.026399612426757812,right_arm_joint2,upper,0.0,0.540657;0.894254;0.026400;0.384177;2.124917;1.152820;2.393653,0.150235;0.000000;1.078830;0.000104;0.182697;1.420401;0.001991,1,right
223,0.47115543552678446,125.4590659343477,0.13578846990517093,62.15000097319327,6.439004937419668e-05,0.22770801186561584,0.0,0.4285714626312256,0,3,left_arm_joint3,upper,0.026492595672607422,right_arm_joint2,upper,9.5367431640625e-07,0.540781;0.894223;0.026493;0.384163;2.124987;1.152880;2.393596,0.150264;0.000001;1.078872;0.000101;0.182622;1.420355;0.002017,1,right
224,0.4712194320110214,125.43123196789244,0.13572858118688497,62.12833522158497,6.457737617893144e-05,0.22751572728157043,0.0,0.4285714626312256,0,3,left_arm_joint3,upper,0.02658367156982422,right_arm_joint2,upper,2.86102294921875e-06,0.540906;0.894192;0.026584;0.384149;2.125057;1.152941;2.393535,0.150421;0.000003;1.079103;0.000088;0.182492;1.420498;0.001991,1,right
225,0.47120268529211645,125.42730241278203,0.13576381739258983,62.10113458486103,6.433895759982988e-05,0.22759762406349182,0.0,0.4285714626312256,0,3,left_arm_joint3,upper,0.026676654815673828,right_arm_joint2,upper,6.079673767089844e-06,0.541030;0.894162;0.026677;0.384134;2.125127;1.153000;2.393476,0.150379;0.000006;1.079090;0.000108;0.182534;1.420427;0.002043,1,right
226,0.4712710187910025,125.43150751457281,0.1357914879732817,62.084474415143475,6.414311792468652e-05,0.22757571935653687,0.0,0.4285714626312256,0,3,left_arm_joint3,upper,0.02676987648010254,right_arm_joint2,upper,7.152557373046875e-06,0.541155;0.894131;0.026770;0.384120;2.125198;1.153057;2.393419,0.150313;0.000007;1.078968;0.000117;0.182545;1.420500;0.002123,1,right
227,0.4713020947299455,125.41131586424677,0.13585099174276066,62.12631397561528,6.447519990615547e-05,0.2277960330247879,0.0,0.4285714626312256,0,3,left_arm_joint3,upper,0.02686285972595215,right_arm_joint2,upper,5.245208740234375e-06,0.541278;0.894100;0.026863;0.384105;2.125269;1.153118;2.393360,0.150251;0.000005;1.078988;0.000104;0.182596;1.420237;0.002231,1,right
228,0.4713209295325531,125.36436030242474,0.1359392281973207,62.174914711570885,6.456886330852285e-05,0.22787635028362274,0.0,0.4285714626312256,0,3,left_arm_joint3,upper,0.026955366134643555,right_arm_joint2,upper,3.4570693969726562e-06,0.541403;0.894069;0.026955;0.384091;2.125339;1.153177;2.393300,0.150234;0.000003;1.078943;0.000104;0.182613;1.420250;0.002229,1,right
229,0.4714078928481591,125.34172590515347,0.1359742283546725,62.14893613365158,6.493500404758379e-05,0.22803473472595215,0.0,0.4285714626312256,0,3,left_arm_joint3,upper,0.027048110961914062,right_arm_joint2,upper,4.5299530029296875e-06,0.541528;0.894039;0.027048;0.384077;2.125409;1.153238;2.393240,0.150261;0.000005;1.078997;0.000104;0.182577;1.420256;0.002259,1,right
230,0.47135741429670036,125.32205512996892,0.13606307340606122,62.133393908196766,6.481579475803301e-05,0.22817625105381012,0.0,0.4285714626312256,0,3,left_arm_joint3,upper,0.027141332626342773,right_arm_joint2,upper,3.0994415283203125e-06,0.541654;0.894006;0.027141;0.384062;2.125480;1.153297;2.393181,0.150223;0.000003;1.078941;0.000104;0.182629;1.420251;0.002244,1,right
231,0.47138701863203814,125.31281761222976,0.1361777667473927,62.107248095485836,6.531817780341953e-05,0.22836846113204956,0.0,0.4285714626312256,0,3,left_arm_joint3,upper,0.027235031127929688,right_arm_joint2,upper,4.172325134277344e-06,0.541780;0.893977;0.027235;0.384048;2.125551;1.153357;2.393118,0.150254;0.000004;1.078976;0.000104;0.182594;1.420261;0.002257,1,right
232,0.47133953257891736,125.30974595624473,0.13625539778704956,62.10729062309939,6.494352419395e-05,0.22843599319458008,0.0,0.4285714626312256,0,3,left_arm_joint3,upper,0.027328014373779297,right_arm_joint2,upper,2.5033950805664062e-06,0.541905;0.893946;0.027328;0.384034;2.125622;1.153418;2.393059,0.150229;0.000003;1.078912;0.000103;0.182633;1.420290;0.002213,1,right
233,0.4713985965927235,125.32560400761882,0.13624257519677763,62.08041386548055,6.459440919570625e-05,0.22832335531711578,0.0,0.4285714626312256,0,3,left_arm_joint3,upper,0.027422666549682617,right_arm_joint2,upper,5.960464477539062e-07,0.542031;0.893914;0.027423;0.384019;2.125694;1.153476;2.393003,0.150232;0.000001;1.078887;0.000100;0.182633;1.420297;0.002152,1,right
234,0.4714375548354414,125.35237643460594,0.13616000089967278,62.0591651922297,6.576946907443926e-05,0.22825554013252258,0.0,0.4285714626312256,0,3,left_arm_joint3,upper,0.027515649795532227,right_arm_joint2,upper,1.1920928955078125e-07,0.542156;0.893883;0.027516;0.384005;2.125764;1.153537;2.392939,0.150301;0.000000;1.079017;0.000080;0.182526;1.420347;0.002098,1,right
235,0.47139662452691655,125.34351236364236,0.13615498703802845,62.06647819445984,6.455183029174805e-05,0.22817470133304596,0.0,0.4285714626312256,0,3,left_arm_joint3,upper,0.027609825134277344,right_arm_joint2,upper,3.337860107421875e-06,0.542282;0.893852;0.027610;0.383991;2.125836;1.153597;2.392883,0.150414;0.000003;1.079100;0.000093;0.182511;1.420523;0.002042,1,right
236,0.4713366148979788,125.31533039734428,0.13606850075248786,62.036753019067,6.528411904582754e-05,0.22807571291923523,0.0,0.4285714626312256,0,3,left_arm_joint3,upper,0.02770376205444336,right_arm_joint2,upper,5.9604644775390625e-06,0.542408;0.893821;0.027704;0.383976;2.125907;1.153657;2.392824,0.150398;0.000006;1.079056;0.000115;0.182550;1.420496;0.002034,1,right
237,0.4713834523030273,125.31626023847654,0.13612519202949483,61.9971016245069,6.605046655749902e-05,0.22829513251781464,0.0,0.4285714626312256,0,3,left_arm_joint3,upper,0.027797460556030273,right_arm_joint2,upper,7.62939453125e-06,0.542535;0.893789;0.027797;0.383960;2.125978;1.153718;2.392761,0.150357;0.000008;1.078965;0.000123;0.182574;1.420616;0.002068,1,right
238,0.4712512571143273,125.31527185423901,0.13614662400235356,61.9498035058231,6.543738709297031e-05,0.22819450497627258,0.0,0.4285714626312256,0,3,left_arm_joint3,upper,0.027891159057617188,right_arm_joint2,upper,-1.1920928955078125e-06,0.542661;0.893758;0.027891;0.383946;2.126050;1.153778;2.392701,0.150240;-0.000001;1.078819;0.000104;0.182717;1.420465;0.001970,1,right
239,0.4713151968421948,125.31272523110712,0.1362430907257233,61.943093938754195,6.55736293992959e-05,0.2284713089466095,0.0,0.4285714626312256,0,3,left_arm_joint3,upper,0.02798628807067871,right_arm_joint2,upper,-8.344650268554688e-07,0.542788;0.893726;0.027986;0.383932;2.126122;1.153837;2.392640,0.150273;-0.000001;1.078870;0.000094;0.182645;1.420433;0.001989,1,right
240,0.47130651791845024,125.33334389621909,0.13630357140789082,61.930567512852846,6.594828300876543e-05,0.22852984070777893,0.0,0.4285714626312256,0,3,left_arm_joint3,upper,0.02808094024658203,right_arm_joint2,upper,-2.384185791015625e-07,0.542915;0.893694;0.028081;0.383918;2.126194;1.153897;2.392579,0.150347;-0.000000;1.078966;0.000094;0.182606;1.420498;0.001957,1,right
241,0.4711479880118316,125.33921372595778,0.13634835707274415,61.94229202307652,6.586313247680664e-05,0.22858759760856628,0.0,0.4285714626312256,0,3,left_arm_joint3,upper,0.02817511558532715,right_arm_joint2,upper,4.0531158447265625e-06,0.543043;0.893663;0.028175;0.383903;2.126266;1.153959;2.392519,0.150487;0.000004;1.079190;0.000079;0.182417;1.420719;0.001979,1,right
242,0.4711069288240461,125.3097653495171,0.13632729642619865,61.99356195632868,6.588867836399004e-05,0.2284725308418274,0.0,0.4285714626312256,0,3,left_arm_joint3,upper,0.028270244598388672,right_arm_joint2,upper,4.0531158447265625e-06,0.543169;0.893632;0.028270;0.383888;2.126338;1.154021;2.392459,0.150430;0.000004;1.079126;0.000099;0.182525;1.420613;0.001952,1,right
243,0.4711119573407572,125.27183062151639,0.13634099521607407,62.04887151601711,6.651878356933594e-05,0.22840163111686707,0.0,0.4285714626312256,0,3,left_arm_joint3,upper,0.028365373611450195,right_arm_joint2,upper,4.76837158203125e-06,0.543297;0.893600;0.028365;0.383873;2.126410;1.154082;2.392398,0.150516;0.000005;1.079073;0.000110;0.182561;1.420832;0.001907,1,right
244,0.47119263547178114,125.26260595801904,0.13636382442534214,62.0659869474971,6.609303818549961e-05,0.22848528623580933,0.0,0.4285714626312256,0,3,left_arm_joint3,upper,0.02846050262451172,right_arm_joint2,upper,3.4570693969726562e-06,0.543425;0.893568;0.028461;0.383859;2.126483;1.154141;2.392336,0.150504;0.000003;1.079172;0.000083;0.182464;1.420785;0.001914,1,right
245,0.47119065489540485,125.24899562230542,0.13633852144926845,62.08183785812204,6.659542123088613e-05,0.22836211323738098,0.0,0.4285714626312256,0,3,left_arm_joint3,upper,0.02855706214904785,right_arm_joint2,upper,3.0994415283203125e-06,0.543553;0.893537;0.028557;0.383844;2.126555;1.154204;2.392274,0.150475;0.000003;1.079133;0.000094;0.182516;1.420734;0.001884,1,right
246,0.47125623876612577,125.23864914557997,0.1362865079379785,62.08526367435402,6.645066605415195e-05,0.2283598631620407,0.0,0.4285714626312256,0,3,left_arm_joint3,upper,0.02865147590637207,right_arm_joint2,upper,5.125999450683594e-06,0.543681;0.893504;0.028651;0.383829;2.126628;1.154265;2.392215,0.150491;0.000005;1.079099;0.000107;0.182557;1.420758;0.001886,1,right
247,0.47120828734800796,125.22282454926533,0.13637840224114495,62.06256945640044,6.621224747505039e-05,0.22853243350982666,0.0,0.4285714626312256,0,3,left_arm_joint3,upper,0.0287473201751709,right_arm_joint2,upper,5.0067901611328125e-06,0.543809;0.893473;0.028747;0.383815;2.126700;1.154325;2.392153,0.150481;0.000005;1.078950;0.000124;0.182570;1.420773;0.001915,1,right
248,0.47121297511623744,125.24231566988391,0.13639226846303512,62.07961563495729,6.659542123088613e-05,0.22868220508098602,0.0,0.4285714626312256,0,3,left_arm_joint3,upper,0.02884197235107422,right_arm_joint2,upper,6.198883056640625e-06,0.543937;0.893439;0.028842;0.383800;2.126773;1.154387;2.392092,0.150419;0.000006;1.078934;0.000122;0.182582;1.420752;0.001962,1,right
249,0.47123549557312816,125.29544592524398,0.13629434272232915,62.05873116922134,6.622928049182519e-05,0.22850728034973145,0.0,0.4285714626312256,0,3,left_arm_joint3,upper,0.028937339782714844,right_arm_joint2,upper,4.5299530029296875e-06,0.544066;0.893409;0.028937;0.383785;2.126846;1.154448;2.392032,0.150478;0.000005;1.079064;0.000109;0.182560;1.420781;0.001887,1,right
250,0.4711616472034692,125.33985243714494,0.13624796453370855,62.06482273709938,6.633145676460117e-05,0.22841385006904602,0.0,0.4285714626312256,0,3,left_arm_joint3,upper,0.029033660888671875,right_arm_joint2,upper,5.602836608886719e-06,0.544194;0.893377;0.029034;0.383770;2.126919;1.154509;2.391971,0.150420;0.000006;1.078910;0.000119;0.182608;1.420808;0.001984,1,right
251,0.4712051316822124,125.3426752042834,0.13609426780498435,62.08908557703655,6.714037590427324e-05,0.22812429070472717,0.0,0.4285714626312256,0,3,left_arm_joint3,upper,0.029129743576049805,right_arm_joint2,upper,4.172325134277344e-06,0.544322;0.893344;0.029130;0.383755;2.126992;1.154571;2.391908,0.150471;0.000004;1.078924;0.000122;0.182569;1.420816;0.001981,1,right
252,0.4711445246220003,125.34544618011537,0.13588951602976593,62.1005677190287,6.68082939228043e-05,0.22770006954669952,0.0,0.4285714626312256,0,3,left_arm_joint3,upper,0.029224395751953125,right_arm_joint2,upper,5.4836273193359375e-06,0.544452;0.893312;0.029224;0.383739;2.127064;1.154633;2.391848,0.150428;0.000005;1.078903;0.000120;0.182613;1.420814;0.001960,1,right
253,0.4710664148143067,125.32948256716018,0.1357769042193307,62.15367172185443,6.676572229480371e-05,0.22750860452651978,0.0,0.4285714626312256,0,3,left_arm_joint3,upper,0.02932119369506836,right_arm_joint2,upper,5.245208740234375e-06,0.544581;0.893280;0.029321;0.383725;2.127138;1.154694;2.391788,0.150460;0.000005;1.078908;0.000122;0.182562;1.420806;0.001981,1,right
254,0.4709855652886703,125.33745911527413,0.13560639529247756,62.21902937259469,6.710631714668125e-05,0.2269965410232544,0.0,0.4285714626312256,0,3,left_arm_joint3,upper,0.029418230056762695,right_arm_joint2,upper,5.364418029785156e-06,0.544710;0.893248;0.029418;0.383710;2.127211;1.154755;2.391726,0.150472;0.000005;1.078918;0.000123;0.182557;1.420761;0.001983,1,right
255,0.4709280598498891,125.32854881510151,0.13563437421489177,62.22904040441784,6.757464143447578e-05,0.2270338088274002,0.0,0.4285714626312256,0,3,left_arm_joint3,upper,0.029513835906982422,right_arm_joint2,upper,6.67572021484375e-06,0.544840;0.893216;0.029514;0.383696;2.127285;1.154818;2.391661,0.150433;0.000007;1.078920;0.000124;0.182571;1.420711;0.001969,1,right
256,0.4709327582586841,125.32119449184965,0.1356462079817375,62.24230420342867,6.663799285888672e-05,0.22688119113445282,0.0,0.4285714626312256,0,3,left_arm_joint3,upper,0.029610395431518555,right_arm_joint2,upper,-2.7418136596679688e-06,0.544969;0.893183;0.029610;0.383681;2.127358;1.154879;2.391603,0.150260;-0.000003;1.078855;0.000093;0.182715;1.420422;0.001902,1,right
257,0.4709001819883914,125.30451264753322,0.1354312200286017,62.25146010146708,6.783008575439453e-05,0.22672338783740997,0.0,0.4285714626312256,0,3,left_arm_joint3,upper,0.029708147048950195,right_arm_joint2,upper,3.2186508178710938e-06,0.545099;0.893150;0.029708;0.383666;2.127433;1.154941;2.391539,0.150431;0.000003;1.079088;0.000092;0.182493;1.420447;0.001924,1,right
258,0.4709447998548667,125.29892962088397,0.13552161300900045,62.286796534287966,6.758315430488437e-05,0.2267506718635559,0.0,0.4285714626312256,0,3,left_arm_joint3,upper,0.029804468154907227,right_arm_joint2,upper,5.4836273193359375e-06,0.545229;0.893117;0.029804;0.383651;2.127506;1.155003;2.391477,0.150388;0.000005;1.079100;0.000106;0.182505;1.420368;0.002017,1,right
259,0.47097828864347896,125.30432840746458,0.1355556334600072,62.28752517409728,6.719998054904863e-05,0.2267760932445526,0.0,0.4285714626312256,0,3,left_arm_joint3,upper,0.02990102767944336,right_arm_joint2,upper,7.867813110351562e-06,0.545359;0.893086;0.029901;0.383636;2.127580;1.155065;2.391415,0.150384;0.000008;1.078996;0.000122;0.182528;1.420440;0.002068,1,right
260,0.4709162807162554,125.26903618710796,0.1355888040873299,62.29611163687732,6.74469192745164e-05,0.22683016955852509,0.0,0.4285714626312256,0,3,left_arm_joint3,upper,0.0299985408782959,right_arm_joint2,upper,3.2186508178710938e-06,0.545490;0.893053;0.029999;0.383622;2.127654;1.155126;2.391353,0.150245;0.000003;1.078898;0.000108;0.182639;1.420260;0.002055,1,right
261,0.4709344880002013,125.26878145927658,0.13564428708579168,62.23642065063198,6.783860590076074e-05,0.22695060074329376,0.0,0.4285714626312256,0,3,left_arm_joint3,upper,0.03009510040283203,right_arm_joint2,upper,1.1920928955078125e-06,0.545619;0.893020;0.030095;0.383606;2.127728;1.155190;2.391291,0.150274;0.000001;1.078862;0.000104;0.182625;1.420388;0.002030,1,right
262,0.47090243221721884,125.26239015425688,0.1356380342664087,62.23231474902059,6.838356057414785e-05,0.22685487568378448,0.0,0.4285714626312256,0,3,left_arm_joint3,upper,0.030192852020263672,right_arm_joint2,upper,3.5762786865234375e-07,0.545751;0.892988;0.030193;0.383590;2.127802;1.155252;2.391226,0.150368;0.000000;1.079012;0.000082;0.182525;1.420443;0.001974,1,right
263,0.4709026316554816,125.25636504500945,0.1356668692427283,62.20025635614896,6.794929504394531e-05,0.22688616812229156,0.0,0.4285714626312256,0,3,left_arm_joint3,upper,0.03029012680053711,right_arm_joint2,upper,4.410743713378906e-06,0.545881;0.892954;0.030290;0.383575;2.127877;1.155314;2.391163,0.150512;0.000004;1.079169;0.000088;0.182479;1.420730;0.001943,1,right
264,0.4709282259585725,125.26071999835119,0.13569822964415573,62.226701945880464,6.725107232341543e-05,0.22686047852039337,0.0,0.4285714626312256,0,3,left_arm_joint3,upper,0.030388355255126953,right_arm_joint2,upper,3.6954879760742188e-06,0.546013;0.892922;0.030388;0.383560;2.127951;1.155376;2.391106,0.150422;0.000004;1.078979;0.000114;0.182574;1.420515;0.001915,1,right
265,0.47086302890771853,125.25564946341558,0.13574421127304112,62.24633256951303,6.845167808933184e-05,0.2269146889448166,0.0,0.4285714626312256,0,3,left_arm_joint3,upper,0.03048563003540039,right_arm_joint2,upper,6.318092346191406e-06,0.546144;0.892889;0.030486;0.383546;2.128026;1.155439;2.391040,0.150454;0.000006;1.078929;0.000123;0.182565;1.420801;0.001969,1,right
