gaolecheng/EgoVLA_Release/ik_debug/Push-Box_room_1_table_2_episode_('episode_51.hdf5', 0.01127)_0_ik_debug.csv
step,left_pos_err_m,left_rot_err_deg,right_pos_err_m,right_rot_err_deg,left_joint_track_err,right_joint_track_err,left_near_limit_ratio,right_near_limit_ratio,left_near_limit_count,right_near_limit_count,left_worst_joint,left_worst_side,left_min_margin_rad,right_worst_joint,right_worst_side,right_min_margin_rad,left_joint_margin_rad_list,right_joint_margin_rad_list,ik_ignore_orientation,ik_active_arm
0,0.3270503421499417,98.67555795845922,0.15324741628041738,112.16352555909288,4.287277261028066e-05,0.27231454849243164,0.1428571492433548,0.2857142984867096,1,2,left_arm_joint3,upper,0.008768796920776367,right_arm_joint4,lower,3.337860107421875e-06,0.516890;0.899923;0.008769;0.386903;2.111689;1.141426;2.393445,0.000653;0.010597;1.193223;0.000003;0.038744;0.012643;1.676898,1,right
1,0.32879685378238127,100.17314370762449,0.15731526098511608,120.3815166134625,4.282168083591387e-05,0.28907495737075806,0.1428571492433548,0.2857142984867096,1,2,left_arm_joint3,upper,0.008836030960083008,right_arm_joint4,lower,3.337860107421875e-06,0.516981;0.899902;0.008836;0.386892;2.111739;1.141471;2.393461,0.003444;0.028902;1.184355;0.000003;0.037508;0.049945;1.614049,1,right
2,0.33065055317175923,101.70908451801394,0.16024399830408825,106.19617349947472,4.283019734430127e-05,0.29743871092796326,0.1428571492433548,0.2857142984867096,1,2,left_arm_joint3,upper,0.008904218673706055,right_arm_joint4,lower,2.6226043701171875e-06,0.517073;0.899881;0.008904;0.386882;2.111790;1.141515;2.393476,0.008099;0.051223;1.171437;0.000003;0.037448;0.091321;1.543150,1,right
3,0.33160926352309994,102.72907669063291,0.1624405365315769,70.58017286832066,4.2796138586709276e-05,0.3027973175048828,0.1428571492433548,0.2857142984867096,1,2,left_arm_joint3,upper,0.008971691131591797,right_arm_joint4,lower,-2.1457672119140625e-06,0.517165;0.899861;0.008972;0.386872;2.111839;1.141559;2.393491,0.008925;0.078750;1.156135;-0.000002;0.036505;0.131754;1.466033,1,right
4,0.33307928222480626,103.38991398390483,0.16283157161810025,26.24158558998332,4.304307003621943e-05,0.30505961179733276,0.1428571492433548,0.2857142984867096,1,2,left_arm_joint3,upper,0.009039878845214844,right_arm_joint4,lower,-7.3909759521484375e-06,0.517256;0.899839;0.009040;0.386861;2.111890;1.141603;2.393506,0.001957;0.111473;1.143286;-0.000007;0.034367;0.170160;1.383933,1,right
5,0.333893987596697,104.07873663819021,0.16217278321911574,60.52596426877386,4.297495252103545e-05,0.30498090386390686,0.1428571492433548,0.2857142984867096,1,2,left_arm_joint3,upper,0.009107589721679688,right_arm_joint4,lower,-7.62939453125e-06,0.517348;0.899817;0.009108;0.386851;2.111940;1.141647;2.393522,0.000042;0.150530;1.122944;-0.000008;0.030205;0.204664;1.297168,1,right
6,0.3337100237358571,104.65380657181382,0.15937170343310408,178.89495520363764,4.319633808336221e-05,0.3001314699649811,0.1428571492433548,0.2857142984867096,1,2,left_arm_joint3,upper,0.009176254272460938,right_arm_joint4,lower,-3.814697265625e-06,0.517439;0.899796;0.009176;0.386840;2.111991;1.141691;2.393537,0.000217;0.195527;1.103924;-0.000004;0.026577;0.239195;1.207716,1,right
7,0.33412936634245644,105.14867010516666,0.1560932908940449,153.03228800162853,4.345178967923857e-05,0.2945127487182617,0.1428571492433548,0.2857142984867096,1,2,left_arm_joint3,upper,0.00924539566040039,right_arm_joint4,lower,-1.0967254638671875e-05,0.517531;0.899775;0.009245;0.386829;2.112042;1.141735;2.393553,0.000015;0.242467;1.082115;-0.000011;0.024179;0.273366;1.116424,1,right
8,0.33554875788299077,105.44467777010803,0.15377291707733953,138.46274923109914,4.308564530219883e-05,0.28877002000808716,0.1428571492433548,0.2857142984867096,1,2,left_arm_joint3,upper,0.009313106536865234,right_arm_joint4,lower,-1.1920928955078125e-05,0.517623;0.899754;0.009313;0.386819;2.112092;1.141780;2.393568,0.000011;0.287226;1.062772;-0.000012;0.023360;0.306847;1.023384,1,right
9,0.33566884762723576,105.434624363331,0.1514691475246286,124.86508134627209,4.334960976848379e-05,0.2839173972606659,0.1428571492433548,0.2857142984867096,1,2,left_arm_joint3,upper,0.00938105583190918,right_arm_joint4,lower,-9.298324584960938e-06,0.517716;0.899733;0.009381;0.386809;2.112143;1.141825;2.393583,0.000009;0.328587;1.040550;-0.000009;0.022418;0.329159;0.929271,1,right
10,0.33551408019688916,105.34802061156654,0.14907314224366108,106.62269151462074,4.3307034502504393e-05,0.28032323718070984,0.1428571492433548,0.2857142984867096,1,2,left_arm_joint3,upper,0.009450435638427734,right_arm_joint4,lower,-7.62939453125e-06,0.517809;0.899711;0.009450;0.386798;2.112194;1.141868;2.393598,0.000008;0.366774;1.018182;-0.000008;0.024597;0.348134;0.832910,1,right
11,0.3362095971720501,105.32642280306696,0.1479138731632984,104.49688620075844,4.350287781562656e-05,0.27827364206314087,0.1428571492433548,0.2857142984867096,1,2,left_arm_joint3,upper,0.009519577026367188,right_arm_joint4,lower,-4.76837158203125e-06,0.517901;0.899690;0.009520;0.386787;2.112245;1.141913;2.393613,0.000007;0.394001;1.001668;-0.000005;0.025396;0.362278;0.733475,1,right
12,0.337566898530711,105.40673132113919,0.14864045254891303,111.39710166587737,4.356248246040195e-05,0.2781393527984619,0.1428571492433548,0.2857142984867096,1,2,left_arm_joint3,upper,0.009588479995727539,right_arm_joint4,lower,-2.86102294921875e-06,0.517994;0.899668;0.009588;0.386777;2.112296;1.141958;2.393629,0.000009;0.403398;0.991148;-0.000003;0.025890;0.368737;0.632109,1,right
13,0.33866979763643773,105.61071212840044,0.14943468422255932,111.35399430377376,4.333258038968779e-05,0.2778191566467285,0.1428571492433548,0.2857142984867096,1,2,left_arm_joint3,upper,0.009656906127929688,right_arm_joint4,lower,-9.5367431640625e-07,0.518087;0.899647;0.009657;0.386767;2.112347;1.142003;2.393643,0.000008;0.404361;0.989021;-0.000001;0.025714;0.369812;0.529549,1,right
14,0.3392689032581983,105.77462020086296,0.1493977841482844,110.27674346693239,4.337515201768838e-05,0.27666470408439636,0.1428571492433548,0.2857142984867096,1,2,left_arm_joint3,upper,0.009726762771606445,right_arm_joint4,lower,-2.384185791015625e-07,0.518180;0.899625;0.009727;0.386757;2.112399;1.142046;2.393658,0.000007;0.411945;0.983233;-0.000000;0.025937;0.368441;0.427462,1,right
15,0.33997772790411124,105.9863038397629,0.14952871889296354,110.5684326138793,4.370723763713613e-05,0.2764471173286438,0.1428571492433548,0.2857142984867096,1,2,left_arm_joint3,upper,0.00979471206665039,right_arm_joint4,lower,2.384185791015625e-07,0.518273;0.899603;0.009795;0.386744;2.112450;1.142091;2.393672,0.000006;0.422063;0.974611;0.000000;0.027228;0.364459;0.325416,1,right
16,0.33978397606878685,106.13442535874883,0.15013890532980392,108.54827397820034,4.339218503446318e-05,0.27729353308677673,0.1428571492433548,0.2857142984867096,1,2,left_arm_joint3,upper,0.009863615036010742,right_arm_joint4,lower,4.76837158203125e-07,0.518366;0.899582;0.009864;0.386734;2.112501;1.142136;2.393686,0.000007;0.431210;0.966461;0.000000;0.027336;0.357794;0.223158,1,right
17,0.3395272712196903,106.26323377289977,0.15089678617525923,106.82366478516425,4.358802834758535e-05,0.2796640992164612,0.1428571492433548,0.2857142984867096,1,2,left_arm_joint3,upper,0.009932756423950195,right_arm_joint4,lower,0.0,0.518459;0.899561;0.009933;0.386724;2.112553;1.142182;2.393701,0.000006;0.438646;0.959000;0.000000;0.026536;0.351660;0.119665,1,right
18,0.3395821589484252,106.51346252594787,0.15192322549899845,107.16426374814117,4.3545453081605956e-05,0.2878935933113098,0.0,0.2857142984867096,0,2,left_arm_joint3,upper,0.010002374649047852,right_arm_joint4,lower,4.76837158203125e-07,0.518552;0.899538;0.010002;0.386713;2.112604;1.142225;2.393714,0.000004;0.448099;0.951329;0.000000;0.026500;0.347739;0.049332,1,right
19,0.3411480998488798,106.84789885887609,0.1539210439811526,110.52722932416825,4.3630603613564745e-05,0.29804784059524536,0.0,0.2857142984867096,0,2,left_arm_joint3,upper,0.010071992874145508,right_arm_joint4,lower,2.384185791015625e-07,0.518646;0.899518;0.010072;0.386703;2.112655;1.142270;2.393729,0.000002;0.459973;0.940659;0.000000;0.025279;0.340083;0.020332,1,right
20,0.3427651245935206,107.14921086720548,0.15534042854490254,114.99577786103227,4.4235162931727245e-05,0.3042583465576172,0.0,0.4285714626312256,0,3,left_arm_joint3,upper,0.010142087936401367,right_arm_joint4,lower,1.1920928955078125e-06,0.518740;0.899495;0.010142;0.386691;2.112707;1.142314;2.393745,0.000004;0.472776;0.928725;0.000001;0.023917;0.331659;0.008368,1,right
21,0.3440429426275089,107.43511592115955,0.15679434204904114,119.09999951937513,4.383495979709551e-05,0.3099290430545807,0.0,0.4285714626312256,0,3,left_arm_joint3,upper,0.010211467742919922,right_arm_joint4,lower,1.1920928955078125e-06,0.518834;0.899474;0.010211;0.386681;2.112759;1.142361;2.393759,0.000002;0.483187;0.918864;0.000001;0.024607;0.325301;0.003440,1,right
22,0.3454684596564894,107.62760268273453,0.15792049608835768,123.72176947808632,4.393713970785029e-05,0.31307870149612427,0.0,0.4285714626312256,0,3,left_arm_joint3,upper,0.010280609130859375,right_arm_joint4,lower,4.76837158203125e-07,0.518928;0.899452;0.010281;0.386670;2.112811;1.142406;2.393773,0.000004;0.491403;0.912331;0.000000;0.022417;0.315156;0.001409,1,right
23,0.34664212604212463,107.77730214040402,0.15947232317444382,127.53132633362459,4.39286268374417e-05,0.31765079498291016,0.0,0.4285714626312256,0,3,left_arm_joint3,upper,0.010351181030273438,right_arm_joint4,lower,4.76837158203125e-07,0.519022;0.899430;0.010351;0.386660;2.112862;1.142450;2.393788,0.000005;0.497101;0.906163;0.000000;0.022676;0.307766;0.000567,1,right
24,0.3478386501609043,107.98235326644365,0.16044644415142367,130.72406079095984,4.407337837619707e-05,0.3208436369895935,0.0,0.4285714626312256,0,3,left_arm_joint3,upper,0.010421514511108398,right_arm_joint4,lower,4.76837158203125e-07,0.519116;0.899407;0.010422;0.386649;2.112915;1.142494;2.393802,0.000286;0.499887;0.905411;0.000000;0.022265;0.300901;0.000208,1,right
25,0.34874489446820867,108.15713220355559,0.16117752811049257,132.9583320444006,4.4056348997401074e-05,0.3235049247741699,0.0,0.4285714626312256,0,3,left_arm_joint3,upper,0.010490894317626953,right_arm_joint4,lower,4.76837158203125e-07,0.519210;0.899386;0.010491;0.386638;2.112966;1.142541;2.393816,0.000004;0.503613;0.901449;0.000000;0.021721;0.294395;0.000089,1,right
26,0.34990519631834555,108.27206854748916,0.1619837532603174,134.92565513554777,4.4524673285195604e-05,0.3265528678894043,0.0,0.4285714626312256,0,3,left_arm_joint3,upper,0.010561227798461914,right_arm_joint4,lower,7.152557373046875e-07,0.519305;0.899363;0.010561;0.386627;2.113019;1.142586;2.393832,0.000005;0.510595;0.895867;0.000001;0.020774;0.289515;0.000034,1,right
27,0.3509613084172141,108.39203088691221,0.16254429105238463,136.33072581674026,4.4005260861013085e-05,0.32925450801849365,0.0,0.4285714626312256,0,3,left_arm_joint3,upper,0.010631799697875977,right_arm_joint4,lower,4.76837158203125e-07,0.519400;0.899342;0.010632;0.386616;2.113071;1.142631;2.393846,0.000005;0.514807;0.891783;0.000000;0.020432;0.286210;0.000013,1,right
28,0.35132014368101355,108.514190990443,0.16314138657199015,136.909896650065,4.440546399564482e-05,0.3312090039253235,0.0,0.4285714626312256,0,3,left_arm_joint3,upper,0.010701179504394531,right_arm_joint7,lower,0.0,0.519494;0.899320;0.010701;0.386605;2.113123;1.142677;2.393861,0.000389;0.517678;0.889211;0.000001;0.019922;0.283076;0.000000,1,right
29,0.3516589451417519,108.54756442002723,0.1633400796206501,137.33495404113776,4.427773819770664e-05,0.332577109336853,0.0,0.4285714626312256,0,3,left_arm_joint3,upper,0.010771751403808594,right_arm_joint1,lower,-8.106231689453125e-06,0.519589;0.899298;0.010772;0.386595;2.113175;1.142722;2.393876,-0.000008;0.519667;0.885354;0.000000;0.018996;0.279911;-0.000000,1,right
30,0.3520144436056049,108.58556431218784,0.1634085457221401,138.06784714998653,4.456724491319619e-05,0.33331382274627686,0.0,0.4285714626312256,0,3,left_arm_joint3,upper,0.010842323303222656,right_arm_joint4,lower,2.384185791015625e-06,0.519684;0.899276;0.010842;0.386584;2.113227;1.142769;2.393891,0.000008;0.519565;0.883258;0.000002;0.018256;0.278779;0.000004,1,right
31,0.352645865019967,108.63442801452571,0.16378453040066343,139.65186830035884,4.403931961860508e-05,0.33373120427131653,0.0,0.4285714626312256,0,3,left_arm_joint3,upper,0.010912656784057617,right_arm_joint7,lower,4.76837158203125e-07,0.519779;0.899254;0.010913;0.386573;2.113280;1.142812;2.393904,0.000008;0.519746;0.883120;0.000002;0.018512;0.278672;0.000000,1,right
32,0.3534582165343449,108.6273430908235,0.1641633633550292,141.14306046049956,4.459279080037959e-05,0.3337308168411255,0.0,0.4285714626312256,0,3,left_arm_joint3,upper,0.010982751846313477,right_arm_joint7,lower,-2.384185791015625e-07,0.519874;0.899233;0.010983;0.386562;2.113331;1.142861;2.393919,0.000007;0.518698;0.883466;0.000002;0.018888;0.276329;-0.000000,1,right
33,0.35399435001490753,108.54831457577147,0.1648809879265348,142.22350522393052,4.446506864042021e-05,0.3344457447528839,0.0,0.4285714626312256,0,3,left_arm_joint3,upper,0.011054277420043945,right_arm_joint7,lower,2.384185791015625e-07,0.519970;0.899210;0.011054;0.386551;2.113384;1.142905;2.393933,0.000008;0.517328;0.883863;0.000002;0.019767;0.273012;0.000000,1,right
34,0.35455157548195704,108.47467374243871,0.16540495467235344,143.23226484347524,4.478012124309316e-05,0.3353835344314575,0.0,0.4285714626312256,0,3,left_arm_joint3,upper,0.011125802993774414,right_arm_joint7,lower,9.5367431640625e-07,0.520065;0.899188;0.011126;0.386541;2.113438;1.142951;2.393947,0.000008;0.515106;0.884704;0.000001;0.019846;0.269280;0.000001,1,right
35,0.3548712531224636,108.45205898106347,0.1659374877140694,144.0749173657772,4.467794133233838e-05,0.3369067907333374,0.0,0.4285714626312256,0,3,left_arm_joint3,upper,0.011196613311767578,right_arm_joint7,lower,9.5367431640625e-07,0.520161;0.899164;0.011197;0.386529;2.113491;1.142995;2.393961,0.000029;0.512115;0.885480;0.000003;0.018899;0.265331;0.000001,1,right
36,0.3551426232525238,108.42696775457355,0.1663531091227255,144.8258330585538,4.485675526666455e-05,0.33849862217903137,0.0,0.4285714626312256,0,3,left_arm_joint3,upper,0.011267423629760742,right_arm_joint1,lower,-5.0067901611328125e-06,0.520257;0.899142;0.011267;0.386518;2.113543;1.143042;2.393976,-0.000005;0.512623;0.885027;0.000002;0.020061;0.264491;0.000003,1,right
37,0.3554688860600159,108.4568719786697,0.1669954323142238,145.72451689801966,4.4873784645460546e-05,0.3400435745716095,0.0,0.4285714626312256,0,3,left_arm_joint3,upper,0.011338233947753906,right_arm_joint4,lower,1.9073486328125e-06,0.520353;0.899120;0.011338;0.386508;2.113596;1.143089;2.393991,0.000005;0.514179;0.883524;0.000002;0.020125;0.262966;0.000008,1,right
38,0.355723128179184,108.44293342042326,0.1672462333911512,146.34057711226342,4.4984477426623926e-05,0.34160909056663513,0.0,0.4285714626312256,0,3,left_arm_joint3,upper,0.011409759521484375,right_arm_joint7,lower,-2.384185791015625e-07,0.520448;0.899097;0.011410;0.386496;2.113649;1.143135;2.394005,0.000001;0.511511;0.885578;0.000002;0.019447;0.263032;-0.000000,1,right
39,0.35593978058056136,108.45308405567357,0.16757393517328245,146.79516122351492,4.500151044339873e-05,0.34199872612953186,0.0,0.4285714626312256,0,3,left_arm_joint3,upper,0.011481046676635742,right_arm_joint1,lower,2.384185791015625e-07,0.520545;0.899075;0.011481;0.386485;2.113702;1.143181;2.394019,0.000000;0.512571;0.884285;0.000002;0.019385;0.263328;0.000006,1,right
40,0.35594865995685154,108.42199413826837,0.1683668397846384,146.64661384848765,4.488230115384795e-05,0.343445748090744,0.0,0.4285714626312256,0,3,left_arm_joint3,upper,0.011552572250366211,right_arm_joint4,lower,3.0994415283203125e-06,0.520641;0.899053;0.011553;0.386475;2.113755;1.143227;2.394035,0.000007;0.512175;0.884172;0.000003;0.019531;0.262239;0.000012,1,right
41,0.3559899967655061,108.37919185724414,0.16843900206395857,146.72093751336268,4.494190579862334e-05,0.3445466160774231,0.0,0.4285714626312256,0,3,left_arm_joint3,upper,0.011624574661254883,right_arm_joint1,lower,-5.245208740234375e-06,0.520737;0.899031;0.011625;0.386464;2.113808;1.143273;2.394049,-0.000005;0.511912;0.885146;0.000004;0.019838;0.264407;-0.000000,1,right
42,0.3559305462997491,108.43545578740388,0.1685462050465212,147.30645100171932,4.5589040382765234e-05,0.3433332145214081,0.0,0.4285714626312256,0,3,left_arm_joint3,upper,0.011696100234985352,right_arm_joint1,lower,-1.1920928955078125e-06,0.520834;0.899008;0.011696;0.386452;2.113862;1.143320;2.394064,-0.000001;0.512729;0.884543;0.000001;0.019666;0.263401;-0.000000,1,right
43,0.35587627137539163,108.64097454644244,0.16914094844404873,148.5355096833133,4.502705269260332e-05,0.34390008449554443,0.0,0.4285714626312256,0,3,left_arm_joint3,upper,0.011767864227294922,right_arm_joint1,lower,-2.1457672119140625e-06,0.520931;0.898985;0.011768;0.386441;2.113916;1.143365;2.394078,-0.000002;0.510941;0.885501;0.000002;0.019575;0.260886;0.000000,1,right
44,0.35571919929614626,108.85274991060196,0.17031166824583555,149.96325407472918,4.522289600572549e-05,0.3446313738822937,0.0,0.4285714626312256,0,3,left_arm_joint3,upper,0.011839151382446289,right_arm_joint4,lower,2.1457672119140625e-06,0.521028;0.898963;0.011839;0.386430;2.113969;1.143412;2.394094,0.000005;0.512308;0.883739;0.000002;0.020915;0.255404;0.000013,1,right
45,0.3554687938458157,109.07039659478681,0.17140654510574327,151.2235497465956,4.525695840129629e-05,0.34713318943977356,0.0,0.4285714626312256,0,3,left_arm_joint3,upper,0.011911630630493164,right_arm_joint4,lower,9.5367431640625e-07,0.521124;0.898940;0.011912;0.386419;2.114022;1.143460;2.394107,0.000004;0.512991;0.883380;0.000001;0.022518;0.252616;0.000006,1,right
46,0.35518966450306877,109.29183590638293,0.17191458051766423,152.6496472821067,4.522289600572549e-05,0.34769779443740845,0.0,0.4285714626312256,0,3,left_arm_joint3,upper,0.011983156204223633,right_arm_joint7,lower,7.152557373046875e-07,0.521221;0.898918;0.011983;0.386409;2.114076;1.143506;2.394122,0.000077;0.509191;0.884532;0.000001;0.020705;0.245617;0.000001,1,right
47,0.3549424782722741,109.48786313905512,0.1722063821585545,153.54088284252896,4.511220322456211e-05,0.3490072786808014,0.0,0.4285714626312256,0,3,left_arm_joint3,upper,0.012055158615112305,right_arm_joint1,lower,-5.245208740234375e-06,0.521318;0.898896;0.012055;0.386398;2.114128;1.143552;2.394137,-0.000005;0.509864;0.884278;0.000002;0.022451;0.243661;0.000001,1,right
48,0.3547549529505944,109.62835778798255,0.17175906539574504,154.90434774621372,4.532507591648027e-05,0.3480677902698517,0.0,0.4285714626312256,0,3,left_arm_joint3,upper,0.01212763786315918,right_arm_joint1,lower,7.152557373046875e-07,0.521415;0.898872;0.012128;0.386386;2.114183;1.143599;2.394148,0.000001;0.512494;0.882495;0.000002;0.021869;0.239486;0.000005,1,right
49,0.354498355720618,109.88805511940433,0.17174534528791313,156.09925712797406,4.568270378513262e-05,0.34956657886505127,0.0,0.4285714626312256,0,3,left_arm_joint3,upper,0.012200117111206055,right_arm_joint4,lower,1.430511474609375e-06,0.521512;0.898849;0.012200;0.386374;2.114237;1.143645;2.394164,0.000002;0.516587;0.879624;0.000001;0.022364;0.240121;0.000005,1,right
50,0.3540065241393044,110.11407162514243,0.17183926734236177,156.54539247807702,4.5393197069643065e-05,0.34912383556365967,0.0,0.4285714626312256,0,3,left_arm_joint3,upper,0.012273073196411133,right_arm_joint1,lower,-3.337860107421875e-06,0.521611;0.898827;0.012273;0.386365;2.114291;1.143691;2.394178,-0.000003;0.513500;0.880888;0.000001;0.021722;0.236828;0.000001,1,right
51,0.35350851586858756,110.3478608966094,0.17295098455980618,156.8828681401972,4.604033165378496e-05,0.35059240460395813,0.0,0.4285714626312256,0,3,left_arm_joint3,upper,0.012344837188720703,right_arm_joint1,lower,-1.430511474609375e-06,0.521708;0.898804;0.012345;0.386352;2.114345;1.143739;2.394195,-0.000001;0.512476;0.881168;0.000001;0.022254;0.233924;0.000003,1,right
52,0.35308491402259096,110.61635188157514,0.17422146505611796,157.33042958832246,4.563161564874463e-05,0.3527154326438904,0.0,0.4285714626312256,0,3,left_arm_joint3,upper,0.012418270111083984,right_arm_joint1,lower,-4.5299530029296875e-06,0.521806;0.898781;0.012418;0.386342;2.114399;1.143785;2.394209,-0.000005;0.509915;0.882288;0.000001;0.021523;0.229570;0.000004,1,right
53,0.3525187944473813,110.7553807411892,0.17535403858286203,157.60122322358603,4.577637082547881e-05,0.3544522225856781,0.0,0.4285714626312256,0,3,left_arm_joint3,upper,0.012490510940551758,right_arm_joint7,lower,-2.384185791015625e-07,0.521904;0.898757;0.012491;0.386331;2.114453;1.143831;2.394224,0.000350;0.506458;0.884895;0.000001;0.020454;0.224928;-0.000000,1,right
54,0.35200367013262296,110.81435828020524,0.17607789798810877,157.9289821907953,4.5963697630213574e-05,0.35517504811286926,0.0,0.4285714626312256,0,3,left_arm_joint3,upper,0.012563467025756836,right_arm_joint4,lower,7.152557373046875e-07,0.522002;0.898736;0.012563;0.386319;2.114506;1.143880;2.394239,0.000001;0.511290;0.881348;0.000001;0.021990;0.220335;0.000012,1,right
55,0.35180478917425073,110.9229080633164,0.17636372733837788,158.3678698477503,4.575082493829541e-05,0.35683804750442505,0.0,0.4285714626312256,0,3,left_arm_joint3,upper,0.012636899948120117,right_arm_joint1,lower,-1.7642974853515625e-05,0.522100;0.898712;0.012637;0.386307;2.114561;1.143927;2.394250,-0.000018;0.517587;0.875845;0.000004;0.021547;0.216201;0.000005,1,right
56,0.35166017759564355,110.97534720942579,0.17611440604785394,159.5663430757013,4.612548218574375e-05,0.3566146194934845,0.0,0.4285714626312256,0,3,left_arm_joint3,upper,0.012710332870483398,right_arm_joint4,lower,1.6689300537109375e-06,0.522199;0.898688;0.012710;0.386296;2.114616;1.143974;2.394265,0.000003;0.531738;0.867300;0.000002;0.021123;0.210471;0.000010,1,right
57,0.3517113125466023,111.04413321697348,0.17506216028841184,160.61886547129237,4.6432021918008104e-05,0.3577662408351898,0.0,0.4285714626312256,0,3,left_arm_joint3,upper,0.012783527374267578,right_arm_joint4,lower,1.6689300537109375e-06,0.522298;0.898665;0.012784;0.386285;2.114671;1.144021;2.394280,0.000002;0.542405;0.859812;0.000002;0.021001;0.208222;0.000012,1,right
58,0.35208584319510206,111.16108168353274,0.17359778381957705,161.7123354631193,4.626172085409053e-05,0.35766929388046265,0.0,0.4285714626312256,0,3,left_arm_joint3,upper,0.012857437133789062,right_arm_joint1,lower,-3.814697265625e-06,0.522398;0.898642;0.012857;0.386274;2.114726;1.144069;2.394295,-0.000004;0.549991;0.853094;0.000004;0.020452;0.207973;0.000004,1,right
59,0.35243745801192694,111.27182197546256,0.17189827060601207,162.16766478880646,4.6457564167212695e-05,0.355913370847702,0.0,0.4285714626312256,0,3,left_arm_joint3,upper,0.012930870056152344,right_arm_joint4,lower,2.1457672119140625e-06,0.522497;0.898620;0.012931;0.386262;2.114780;1.144117;2.394310,0.000003;0.570795;0.840518;0.000002;0.020447;0.209622;0.000009,1,right
60,0.3527624786070374,111.16304638133954,0.17038977951751916,162.97314046896454,4.618508683051914e-05,0.35615962743759155,0.0,0.4285714626312256,0,3,left_arm_joint3,upper,0.013004064559936523,right_arm_joint1,lower,-4.0531158447265625e-06,0.522596;0.898596;0.013004;0.386251;2.114835;1.144165;2.394324,-0.000004;0.587143;0.830877;0.000002;0.021249;0.214880;-0.000001,1,right
61,0.35311329154515,111.39473765568228,0.17002044337268712,163.9342877135172,4.623617496690713e-05,0.3567405045032501,0.0,0.4285714626312256,0,3,left_arm_joint3,upper,0.013078689575195312,right_arm_joint4,lower,2.6226043701171875e-06,0.522695;0.898573;0.013079;0.386240;2.114890;1.144213;2.394336,0.000005;0.598901;0.822661;0.000003;0.021824;0.215899;0.000010,1,right
62,0.35327413059298424,111.60748438978867,0.16958799606608954,163.96760520670057,4.5512406359193847e-05,0.3573395311832428,0.0,0.4285714626312256,0,3,left_arm_joint3,upper,0.013151407241821289,right_arm_joint1,lower,-9.775161743164062e-06,0.522794;0.898549;0.013151;0.386228;2.114945;1.144260;2.394345,-0.000010;0.609888;0.816182;0.000003;0.023304;0.218599;0.000005,1,right
63,0.3533925224400344,111.70380973764941,0.17011850857563074,164.02612144864744,4.6576773456763476e-05,0.35867971181869507,0.0,0.4285714626312256,0,3,left_arm_joint3,upper,0.013225793838500977,right_arm_joint4,lower,2.86102294921875e-06,0.522894;0.898526;0.013226;0.386217;2.115000;1.144308;2.394360,0.000007;0.615696;0.811545;0.000003;0.023160;0.217040;0.000013,1,right
64,0.35342906230426835,111.98206184976722,0.17063867942856906,163.45584949512022,4.638093014364131e-05,0.3604733645915985,0.0,0.4285714626312256,0,3,left_arm_joint3,upper,0.013299942016601562,right_arm_joint1,lower,-3.337860107421875e-06,0.522993;0.898503;0.013300;0.386206;2.115055;1.144357;2.394373,-0.000003;0.625066;0.806139;0.000002;0.024069;0.216949;0.000003,1,right
65,0.35343929956467796,112.06651439354842,0.17032043861877946,163.51513830627076,4.6466080675600097e-05,0.3611467480659485,0.0,0.4285714626312256,0,3,left_arm_joint3,upper,0.01337432861328125,right_arm_joint7,lower,2.384185791015625e-07,0.523094;0.898479;0.013374;0.386194;2.115111;1.144404;2.394385,0.000842;0.632398;0.800523;0.000003;0.022993;0.216899;0.000000,1,right
66,0.35337466985598676,112.18967842242081,0.1697658025344886,163.65288128935808,4.637241727323271e-05,0.3611360788345337,0.0,0.4285714626312256,0,3,left_arm_joint3,upper,0.013448476791381836,right_arm_joint7,lower,-4.76837158203125e-07,0.523194;0.898456;0.013448;0.386183;2.115166;1.144451;2.394398,0.000837;0.644132;0.793056;0.000003;0.024740;0.217469;-0.000000,1,right
67,0.35363144886025816,112.38025856337961,0.1677250354244898,163.9718856887496,4.701103534898721e-05,0.36102572083473206,0.0,0.4285714626312256,0,3,left_arm_joint3,upper,0.013522624969482422,right_arm_joint1,lower,2.6226043701171875e-06,0.523295;0.898433;0.013523;0.386171;2.115222;1.144501;2.394412,0.000003;0.658096;0.782922;0.000004;0.025361;0.222407;0.000005,1,right
68,0.35428924620096747,112.54478029548989,0.1657935238089513,164.77458447157875,4.6917371946619824e-05,0.35956519842147827,0.0,0.4285714626312256,0,3,left_arm_joint3,upper,0.013598442077636719,right_arm_joint7,lower,-4.76837158203125e-07,0.523395;0.898408;0.013598;0.386160;2.115278;1.144547;2.394427,0.000250;0.670931;0.775562;0.000004;0.025772;0.230028;-0.000000,1,right
69,0.35511942464462926,112.71405982225689,0.16369688637046215,165.83347797879995,4.6866283810231835e-05,0.3562864661216736,0.0,0.4285714626312256,0,3,left_arm_joint3,upper,0.013671875,right_arm_joint1,lower,-7.62939453125e-06,0.523495;0.898385;0.013672;0.386147;2.115333;1.144597;2.394441,-0.000008;0.681830;0.768129;0.000003;0.026475;0.236214;0.000001,1,right
70,0.35585347989568156,112.97523308982869,0.16055432517365006,166.88789796431686,4.690885907621123e-05,0.351840078830719,0.0,0.4285714626312256,0,3,left_arm_joint3,upper,0.013747930526733398,right_arm_joint1,lower,-1.049041748046875e-05,0.523596;0.898361;0.013748;0.386137;2.115389;1.144644;2.394455,-0.000010;0.693511;0.760131;0.000007;0.026812;0.244002;0.000005,1,right
71,0.3565974501188505,113.24572663163373,0.1576768613727139,168.04661809879187,4.696846372098662e-05,0.34536153078079224,0.0,0.4285714626312256,0,3,left_arm_joint3,upper,0.013822317123413086,right_arm_joint7,lower,-2.384185791015625e-07,0.523697;0.898337;0.013822;0.386124;2.115444;1.144692;2.394467,0.000691;0.707031;0.753284;0.000003;0.027355;0.251186;-0.000000,1,right
72,0.3571853712704107,113.23421122341726,0.1560317551349052,168.63715281929456,4.700252247857861e-05,0.3422442674636841,0.0,0.4285714626312256,0,3,left_arm_joint3,upper,0.01389765739440918,right_arm_joint7,lower,4.76837158203125e-07,0.523798;0.898312;0.013898;0.386113;2.115501;1.144740;2.394481,0.000859;0.712300;0.748163;0.000004;0.027267;0.255137;0.000000,1,right
73,0.3575271659229245,113.08495173124356,0.15503658200363551,168.90520287807374,4.6781133278273046e-05,0.3391672670841217,0.0,0.4285714626312256,0,3,left_arm_joint3,upper,0.013972043991088867,right_arm_joint7,lower,7.152557373046875e-07,0.523899;0.898291;0.013972;0.386102;2.115557;1.144789;2.394495,0.001518;0.721433;0.742936;0.000003;0.027219;0.257620;0.000001,1,right
74,0.35761674454787656,112.8598870821763,0.15388668546072007,169.18787914014405,4.711321525974199e-05,0.3366756737232208,0.0,0.4285714626312256,0,3,left_arm_joint3,upper,0.014047384262084961,right_arm_joint7,lower,7.152557373046875e-07,0.523999;0.898266;0.014047;0.386091;2.115613;1.144837;2.394509,0.000051;0.729738;0.736915;0.000004;0.027065;0.257352;0.000001,1,right
75,0.35779163597161007,112.70504863508876,0.1527740401287754,169.72207633559384,4.673004514188506e-05,0.33508676290512085,0.0,0.4285714626312256,0,3,left_arm_joint3,upper,0.014121770858764648,right_arm_joint1,lower,-9.298324584960938e-06,0.524100;0.898242;0.014122;0.386079;2.115669;1.144886;2.394520,-0.000009;0.737335;0.731767;0.000008;0.027760;0.257755;0.000003,1,right
76,0.3576458066987461,112.59956939842255,0.1520228875192023,170.44908202490106,4.711321525974199e-05,0.3331691324710846,0.0,0.4285714626312256,0,3,left_arm_joint3,upper,0.014197587966918945,right_arm_joint7,lower,-2.384185791015625e-07,0.524202;0.898217;0.014198;0.386068;2.115725;1.144933;2.394534,0.001602;0.742946;0.728615;0.000005;0.027580;0.258135;-0.000000,1,right
77,0.35749301193146454,112.52066125022236,0.15096286579470744,170.9423683673159,4.763262768392451e-05,0.331171452999115,0.0,0.4285714626312256,0,3,left_arm_joint3,upper,0.014272928237915039,right_arm_joint7,lower,-4.76837158203125e-07,0.524303;0.898195;0.014273;0.386055;2.115781;1.144983;2.394548,0.002575;0.750893;0.724073;0.000004;0.027951;0.258169;-0.000000,1,right
78,0.3576056282338238,112.48791447069078,0.1500416779336715,171.3310545955168,4.754747715196572e-05,0.32997414469718933,0.0,0.4285714626312256,0,3,left_arm_joint3,upper,0.014348745346069336,right_arm_joint1,lower,1.9073486328125e-06,0.524405;0.898170;0.014349;0.386044;2.115838;1.145033;2.394562,0.000002;0.760755;0.715276;0.000003;0.027064;0.255122;0.000007,1,right
79,0.3576956087057257,112.4741460928668,0.14927629629596395,171.81136222022002,4.717281990451738e-05,0.32853400707244873,0.0,0.4285714626312256,0,3,left_arm_joint3,upper,0.014424324035644531,right_arm_joint7,lower,7.152557373046875e-07,0.524507;0.898146;0.014424;0.386033;2.115895;1.145080;2.394575,0.000980;0.767397;0.711325;0.000004;0.027186;0.253833;0.000001,1,right
80,0.35755273961983935,112.51290289984553,0.1479159507472501,172.35593972308791,4.737717972602695e-05,0.32657474279403687,0.0,0.4285714626312256,0,3,left_arm_joint3,upper,0.014499425888061523,right_arm_joint7,lower,2.384185791015625e-07,0.524609;0.898122;0.014499;0.386021;2.115950;1.145130;2.394588,0.000026;0.777168;0.704893;0.000004;0.027263;0.252769;0.000000,1,right
81,0.3576202998436874,112.55480949305354,0.1462825317413626,172.82055666077457,4.764965706272051e-05,0.3233880400657654,0.0,0.4285714626312256,0,3,left_arm_joint3,upper,0.014576196670532227,right_arm_joint7,lower,2.384185791015625e-07,0.524711;0.898098;0.014576;0.386009;2.116007;1.145178;2.394602,0.000111;0.783430;0.701238;0.000003;0.027292;0.252268;0.000000,1,right
82,0.35760486621505067,112.49528910366246,0.14563049848578088,172.98926293614176,4.7615598305128515e-05,0.32072174549102783,0.0,0.4285714626312256,0,3,left_arm_joint3,upper,0.01465153694152832,right_arm_joint7,lower,2.384185791015625e-07,0.524813;0.898074;0.014652;0.385997;2.116064;1.145228;2.394615,0.001709;0.785759;0.698060;0.000004;0.026567;0.248330;0.000000,1,right
83,0.3574655292825429,112.41476341564673,0.14537822187724386,173.0173080320213,4.736866321763955e-05,0.3193722665309906,0.0,0.4285714626312256,0,3,left_arm_joint3,upper,0.014727115631103516,right_arm_joint7,lower,2.384185791015625e-07,0.524915;0.898050;0.014727;0.385986;2.116120;1.145276;2.394628,0.003318;0.793885;0.694102;0.000004;0.026530;0.244561;0.000000,1,right
84,0.35773087028876827,112.2936792605123,0.14618240374244038,172.76913625507888,4.7871046263026074e-05,0.32167524099349976,0.0,0.4285714626312256,0,3,left_arm_joint3,upper,0.014802694320678711,right_arm_joint1,lower,-5.7220458984375e-06,0.525018;0.898026;0.014803;0.385974;2.116177;1.145325;2.394645,-0.000006;0.801049;0.687279;0.000004;0.027061;0.236573;0.000002,1,right
85,0.3580826768156747,112.16871483428264,0.14739071867286677,172.87015146738227,4.792213803739287e-05,0.32379260659217834,0.0,0.4285714626312256,0,3,left_arm_joint3,upper,0.014879703521728516,right_arm_joint7,lower,-2.384185791015625e-07,0.525120;0.898001;0.014880;0.385962;2.116234;1.145374;2.394657,0.004912;0.799989;0.688419;0.000004;0.027053;0.231404;-0.000000,1,right
86,0.35828762410618514,112.10744796660543,0.14810729636979247,173.00509813005243,4.7675202949903905e-05,0.32766208052635193,0.0,0.4285714626312256,0,3,left_arm_joint3,upper,0.014955282211303711,right_arm_joint7,lower,2.384185791015625e-07,0.525223;0.897977;0.014955;0.385951;2.116291;1.145423;2.394672,0.001445;0.809428;0.679049;0.000004;0.026435;0.224978;0.000000,1,right
87,0.35839999102854125,112.0360154257035,0.14911470891969023,173.07255594598692,4.804134732694365e-05,0.32983243465423584,0.0,0.4285714626312256,0,3,left_arm_joint3,upper,0.015032291412353516,right_arm_joint7,lower,2.384185791015625e-07,0.525325;0.897953;0.015032;0.385939;2.116347;1.145473;2.394686,0.007119;0.815347;0.676785;0.000005;0.026619;0.222501;0.000000,1,right
88,0.35846689422337946,111.92757463521599,0.15006957379875344,172.87486776590833,4.781144161825068e-05,0.33236822485923767,0.0,0.4285714626312256,0,3,left_arm_joint3,upper,0.015108346939086914,right_arm_joint7,lower,2.384185791015625e-07,0.525428;0.897928;0.015108;0.385927;2.116405;1.145522;2.394699,0.007015;0.824583;0.669883;0.000004;0.026022;0.216928;0.000000,1,right
89,0.35839120260902296,111.81204355956731,0.1513403372252477,172.89602168979786,4.7990255552576855e-05,0.335346519947052,0.0,0.4285714626312256,0,3,left_arm_joint3,upper,0.015184640884399414,right_arm_joint7,lower,4.76837158203125e-07,0.525531;0.897903;0.015185;0.385915;2.116462;1.145571;2.394713,0.008365;0.834370;0.663500;0.000004;0.025541;0.211265;0.000000,1,right
90,0.3581819052532221,111.6304051154286,0.15302073635275917,173.36991158142956,4.791362152900547e-05,0.3386000692844391,0.0,0.4285714626312256,0,3,left_arm_joint3,upper,0.015260934829711914,right_arm_joint7,lower,2.384185791015625e-07,0.525635;0.897880;0.015261;0.385903;2.116519;1.145622;2.394725,0.009496;0.844455;0.656616;0.000003;0.025487;0.203112;0.000000,1,right
91,0.35758033812884477,111.36999432873202,0.15557116646491576,174.16236848967426,4.803283081855625e-05,0.3433549106121063,0.0,0.2857142984867096,0,2,left_arm_joint3,upper,0.015337944030761719,right_arm_joint7,lower,-4.76837158203125e-07,0.525738;0.897856;0.015338;0.385892;2.116577;1.145670;2.394740,0.010205;0.856816;0.647089;0.000004;0.025726;0.192620;-0.000000,1,right
92,0.35703443784230077,111.08133057822036,0.1584597020811924,175.4483167549933,4.8109464842127636e-05,0.34788960218429565,0.0,0.2857142984867096,0,2,left_arm_joint3,upper,0.015415191650390625,right_arm_joint7,lower,2.384185791015625e-07,0.525841;0.897830;0.015415;0.385879;2.116634;1.145720;2.394750,0.011511;0.872050;0.637045;0.000005;0.025823;0.177931;0.000000,1,right
93,0.35635571579777453,110.76108033781053,0.16171494896947944,177.20019763535288,4.822016126126982e-05,0.35438814759254456,0.0,0.2857142984867096,0,2,left_arm_joint3,upper,0.01549220085144043,right_arm_joint7,lower,2.384185791015625e-07,0.525946;0.897806;0.015492;0.385868;2.116692;1.145770;2.394763,0.013013;0.887488;0.626638;0.000005;0.026477;0.160362;0.000000,1,right
94,0.3558428460628704,110.42919619551192,0.1655980600369514,178.90666299103813,4.8509667976759374e-05,0.3635091483592987,0.0,0.2857142984867096,0,2,left_arm_joint3,upper,0.015569686889648438,right_arm_joint7,lower,4.76837158203125e-07,0.526049;0.897782;0.015570;0.385856;2.116749;1.145820;2.394778,0.014475;0.902582;0.617040;0.000005;0.026972;0.141164;0.000000,1,right
95,0.3558900464582462,110.22632922166144,0.1683753339667606,178.528363947281,4.757302303914912e-05,0.3725567162036896,0.0,0.2857142984867096,0,2,left_arm_joint3,upper,0.015647172927856445,right_arm_joint7,lower,-3.0994415283203125e-06,0.526153;0.897757;0.015647;0.385844;2.116807;1.145868;2.394786,0.017408;0.916965;0.609097;0.000005;0.027481;0.124756;-0.000003,1,right
96,0.35599342456338867,110.10440819964901,0.17030897941071466,175.7240916486953,4.841600457439199e-05,0.38070324063301086,0.0,0.2857142984867096,0,2,left_arm_joint3,upper,0.015723466873168945,right_arm_joint7,lower,-4.5299530029296875e-06,0.526257;0.897731;0.015723;0.385832;2.116865;1.145920;2.394799,0.022149;0.928898;0.603842;0.000003;0.027260;0.112717;-0.000005,1,right
97,0.35636553190517845,110.03176430731656,0.16976132210968695,173.282686619161,4.822016126126982e-05,0.38666847348213196,0.0,0.2857142984867096,0,2,left_arm_joint3,upper,0.01580047607421875,right_arm_joint7,lower,-4.76837158203125e-07,0.526361;0.897709;0.015800;0.385820;2.116923;1.145970;2.394813,0.021140;0.937722;0.598375;0.000003;0.025875;0.106688;-0.000000,1,right
98,0.35660497048984063,110.05268680687819,0.16832253532016633,171.5869075677569,4.861184788751416e-05,0.38736972212791443,0.0,0.2857142984867096,0,2,left_arm_joint3,upper,0.015878677368164062,right_arm_joint7,lower,0.0,0.526465;0.897683;0.015879;0.385808;2.116981;1.146019;2.394827,0.021747;0.944998;0.593126;0.000003;0.025044;0.106985;0.000000,1,right
99,0.3568446019965915,110.07802011405961,0.16729101609163718,170.40006706607227,4.817758599529043e-05,0.3863178789615631,0.0,0.2857142984867096,0,2,left_arm_joint3,upper,0.01595616340637207,right_arm_joint7,lower,-1.6689300537109375e-06,0.526570;0.897659;0.015956;0.385797;2.117039;1.146068;2.394838,0.023068;0.953430;0.588126;0.000003;0.024831;0.109654;-0.000002,1,right
100,0.35668436507322304,110.13881925178407,0.16701037330553892,169.84714929641135,4.9088685045717284e-05,0.38561904430389404,0.0,0.2857142984867096,0,2,left_arm_joint3,upper,0.01603388786315918,right_arm_joint7,lower,-2.1457672119140625e-06,0.526675;0.897633;0.016034;0.385784;2.117097;1.146119;2.394852,0.024544;0.959630;0.584157;0.000004;0.024412;0.111579;-0.000002,1,right
101,0.35643667894490233,110.17359300331961,0.1673468031227156,169.62171418870787,4.8577789129922166e-05,0.38578537106513977,0.0,0.2857142984867096,0,2,left_arm_joint3,upper,0.01611185073852539,right_arm_joint7,lower,-7.152557373046875e-07,0.526779;0.897609;0.016112;0.385772;2.117155;1.146170;2.394865,0.024272;0.966836;0.580000;0.000003;0.024113;0.111999;-0.000001,1,right
102,0.3562585398411228,110.16799805749254,0.16926741142922566,169.6579781587962,4.885026646661572e-05,0.3889216184616089,0.0,0.2857142984867096,0,2,left_arm_joint3,upper,0.0161895751953125,right_arm_joint7,lower,2.384185791015625e-07,0.526885;0.897584;0.016190;0.385760;2.117214;1.146220;2.394876,0.024715;0.972987;0.575882;0.000003;0.023367;0.110093;0.000000,1,right
103,0.3562250898584421,110.14470199595401,0.17203300416482634,169.5306038852562,4.878214531345293e-05,0.39302289485931396,0.0,0.2857142984867096,0,2,left_arm_joint3,upper,0.016268253326416016,right_arm_joint7,lower,2.384185791015625e-07,0.526990;0.897559;0.016268;0.385749;2.117272;1.146271;2.394889,0.028285;0.977353;0.576169;0.000003;0.023330;0.106042;0.000000,1,right
104,0.3559621293651487,110.03602222578444,0.17460746282537637,169.4838591403768,4.9003534513758495e-05,0.397492915391922,0.0,0.2857142984867096,0,2,left_arm_joint3,upper,0.016346454620361328,right_arm_joint7,lower,-2.384185791015625e-07,0.527095;0.897534;0.016346;0.385736;2.117331;1.146321;2.394902,0.035358;0.976697;0.580414;0.000003;0.022290;0.100084;-0.000000,1,right
105,0.35573705366397784,109.90472357238346,0.17621753598462586,169.2753609483168,4.893541699857451e-05,0.4029732644557953,0.0,0.2857142984867096,0,2,left_arm_joint3,upper,0.01642465591430664,right_arm_joint7,lower,4.76837158203125e-07,0.527200;0.897509;0.016425;0.385724;2.117389;1.146371;2.394917,0.039587;0.980451;0.579203;0.000003;0.022397;0.095462;0.000000,1,right
106,0.35563958722970435,109.83406945451827,0.1770203613429103,169.13191517942184,4.916531906928867e-05,0.40605026483535767,0.0,0.2857142984867096,0,2,left_arm_joint3,upper,0.016503334045410156,right_arm_joint7,lower,7.152557373046875e-07,0.527305;0.897484;0.016503;0.385712;2.117448;1.146422;2.394930,0.041661;0.987782;0.576838;0.000005;0.022367;0.091877;0.000001,1,right
107,0.3558879503637229,109.75332427787566,0.17666343850075905,168.50062917316907,4.913126031169668e-05,0.4074166715145111,0.0,0.2857142984867096,0,2,left_arm_joint3,upper,0.01658177375793457,right_arm_joint7,lower,-3.337860107421875e-06,0.527411;0.897458;0.016582;0.385700;2.117506;1.146472;2.394944,0.041848;0.995859;0.572077;0.000005;0.023145;0.089930;-0.000003,1,right
108,0.3560083235290856,109.68588007091662,0.1744966359835431,167.18345110705542,4.942928353557363e-05,0.406975120306015,0.0,0.2857142984867096,0,2,left_arm_joint3,upper,0.01665949821472168,right_arm_joint7,lower,-2.384185791015625e-07,0.527516;0.897433;0.016659;0.385687;2.117564;1.146524;2.394958,0.043048;1.006880;0.566077;0.000005;0.022674;0.095245;-0.000000,1,right
109,0.3558822251007248,109.65276270639531,0.17225406745036537,166.1849935419324,4.8952446377370507e-05,0.4031214118003845,0.0,0.2857142984867096,0,2,left_arm_joint3,upper,0.016737937927246094,right_arm_joint7,lower,-5.245208740234375e-06,0.527623;0.897407;0.016738;0.385675;2.117624;1.146574;2.394969,0.047100;1.016470;0.564368;0.000005;0.022630;0.103209;-0.000005,1,right
110,0.3556075435918754,109.63809009380151,0.170285733648929,165.4930923583031,4.9378191761206836e-05,0.39663979411125183,0.0,0.2857142984867096,0,2,left_arm_joint3,upper,0.016817092895507812,right_arm_joint7,lower,-6.67572021484375e-06,0.527728;0.897382;0.016817;0.385664;2.117683;1.146623;2.394985,0.056418;1.023180;0.567423;0.000005;0.022941;0.110128;-0.000007,1,right
111,0.35526564137478356,109.5881326608216,0.16971568952327798,164.86589296383096,4.9582551582716405e-05,0.39251822233200073,0.0,0.2857142984867096,0,2,left_arm_joint3,upper,0.016896486282348633,right_arm_joint7,lower,-7.3909759521484375e-06,0.527834;0.897357;0.016896;0.385651;2.117742;1.146674;2.394999,0.069200;1.025699;0.574238;0.000005;0.023498;0.113047;-0.000007,1,right
112,0.35491582477689193,109.50813134786834,0.1703251037387207,164.33265288607555,4.934413300361484e-05,0.3926403820514679,0.0,0.2857142984867096,0,2,left_arm_joint3,upper,0.01697516441345215,right_arm_joint7,lower,-7.867813110351562e-06,0.527941;0.897333;0.016975;0.385639;2.117801;1.146726;2.395013,0.082394;1.028550;0.580158;0.000005;0.024613;0.112404;-0.000008,1,right
113,0.35418231923456506,109.47036613647403,0.17231302459366843,164.03658229048324,4.938670826959424e-05,0.3944876790046692,0.0,0.2857142984867096,0,2,left_arm_joint3,upper,0.01705455780029297,right_arm_joint7,lower,-6.67572021484375e-06,0.528047;0.897307;0.017055;0.385627;2.117860;1.146776;2.395025,0.096790;1.034751;0.585898;0.000005;0.025308;0.106385;-0.000007,1,right
114,0.35351110786324824,109.37705048727277,0.17443985961812314,163.3745253357759,4.974433613824658e-05,0.39643555879592896,0.0,0.2857142984867096,0,2,left_arm_joint3,upper,0.01713275909423828,right_arm_joint7,lower,-6.198883056640625e-06,0.528153;0.897281;0.017133;0.385615;2.117920;1.146828;2.395039,0.116187;1.044173;0.592380;0.000007;0.025498;0.095458;-0.000006,1,right
115,0.3533690911063343,109.23497213114781,0.17660770084176483,161.2949781853883,4.927601185045205e-05,0.39832252264022827,0.0,0.2857142984867096,0,2,left_arm_joint3,upper,0.017212390899658203,right_arm_joint7,lower,4.76837158203125e-07,0.528260;0.897256;0.017212;0.385603;2.117980;1.146878;2.395051,0.142807;1.066959;0.598887;0.000008;0.026141;0.080208;0.000000,1,right
116,0.353102716913646,109.09549076983367,0.1779539249970907,157.44992551680573,4.96251268486958e-05,0.3977988660335541,0.0,0.2857142984867096,0,2,left_arm_joint3,upper,0.01729273796081543,right_arm_joint7,lower,1.430511474609375e-06,0.528367;0.897231;0.017293;0.385591;2.118039;1.146929;2.395062,0.184374;1.108369;0.618955;0.000007;0.026100;0.061722;0.000001,1,right
117,0.3526226733590026,108.85861267052253,0.17848582037536007,151.93036937552148,5.017008152208291e-05,0.39798861742019653,0.0,0.2857142984867096,0,2,left_arm_joint3,upper,0.017370939254760742,right_arm_joint7,lower,0.0,0.528475;0.897206;0.017371;0.385578;2.118098;1.146983;2.395078,0.242458;1.164678;0.654953;0.000002;0.022018;0.037035;0.000000,1,right
118,0.35206456722451845,108.64596147213811,0.1773956223221343,146.46494056942367,5.011047687730752e-05,0.4043131470680237,0.0,0.2857142984867096,0,2,left_arm_joint3,upper,0.017451047897338867,right_arm_joint7,lower,1.1920928955078125e-06,0.528582;0.897179;0.017451;0.385566;2.118158;1.147032;2.395092,0.308079;1.228778;0.701005;0.000721;0.013915;0.015143;0.000001,1,right
119,0.35131817924341,108.49149917568998,0.1743664531422164,142.47042598083348,5.017859803047031e-05,0.41537171602249146,0.0,0.5714285969734192,0,4,left_arm_joint3,upper,0.017531156539916992,right_arm_joint7,lower,7.152557373046875e-07,0.528688;0.897153;0.017531;0.385553;2.118218;1.147084;2.395108,0.377481;1.297862;0.758741;0.004483;0.009220;0.005964;0.000001,1,right
120,0.349580772481329,108.45715245820709,0.17219066237698527,139.39228296151816,5.032335320720449e-05,0.4317375421524048,0.0,0.4285714626312256,0,3,left_arm_joint3,upper,0.017611265182495117,right_arm_joint7,lower,4.76837158203125e-06,0.528796;0.897128;0.017611;0.385541;2.118278;1.147134;2.395123,0.455520;1.362700;0.808727;0.010984;0.006825;0.008936;0.000005,1,right
121,0.3487502947330803,108.44218080224843,0.1706302082261951,136.94053286526884,5.0587314035510644e-05,0.43792060017585754,0.0,0.2857142984867096,0,2,left_arm_joint3,upper,0.017691373825073242,right_arm_joint7,lower,4.76837158203125e-07,0.528904;0.897103;0.017691;0.385529;2.118339;1.147187;2.395140,0.533047;1.428813;0.846726;0.021230;0.005021;0.011073;0.000000,1,right
122,0.3484325066114641,108.39260334827652,0.16983104224550208,135.49877702196787,5.014453927287832e-05,0.44050413370132446,0.0,0.2857142984867096,0,2,left_arm_joint3,upper,0.017771244049072266,right_arm_joint7,lower,5.4836273193359375e-06,0.529012;0.897077;0.017771;0.385516;2.118398;1.147238;2.395154,0.603189;1.500867;0.882850;0.030708;0.004251;0.010408;0.000005,1,right
123,0.34860018377577134,108.42917004314496,0.16866465727220728,135.78453321259173,5.072355634183623e-05,0.4429667890071869,0.0,0.4285714626312256,0,3,left_arm_joint3,upper,0.017851829528808594,right_arm_joint7,lower,6.9141387939453125e-06,0.529121;0.897052;0.017852;0.385504;2.118458;1.147290;2.395169,0.651260;1.575414;0.903697;0.037825;0.004473;0.008870;0.000007,1,right
124,0.34883898733754226,108.4506647939045,0.1672959116178642,137.2201390485183,5.017859803047031e-05,0.4471287131309509,0.0,0.4285714626312256,0,3,left_arm_joint3,upper,0.01793217658996582,right_arm_joint7,lower,-2.384185791015625e-07,0.529229;0.897025;0.017932;0.385492;2.118519;1.147342;2.395181,0.650788;1.645145;0.890851;0.042093;0.004109;0.009928;-0.000000,1,right
125,0.34938642119408253,108.43180112527965,0.16689829746869367,139.14065517568463,5.017859803047031e-05,0.44638049602508545,0.0,0.2857142984867096,0,2,left_arm_joint3,upper,0.01801300048828125,right_arm_joint7,lower,2.6226043701171875e-06,0.529337;0.896999;0.018013;0.385479;2.118579;1.147394;2.395193,0.599256;1.711546;0.843889;0.038629;0.001859;0.017221;0.000003,1,right
126,0.34994498515210715,108.3436622367159,0.16699590828840027,140.44613313914803,5.096197492093779e-05,0.4265405833721161,0.0,0.2857142984867096,0,2,left_arm_joint3,upper,0.01809382438659668,right_arm_joint7,lower,-2.384185791015625e-07,0.529446;0.896972;0.018094;0.385466;2.118640;1.147446;2.395208,0.567286;1.775284;0.818006;0.035496;0.000165;0.019283;-0.000000,1,right
127,0.35060321861430793,108.18662826796786,0.16760120562694938,141.88427449453633,5.066395169706084e-05,0.4112913906574249,0.0,0.2857142984867096,0,2,left_arm_joint3,upper,0.01817464828491211,right_arm_joint7,lower,7.3909759521484375e-06,0.529554;0.896947;0.018175;0.385454;2.118700;1.147498;2.395223,0.539140;1.730561;0.801135;0.028306;0.000022;0.023543;0.000007,1,right
128,0.35081471208303955,108.03804591379225,0.16813395530010708,142.67377644337,4.942076702718623e-05,0.39424270391464233,0.0,0.2857142984867096,0,2,left_arm_joint3,upper,0.018255949020385742,right_arm_joint7,lower,1.1920928955078125e-06,0.529663;0.896921;0.018256;0.385442;2.118761;1.147550;2.395227,0.595957;1.667027;0.866866;0.023230;0.000081;0.026342;0.000001,1,right
129,0.35020599484776016,107.8290812034389,0.1682718168195663,143.88933366293568,5.0485137762734666e-05,0.3970903158187866,0.0,0.2857142984867096,0,2,left_arm_joint3,upper,0.01833629608154297,right_arm_joint7,lower,1.6689300537109375e-06,0.529772;0.896895;0.018336;0.385429;2.118822;1.147602;2.395240,0.657982;1.593737;0.937662;0.018735;0.000003;0.028594;0.000002,1,right
130,0.3500140010410249,107.62155836447381,0.1666564812405438,144.94978071937115,5.020414391765371e-05,0.3949201703071594,0.0,0.2857142984867096,0,2,left_arm_joint3,upper,0.0184171199798584,right_arm_joint7,lower,3.337860107421875e-06,0.529881;0.896869;0.018417;0.385417;2.118882;1.147654;2.395252,0.687643;1.519335;0.966511;0.017131;0.003315;0.030543;0.000003,1,right
131,0.3502023793409043,107.55097496529653,0.1652138675880002,146.2261571932545,5.1259998144814745e-05,0.3665787875652313,0.0,0.2857142984867096,0,2,left_arm_joint3,upper,0.018499374389648438,right_arm_joint7,lower,4.0531158447265625e-06,0.529991;0.896842;0.018499;0.385404;2.118944;1.147706;2.395266,0.680791;1.443719;0.952438;0.016956;0.004555;0.029338;0.000004,1,right
132,0.35076700859430826,107.41974688876397,0.16359297634318568,147.59334546278433,5.103009243612178e-05,0.32932794094085693,0.0,0.2857142984867096,0,2,left_arm_joint3,upper,0.01858043670654297,right_arm_joint7,lower,2.1457672119140625e-06,0.530101;0.896817;0.018580;0.385393;2.119005;1.147759;2.395280,0.677331;1.368475;0.943601;0.016802;0.004941;0.032421;0.000002,1,right
133,0.35171416098780295,107.39133376450702,0.16317788553987303,149.4613721743599,5.0732069212244824e-05,0.2997484803199768,0.0,0.2857142984867096,0,2,left_arm_joint3,upper,0.0186617374420166,right_arm_joint7,lower,9.5367431640625e-07,0.530210;0.896790;0.018662;0.385379;2.119066;1.147813;2.395290,0.687325;1.291049;0.953696;0.016558;0.004852;0.037947;0.000001,1,right
134,0.3527495898816986,107.30407530784026,0.16520359429297254,150.99471063584608,5.127702752361074e-05,0.28044500946998596,0.0,0.2857142984867096,0,2,left_arm_joint3,upper,0.018744230270385742,right_arm_joint7,lower,6.198883056640625e-06,0.530319;0.896764;0.018744;0.385367;2.119128;1.147864;2.395305,0.711193;1.207646;0.979742;0.015447;0.003832;0.037430;0.000006,1,right
135,0.3537924031973744,106.93662073077103,0.16636338924256114,152.95301125572976,5.101306305732578e-05,0.26847001910209656,0.0,0.2857142984867096,0,2,left_arm_joint3,upper,0.018825292587280273,right_arm_joint7,lower,5.0067901611328125e-06,0.530430;0.896738;0.018825;0.385354;2.119189;1.147918;2.395317,0.742159;1.120037;1.013052;0.014096;0.001985;0.034405;0.000005,1,right
136,0.35483216707430465,106.48288093422553,0.16335124328574874,155.22239821016555,5.108118421048857e-05,0.2543136179447174,0.0,0.2857142984867096,0,2,left_arm_joint3,upper,0.018906831741333008,right_arm_joint7,lower,9.5367431640625e-07,0.530540;0.896712;0.018907;0.385341;2.119251;1.147969;2.395330,0.770404;1.032275;1.042196;0.013516;0.000343;0.032731;0.000001,1,right
137,0.3561203138340349,106.35507883000062,0.15986528235694103,157.649777987831,5.0732069212244824e-05,0.23760084807872772,0.0,0.2857142984867096,0,2,left_arm_joint3,upper,0.018988847732543945,right_arm_joint7,lower,2.1457672119140625e-06,0.530650;0.896685;0.018989;0.385328;2.119312;1.148022;2.395339,0.791276;0.944561;1.064713;0.012412;0.000017;0.029068;0.000002,1,right
138,0.3571523480378763,106.2401865509424,0.15702231299633204,159.5826242389583,5.1600592996692285e-05,0.22415383160114288,0.0,0.2857142984867096,0,2,left_arm_joint3,upper,0.019071102142333984,right_arm_joint7,lower,0.0,0.530760;0.896658;0.019071;0.385316;2.119374;1.148075;2.395355,0.812328;0.858383;1.085592;0.010733;0.000011;0.026982;0.000000,1,right
139,0.3577912898540921,106.41080268987558,0.1547502343399703,161.07722010292068,5.1166331104468554e-05,0.21172776818275452,0.0,0.4285714626312256,0,3,left_arm_joint3,upper,0.019154071807861328,right_arm_joint5,lower,-1.1920928955078125e-06,0.530871;0.896631;0.019154;0.385303;2.119436;1.148127;2.395366,0.826139;0.776401;1.103198;0.008353;-0.000001;0.025471;0.000000,1,right
140,0.3581932510525206,106.30641791562971,0.15281674926425615,162.09119898644747,5.183901157579385e-05,0.19963297247886658,0.0,0.4285714626312256,0,3,left_arm_joint3,upper,0.01923513412475586,right_arm_joint5,lower,-5.0067901611328125e-05,0.530982;0.896604;0.019235;0.385290;2.119497;1.148182;2.395381,0.835983;0.699638;1.117359;0.004893;-0.000050;0.024278;0.000002,1,right
141,0.35832702999131294,106.22428409429055,0.1506514482437026,163.4719029672445,5.15239589731209e-05,0.18681474030017853,0.0,0.4285714626312256,0,3,left_arm_joint3,upper,0.019318103790283203,right_arm_joint5,lower,-5.984306335449219e-05,0.531093;0.896579;0.019318;0.385278;2.119559;1.148234;2.395396,0.836160;0.630546;1.130831;0.000922;-0.000060;0.024673;0.000006,1,right
142,0.35873155280395247,106.02913048520648,0.14816899319634969,164.2406213833647,5.173683530301787e-05,0.1752052903175354,0.0,0.4285714626312256,0,3,left_arm_joint3,upper,0.01940011978149414,right_arm_joint4,lower,-6.198883056640625e-06,0.531203;0.896551;0.019400;0.385265;2.119621;1.148288;2.395408,0.838302;0.569694;1.137423;-0.000006;0.000009;0.028351;0.000000,1,right
143,0.3591727993633859,106.04946511494772,0.14662236921741853,165.07367869651833,5.184752808418125e-05,0.16809028387069702,0.0,0.4285714626312256,0,3,left_arm_joint3,upper,0.01948404312133789,right_arm_joint4,lower,-1.1205673217773438e-05,0.531314;0.896525;0.019484;0.385253;2.119683;1.148340;2.395423,0.843647;0.515040;1.142438;-0.000011;0.000017;0.030049;0.000001,1,right
144,0.360308700776805,106.15210782138723,0.14610689941640523,166.16583212486432,5.1924162107752636e-05,0.16251274943351746,0.0,0.4285714626312256,0,3,left_arm_joint3,upper,0.019565582275390625,right_arm_joint4,lower,-9.775161743164062e-06,0.531426;0.896499;0.019566;0.385240;2.119745;1.148394;2.395438,0.848210;0.466398;1.145662;-0.000010;0.000019;0.032115;0.000002,1,right
145,0.3617161350218743,106.24014509019027,0.14551744723138973,167.71275269611874,5.193267861614004e-05,0.15999571979045868,0.0,0.4285714626312256,0,3,left_arm_joint3,upper,0.019649028778076172,right_arm_joint4,lower,-7.867813110351562e-06,0.531537;0.896471;0.019649;0.385227;2.119807;1.148447;2.395452,0.852584;0.422518;1.149389;-0.000008;0.000016;0.033135;0.006682,1,right
146,0.3633601102795145,106.27665895060224,0.14565910110877647,169.11390560148547,5.142177906236611e-05,0.15774938464164734,0.0,0.2857142984867096,0,2,left_arm_joint3,upper,0.019732236862182617,right_arm_joint4,lower,-1.1920928955078125e-05,0.531649;0.896444;0.019732;0.385214;2.119870;1.148499;2.395462,0.856069;0.382843;1.153849;-0.000012;0.000022;0.034076;0.019817,1,right
147,0.36542461596074993,106.38055647350131,0.14699389727526177,171.08790173425933,5.1370690925978124e-05,0.15569183230400085,0.0,0.2857142984867096,0,2,left_arm_joint3,upper,0.019814491271972656,right_arm_joint4,lower,-1.1444091796875e-05,0.531761;0.896418;0.019814;0.385201;2.119932;1.148553;2.395472,0.860299;0.346293;1.159069;-0.000011;0.000057;0.035998;0.038845,1,right
148,0.3671760124994242,106.49485883330398,0.14836186477275412,173.64905215377829,5.08683078805916e-05,0.1529703140258789,0.0,0.2857142984867096,0,2,left_arm_joint3,upper,0.019897937774658203,right_arm_joint4,lower,-1.049041748046875e-05,0.531872;0.896390;0.019898;0.385188;2.119996;1.148607;2.395476,0.868691;0.311615;1.173773;-0.000010;0.000021;0.037282;0.062845,1,right
149,0.36897267436133624,106.6266516098875,0.14972455658917289,176.08864640017637,5.100454654893838e-05,0.1480148583650589,0.0,0.2857142984867096,0,2,left_arm_joint3,upper,0.01998114585876465,right_arm_joint4,lower,-1.4066696166992188e-05,0.531984;0.896363;0.019981;0.385176;2.120058;1.148660;2.395483,0.866953;0.279207;1.185637;-0.000014;0.000031;0.040529;0.090469,1,right
150,0.3703906997051591,106.80199083467579,0.15221660804317727,178.15657617907482,5.171128941583447e-05,0.14537915587425232,0.0,0.2857142984867096,0,2,left_arm_joint3,upper,0.020064115524291992,right_arm_joint4,lower,-1.5735626220703125e-05,0.532096;0.896337;0.020064;0.385163;2.120120;1.148715;2.395494,0.866616;0.249177;1.190139;-0.000016;0.000032;0.042926;0.123312,1,right
151,0.3718459968079109,106.96253186247014,0.15430248912180347,179.743878430826,5.203485852689482e-05,0.14430157840251923,0.0,0.2857142984867096,0,2,left_arm_joint3,upper,0.020148038864135742,right_arm_joint4,lower,-1.52587890625e-05,0.532208;0.896309;0.020148;0.385150;2.120183;1.148767;2.395505,0.867457;0.220892;1.192722;-0.000015;0.000367;0.044477;0.160619,1,right
152,0.3730092328371123,107.0798757621375,0.1557382690043796,177.34201750459187,5.255427095107734e-05,0.14294621348381042,0.0,0.2857142984867096,0,2,left_arm_joint3,upper,0.020231246948242188,right_arm_joint4,lower,-1.4543533325195312e-05,0.532320;0.896282;0.020231;0.385137;2.120246;1.148823;2.395520,0.867668;0.193929;1.195048;-0.000015;0.000859;0.045705;0.201957,1,right
153,0.3738244032540332,106.82868934268977,0.15666163656370613,168.97886651635596,5.1200393500039354e-05,0.1411830186843872,0.0,0.2857142984867096,0,2,left_arm_joint3,upper,0.020314455032348633,right_arm_joint4,lower,-1.4066696166992188e-05,0.532433;0.896255;0.020314;0.385123;2.120308;1.148877;2.395526,0.867950;0.168586;1.196914;-0.000014;0.001734;0.046731;0.247061,1,right
154,0.3742898623603018,106.54430362622409,0.15789104747411034,165.86020442792648,5.259684257907793e-05,0.14031104743480682,0.0,0.2857142984867096,0,2,left_arm_joint3,upper,0.02039813995361328,right_arm_joint4,lower,-1.0967254638671875e-05,0.532547;0.896228;0.020398;0.385111;2.120372;1.148930;2.395541,0.867592;0.144603;1.198743;-0.000011;0.001981;0.048175;0.296277,1,right
155,0.37444569242324194,106.2612358465812,0.1584948975146921,165.9727905367542,5.158356361789629e-05,0.13908624649047852,0.0,0.2857142984867096,0,2,left_arm_joint3,upper,0.020482540130615234,right_arm_joint4,lower,-1.3589859008789062e-05,0.532659;0.896202;0.020483;0.385098;2.120435;1.148984;2.395549,0.867459;0.122395;1.200573;-0.000014;0.002245;0.049150;0.349148,1,right
156,0.37487985328602313,105.94238907794356,0.1595288070796444,173.3182390923632,5.2332881750771776e-05,0.1384667158126831,0.0,0.2857142984867096,0,2,left_arm_joint3,upper,0.020566701889038086,right_arm_joint4,lower,-1.4781951904296875e-05,0.532772;0.896174;0.020567;0.385085;2.120498;1.149038;2.395560,0.867710;0.101146;1.201371;-0.000015;0.002161;0.049273;0.405148,1,right
157,0.3754116948607356,105.9148410817446,0.16025884010470196,165.57405354343825,5.2911898819729686e-05,0.13725745677947998,0.0,0.2857142984867096,0,2,left_arm_joint3,upper,0.02065110206604004,right_arm_joint4,lower,-1.3828277587890625e-05,0.532885;0.896147;0.020651;0.385072;2.120562;1.149093;2.395575,0.868913;0.080398;1.202008;-0.000014;0.002607;0.049074;0.463719,1,right
158,0.3760569732521734,106.09906346312356,0.16115932552390438,162.43048156782095,5.292041169013828e-05,0.13575124740600586,0.0,0.2857142984867096,0,2,left_arm_joint3,upper,0.02073526382446289,right_arm_joint4,lower,-1.4781951904296875e-05,0.532999;0.896118;0.020735;0.385059;2.120625;1.149146;2.395589,0.870299;0.060222;1.202228;-0.000015;0.003480;0.048469;0.524801,1,right
159,0.3765083554464803,106.5012783761021,0.16199864897065008,154.14217911642865,5.222218533162959e-05,0.13389721512794495,0.0,0.2857142984867096,0,2,left_arm_joint3,upper,0.020819664001464844,right_arm_joint4,lower,-1.3589859008789062e-05,0.533112;0.896091;0.020820;0.385046;2.120688;1.149200;2.395599,0.871429;0.040319;1.201520;-0.000014;0.004376;0.046762;0.588283,1,right
160,0.3767362887989323,106.68759616230642,0.16272340665715454,154.53986050356508,5.257130032987334e-05,0.134549081325531,0.0,0.2857142984867096,0,2,left_arm_joint3,upper,0.020903587341308594,right_arm_joint4,lower,-1.430511474609375e-05,0.533226;0.896064;0.020904;0.385033;2.120752;1.149255;2.395610,0.872950;0.021359;1.199460;-0.000014;0.005751;0.044563;0.654043,1,right
161,0.37693314295903424,106.80372216171251,0.16315715001349973,151.96968426722546,5.265644722385332e-05,0.13697569072246552,0.0,0.4285714626312256,0,3,left_arm_joint3,upper,0.020989179611206055,right_arm_joint4,lower,-1.5735626220703125e-05,0.533340;0.896036;0.020989;0.385020;2.120816;1.149309;2.395621,0.873972;0.008189;1.197752;-0.000016;0.006890;0.043167;0.721587,1,right
162,0.37739742072101784,106.80844795858984,0.16419161177722,149.04806682985958,5.2503179176710546e-05,0.1396026611328125,0.0,0.4285714626312256,0,3,left_arm_joint3,upper,0.021073341369628906,right_arm_joint4,lower,-1.3828277587890625e-05,0.533453;0.896008;0.021073;0.385007;2.120880;1.149363;2.395631,0.876706;0.002307;1.196766;-0.000014;0.007127;0.040795;0.790755,1,right
163,0.3773474371201098,106.6293043008387,0.16508740771547456,146.17975368805446,5.312477151164785e-05,0.14019423723220825,0.0,0.4285714626312256,0,3,left_arm_joint3,upper,0.021158218383789062,right_arm_joint4,lower,-1.239776611328125e-05,0.533568;0.895981;0.021158;0.384994;2.120944;1.149418;2.395645,0.881729;0.000310;1.194808;-0.000012;0.006373;0.036732;0.860845,1,right
164,0.3772869761953788,106.40680382457313,0.16566414523567563,143.59490231258914,5.248614979791455e-05,0.13913509249687195,0.0,0.4285714626312256,0,3,left_arm_joint3,upper,0.021242856979370117,right_arm_joint4,lower,-1.0728836059570312e-05,0.533682;0.895953;0.021243;0.384981;2.121007;1.149473;2.395654,0.886745;-0.000002;1.192598;-0.000011;0.005589;0.032269;0.930817,1,right
165,0.3771572191480611,106.26535969210302,0.16853519799089703,140.6163629327423,5.3133284382056445e-05,0.14078965783119202,0.0,0.4285714626312256,0,3,left_arm_joint3,upper,0.02132868766784668,right_arm_joint4,lower,-1.0728836059570312e-05,0.533796;0.895926;0.021329;0.384968;2.121072;1.149527;2.395666,0.890003;-0.000003;1.191375;-0.000011;0.004791;0.029112;1.001094,1,right
166,0.37717378352130326,106.11629020884293,0.17054271393788964,137.94357241207783,5.34313076059334e-05,0.14206960797309875,0.0,0.4285714626312256,0,3,left_arm_joint3,upper,0.021413326263427734,right_arm_joint4,lower,-5.9604644775390625e-06,0.533911;0.895899;0.021413;0.384955;2.121136;1.149583;2.395681,0.894624;-0.000001;1.188958;-0.000006;0.004139;0.025677;1.072590,1,right
167,0.3765496077116575,106.00987559012309,0.1722007324452645,135.36111922250691,5.4146563343238086e-05,0.14262866973876953,0.0,0.4285714626312256,0,3,left_arm_joint3,upper,0.0214996337890625,right_arm_joint4,lower,-4.76837158203125e-06,0.534026;0.895870;0.021500;0.384941;2.121200;1.149637;2.395698,0.898776;0.000000;1.186723;-0.000005;0.003545;0.022061;1.144322,1,right
168,0.37626178133059124,105.85899658611802,0.17348282087339228,133.01472270243417,5.34398241143208e-05,0.14294128119945526,0.0,0.4285714626312256,0,3,left_arm_joint3,upper,0.021585702896118164,right_arm_joint4,lower,-6.198883056640625e-06,0.534141;0.895843;0.021586;0.384928;2.121265;1.149692;2.395711,0.901372;-0.000000;1.185193;-0.000006;0.003165;0.019183;1.215938,1,right
169,0.3760201858942587,105.77069317802709,0.17499019954995487,130.93418547356012,5.3252493671607226e-05,0.14408425986766815,0.0,0.4285714626312256,0,3,left_arm_joint3,upper,0.02167057991027832,right_arm_joint4,lower,-1.6689300537109375e-06,0.534256;0.895814;0.021671;0.384915;2.121330;1.149748;2.395722,0.904381;0.000007;1.183533;-0.000002;0.002921;0.016008;1.288279,1,right
170,0.375898448342238,105.89462354216607,0.1754679602534215,129.20709054024104,5.370378858060576e-05,0.14371724426746368,0.0,0.4285714626312256,0,3,left_arm_joint3,upper,0.02175617218017578,right_arm_joint4,lower,-7.152557373046875e-07,0.534371;0.895786;0.021756;0.384901;2.121394;1.149803;2.395735,0.906619;0.000006;1.180188;-0.000001;0.002637;0.013748;1.360608,1,right
171,0.37648765991716604,106.20870222622935,0.17762951783791944,128.02922234471697,5.298853284330107e-05,0.14548137784004211,0.0,0.4285714626312256,0,3,left_arm_joint3,upper,0.021842241287231445,right_arm_joint4,lower,-3.5762786865234375e-06,0.534487;0.895759;0.021842;0.384889;2.121459;1.149857;2.395746,0.909766;0.000001;1.173590;-0.000004;0.002259;0.012825;1.434225,1,right
172,0.377088783452631,106.43926642678574,0.17803525307208337,127.54145450278898,5.415507985162549e-05,0.14716675877571106,0.0,0.4285714626312256,0,3,left_arm_joint3,upper,0.021927833557128906,right_arm_joint2,lower,-1.3113021850585938e-06,0.534603;0.895731;0.021928;0.384875;2.121524;1.149913;2.395761,0.917602;-0.000001;1.164829;0.002830;0.001765;0.012115;1.509537,1,right
173,0.37765296289425987,106.5476904584054,0.17814152176382178,127.69028753250156,5.434241029433906e-05,0.14801113307476044,0.0,0.4285714626312256,0,3,left_arm_joint3,upper,0.022014617919921875,right_arm_joint2,lower,9.5367431640625e-07,0.534719;0.895702;0.022015;0.384862;2.121589;1.149969;2.395776,0.928042;0.000001;1.158918;0.006466;0.001497;0.011229;1.584965,1,right
174,0.378084291569948,106.61355467221141,0.17742879134981532,115.58070966944152,5.367824269342236e-05,0.14736627042293549,0.0,0.2857142984867096,0,2,left_arm_joint3,upper,0.02210068702697754,right_arm_joint2,lower,3.933906555175781e-06,0.534835;0.895675;0.022101;0.384849;2.121654;1.150024;2.395790,0.938116;0.000004;1.153116;0.010389;0.001376;0.010559;1.659993,1,right
175,0.37769802773062744,106.48351358446668,0.17703512442283056,111.19887179726864,5.395923653850332e-05,0.14754103124141693,0.0,0.4285714626312256,0,3,left_arm_joint3,upper,0.022186756134033203,right_arm_joint2,lower,6.318092346191406e-06,0.534951;0.895646;0.022187;0.384835;2.121719;1.150080;2.395800,0.946234;0.000006;1.147987;0.013482;0.002272;0.006871;1.735002,1,right
176,0.37759259506912635,106.37760346785477,0.17707919116109838,113.11551452310135,5.4206167988013476e-05,0.1473933905363083,0.0,0.4285714626312256,0,3,left_arm_joint3,upper,0.022273778915405273,right_arm_joint2,lower,9.775161743164062e-06,0.535068;0.895618;0.022274;0.384822;2.121784;1.150136;2.395814,0.953752;0.000010;1.142673;0.015920;0.002269;0.004904;1.810050,1,right
177,0.37867621018765923,106.29549890653797,0.17835957727854804,110.01737777390099,5.3133284382056445e-05,0.1489279568195343,0.0,0.4285714626312256,0,3,left_arm_joint3,upper,0.02236032485961914,right_arm_joint2,lower,4.0411949157714844e-05,0.535184;0.895590;0.022360;0.384809;2.121850;1.150191;2.395821,0.963409;0.000040;1.137981;0.016318;0.003556;0.005799;1.885547,1,right
178,0.3791881307955973,106.16703337262693,0.1782819992282991,107.63671622423695,5.4172109230421484e-05,0.14876165986061096,0.0,0.4285714626312256,0,3,left_arm_joint3,upper,0.02244734764099121,right_arm_joint2,lower,7.152557373046875e-07,0.535300;0.895561;0.022447;0.384795;2.121915;1.150245;2.395835,0.972433;0.000001;1.133620;0.019084;0.002947;0.004971;1.961457,1,right
179,0.37901172250107507,105.9856612078241,0.17774478122611592,106.26542544491619,5.500657425727695e-05,0.14843876659870148,0.0,0.4285714626312256,0,3,left_arm_joint3,upper,0.02253437042236328,right_arm_joint2,lower,-4.76837158203125e-07,0.535418;0.895533;0.022534;0.384781;2.121981;1.150303;2.395851,0.981062;-0.000000;1.131580;0.021840;0.002937;0.005251;2.036537,1,right
180,0.3790780485881764,106.00357668701986,0.1781972119631373,105.96574997358914,5.395072003011592e-05,0.14856348931789398,0.0,0.4285714626312256,0,3,left_arm_joint3,upper,0.02262115478515625,right_arm_joint2,lower,7.152557373046875e-07,0.535534;0.895504;0.022621;0.384768;2.122047;1.150359;2.395861,0.987452;0.000001;1.129496;0.023078;0.002828;0.005046;2.110742,1,right
181,0.3787562317573534,106.21517013400594,0.17806401972680136,102.98326534998247,5.446161958388984e-05,0.14826135337352753,0.0,0.4285714626312256,0,3,left_arm_joint3,upper,0.022708415985107422,right_arm_joint2,lower,1.049041748046875e-05,0.535651;0.895475;0.022708;0.384754;2.122113;1.150415;2.395874,0.990731;0.000010;1.128701;0.024648;0.003063;0.001472;2.185131,1,right
182,0.3779037487107014,106.2859208464144,0.1779009863598057,103.54546514155133,5.394220715970732e-05,0.14746253192424774,0.0,0.4285714626312256,0,3,left_arm_joint3,upper,0.022795438766479492,right_arm_joint2,lower,4.5299530029296875e-06,0.535769;0.895448;0.022795;0.384741;2.122178;1.150470;2.395886,0.997024;0.000005;1.125112;0.022014;0.005335;0.000413;2.259507,1,right
183,0.37766827214922855,106.52980652980168,0.1768184227946158,100.9628431346278,5.395072003011592e-05,0.14734220504760742,0.0,0.4285714626312256,0,3,left_arm_joint3,upper,0.022882461547851562,right_arm_joint6,upper,-4.76837158203125e-07,0.535886;0.895418;0.022882;0.384728;2.122244;1.150527;2.395895,1.002813;0.000002;1.121976;0.024839;0.005137;-0.000000;2.334881,1,right
184,0.37803072096516344,106.70695274566903,0.17664978570899098,100.58622816828446,5.707570744561963e-05,0.14719101786613464,0.0,0.4285714626312256,0,3,left_arm_joint3,upper,0.022969484329223633,right_arm_joint6,upper,2.3365020751953125e-05,0.536003;0.895390;0.022969;0.384714;2.122309;1.150584;2.395865,1.008963;0.000063;1.119133;0.023637;0.005670;0.000023;2.409585,1,right
185,0.3787063624831996,106.81775141418315,0.1762919760812049,98.97855708550232,5.988564225845039e-05,0.14739306271076202,0.0,0.4285714626312256,0,3,left_arm_joint3,upper,0.023056983947753906,right_arm_joint2,lower,1.430511474609375e-06,0.536120;0.895362;0.023057;0.384701;2.122376;1.150638;2.395812,1.015267;0.000001;1.117522;0.025264;0.004645;0.000062;2.484543,1,right
186,0.3785377383965406,106.8237821242351,0.1760711705201496,99.5608230790782,6.0975555243203416e-05,0.14656110107898712,0.0,0.4285714626312256,0,3,left_arm_joint3,upper,0.02314472198486328,right_arm_joint2,lower,-3.5762786865234375e-07,0.536237;0.895333;0.023145;0.384687;2.122441;1.150695;2.395756,1.019596;-0.000000;1.116878;0.026380;0.003771;0.000352;2.558221,1,right
187,0.3786110208226246,106.84763400242925,0.17728271620859842,98.80356699100912,6.072862015571445e-05,0.14853446185588837,0.0,0.4285714626312256,0,3,left_arm_joint3,upper,0.023232221603393555,right_arm_joint2,lower,5.960464477539062e-07,0.536355;0.895303;0.023232;0.384674;2.122508;1.150750;2.395701,1.023862;0.000001;1.118125;0.025002;0.005066;0.000009;2.631895,1,right
188,0.37858882323592197,106.89083318807208,0.17647424670022904,98.19210628648196,6.072862015571445e-05,0.14834551513195038,0.0,0.4285714626312256,0,3,left_arm_joint3,upper,0.023319244384765625,right_arm_joint2,lower,1.3113021850585938e-06,0.536473;0.895275;0.023319;0.384660;2.122574;1.150807;2.395645,1.026430;0.000001;1.121858;0.026623;0.004025;0.000096;2.705123,1,right
189,0.3786175628698154,106.820319978767,0.1753397587144057,97.5057306366529,6.087337533244863e-05,0.14809063076972961,0.0,0.4285714626312256,0,3,left_arm_joint3,upper,0.023407697677612305,right_arm_joint2,lower,4.76837158203125e-07,0.536592;0.895247;0.023408;0.384647;2.122640;1.150863;2.395590,1.029448;0.000000;1.128474;0.028886;0.003415;0.000284;2.777083,1,right
190,0.378454193223923,106.57375260180575,0.1754188926523249,99.32354820541069,6.146942178020254e-05,0.14646963775157928,0.0,0.4285714626312256,0,3,left_arm_joint3,upper,0.02349567413330078,right_arm_joint2,lower,1.1920928955078125e-06,0.536709;0.895218;0.023496;0.384634;2.122706;1.150921;2.395531,1.029251;0.000001;1.134590;0.027490;0.004915;0.000008;2.847700,1,right
191,0.37810542843236933,106.52827346960261,0.17413032896897623,99.31050927230773,6.068604488973506e-05,0.14452393352985382,0.0,0.4285714626312256,0,3,left_arm_joint3,upper,0.023582935333251953,right_arm_joint2,lower,1.1563301086425781e-05,0.536828;0.895189;0.023583;0.384619;2.122773;1.150977;2.395478,1.028284;0.000012;1.139729;0.030189;0.003793;0.000185;2.918111,1,right
192,0.3782664922869636,106.61672588119477,0.17337252256372457,98.50013731835581,6.153753929538652e-05,0.14299365878105164,0.0,0.4285714626312256,0,3,left_arm_joint3,upper,0.023671388626098633,right_arm_joint6,upper,-2.384185791015625e-06,0.536946;0.895160;0.023671;0.384606;2.122839;1.151034;2.395420,1.024971;-0.000002;1.144543;0.029796;0.005288;-0.000002;2.986925,1,right
193,0.37818049382033087,106.75845125534535,0.17292087828494013,93.47919019863042,6.087337533244863e-05,0.14243370294570923,0.0,0.4285714626312256,0,3,left_arm_joint3,upper,0.023759841918945312,right_arm_joint2,lower,-1.1920928955078125e-06,0.537066;0.895131;0.023760;0.384593;2.122907;1.151090;2.395368,1.023086;-0.000001;1.147748;0.030968;0.005178;-0.000000;2.975024,1,right
194,0.3780363995370646,106.86967741102494,0.17265354230033103,92.13617600959405,6.17078403593041e-05,0.14338058233261108,0.0,0.4285714626312256,0,3,left_arm_joint3,upper,0.023848533630371094,right_arm_joint6,upper,5.245208740234375e-06,0.537184;0.895101;0.023849;0.384579;2.122973;1.151147;2.395310,1.023153;0.000012;1.151255;0.032864;0.004435;0.000005;2.904198,1,right
195,0.3778750026797223,106.86682410553111,0.1721397686570497,89.73433918501638,6.163972284412012e-05,0.1443178355693817,0.0,0.4285714626312256,0,3,left_arm_joint3,upper,0.023936748504638672,right_arm_joint2,lower,4.9591064453125e-05,0.537303;0.895072;0.023937;0.384565;2.123041;1.151204;2.395253,1.024898;0.000050;1.154146;0.035584;0.003625;0.000134;2.832469,1,right
196,0.37728325211931074,106.96792525620188,0.1721502662333025,92.06057283557769,6.176744500407949e-05,0.14493846893310547,0.0,0.4285714626312256,0,3,left_arm_joint3,upper,0.024025678634643555,right_arm_joint2,lower,1.1920928955078125e-07,0.537422;0.895043;0.024026;0.384551;2.123108;1.151261;2.395196,1.031340;0.000000;1.156056;0.032840;0.005448;0.000203;2.760977,1,right
197,0.3771225814541198,107.09198043421479,0.17016150576605849,91.15070660862312,6.16908073425293e-05,0.14426617324352264,0.0,0.4285714626312256,0,3,left_arm_joint3,upper,0.02411508560180664,right_arm_joint6,upper,4.291534423828125e-06,0.537542;0.895014;0.024115;0.384537;2.123175;1.151318;2.395140,1.034489;0.000266;1.163257;0.037478;0.004904;0.000004;2.689540,1,right
198,0.3767549185816836,106.99448213309623,0.16880814814919193,90.50451324665586,6.151199340820312e-05,0.14071567356586456,0.0,0.4285714626312256,0,3,left_arm_joint3,upper,0.024204015731811523,right_arm_joint2,lower,4.971027374267578e-05,0.537662;0.894985;0.024204;0.384524;2.123242;1.151375;2.395084,1.036638;0.000050;1.165625;0.040837;0.002932;0.000198;2.619040,1,right
199,0.37639106558448926,106.90915692563367,0.16935377045819094,89.53159175957151,6.227834091987461e-05,0.14093634486198425,0.0,0.4285714626312256,0,3,left_arm_joint3,upper,0.02429342269897461,right_arm_joint2,lower,0.0,0.537781;0.894955;0.024293;0.384510;2.123310;1.151432;2.395027,1.041363;0.000000;1.165296;0.039176;0.005043;0.001378;2.548959,1,right
200,0.37559587945811773,106.74611065921843,0.1678532644072342,89.81847662200363,6.187814142322168e-05,0.13968193531036377,0.0,0.4285714626312256,0,3,left_arm_joint3,upper,0.02438211441040039,right_arm_joint6,upper,-9.5367431640625e-07,0.537901;0.894926;0.024382;0.384496;2.123377;1.151491;2.394971,1.044087;0.000046;1.167140;0.040827;0.004416;-0.000001;2.478866,1,right
201,0.37552758742105075,106.69681534347728,0.16679141593672336,91.21643398600061,6.2303886807058e-05,0.1380404233932495,0.0,0.4285714626312256,0,3,left_arm_joint3,upper,0.024471521377563477,right_arm_joint2,lower,1.4185905456542969e-05,0.538022;0.894897;0.024472;0.384483;2.123445;1.151549;2.394912,1.045571;0.000014;1.166740;0.041602;0.004228;0.000152;2.409603,1,right
202,0.3749271035146638,106.48319004018093,0.1660472225966081,92.05925351782771,6.204843521118164e-05,0.1369684487581253,0.0,0.4285714626312256,0,3,left_arm_joint3,upper,0.024561166763305664,right_arm_joint6,upper,-4.76837158203125e-07,0.538142;0.894868;0.024561;0.384469;2.123513;1.151605;2.394855,1.046034;0.000004;1.165444;0.040468;0.005776;-0.000000;2.340950,1,right
203,0.37491561490595626,106.2781569538317,0.16537516077960235,94.32534275267356,6.226982804946601e-05,0.13558359444141388,0.0,0.4285714626312256,0,3,left_arm_joint3,upper,0.024651050567626953,right_arm_joint2,lower,1.823902130126953e-05,0.538263;0.894837;0.024651;0.384454;2.123581;1.151662;2.394800,1.046169;0.000018;1.164016;0.042154;0.004786;0.000360;2.272378,1,right
204,0.3751967269835079,106.25885400248957,0.1638904971909769,94.73561377635583,6.23464584350586e-05,0.1330198347568512,0.0,0.4285714626312256,0,3,left_arm_joint3,upper,0.02474069595336914,right_arm_joint2,lower,-5.960464477539062e-07,0.538383;0.894808;0.024741;0.384440;2.123649;1.151721;2.394745,1.044724;-0.000001;1.160602;0.044494;0.004211;0.000453;2.205269,1,right
205,0.3752667798580355,106.077285290814,0.16331887669076522,98.13519804453333,6.260191003093496e-05,0.13256168365478516,0.0,0.4285714626312256,0,3,left_arm_joint3,upper,0.02483081817626953,right_arm_joint6,upper,-1.9073486328125e-06,0.538504;0.894778;0.024831;0.384427;2.123717;1.151778;2.394685,1.041728;0.000003;1.159597;0.043883;0.005936;-0.000002;2.139295,1,right
206,0.37550269889784077,105.98151562889875,0.16233540958684475,98.63297555685175,6.260191003093496e-05,0.13148000836372375,0.0,0.4285714626312256,0,3,left_arm_joint3,upper,0.024920940399169922,right_arm_joint2,lower,1.5139579772949219e-05,0.538625;0.894749;0.024921;0.384413;2.123785;1.151836;2.394628,1.039020;0.000015;1.158379;0.046694;0.004988;0.000309;2.073165,1,right
207,0.3754422318093286,105.87632934618287,0.16180470167244573,98.12423370829363,6.307023431872949e-05,0.13114579021930695,0.0,0.4285714626312256,0,3,left_arm_joint3,upper,0.025011777877807617,right_arm_joint2,lower,1.0728836059570312e-06,0.538747;0.894719;0.025012;0.384399;2.123853;1.151894;2.394569,1.035367;0.000001;1.157767;0.049014;0.004765;0.000270;2.007746,1,right
208,0.375689981051767,105.89952768744871,0.16205169469793296,98.1397885272222,6.253379251575097e-05,0.13182716071605682,0.0,0.4285714626312256,0,3,left_arm_joint3,upper,0.02510213851928711,right_arm_joint2,lower,6.794929504394531e-06,0.538868;0.894689;0.025102;0.384385;2.123922;1.151952;2.394513,1.032278;0.000007;1.160632;0.048912;0.005007;0.000045;1.943076,1,right
209,0.3757507340195995,105.99420998856962,0.16144668915940866,98.17206090696482,6.338528328342363e-05,0.1318662464618683,0.0,0.4285714626312256,0,3,left_arm_joint3,upper,0.0251924991607666,right_arm_joint2,lower,2.574920654296875e-05,0.538990;0.894660;0.025192;0.384371;2.123991;1.152011;2.394452,1.029813;0.000026;1.163405;0.050110;0.004652;0.000218;1.878235,1,right
210,0.37564249558927454,105.99733851455343,0.16203825187223433,98.40253327162422,6.266151467571035e-05,0.13251334428787231,0.0,0.4285714626312256,0,3,left_arm_joint3,upper,0.025283098220825195,right_arm_joint2,lower,-2.384185791015625e-07,0.539111;0.894629;0.025283;0.384357;2.124059;1.152068;2.394397,1.027882;-0.000000;1.164350;0.049104;0.005314;0.001786;1.813078,1,right
211,0.3755117847205594,106.04357005295483,0.16164125309283986,98.62605537396895,6.335122452583164e-05,0.13247287273406982,0.0,0.4285714626312256,0,3,left_arm_joint3,upper,0.02537369728088379,right_arm_joint2,lower,1.0013580322265625e-05,0.539234;0.894599;0.025374;0.384343;2.124128;1.152127;2.394338,1.030435;0.000010;1.163283;0.050867;0.004386;0.002805;1.746568,1,right
212,0.3751992493307237,106.03969690889762,0.1604477301563568,99.1506316689855,6.271260645007715e-05,0.13188114762306213,0.0,0.4285714626312256,0,3,left_arm_joint3,upper,0.02546525001525879,right_arm_joint2,lower,5.6743621826171875e-05,0.539356;0.894569;0.025465;0.384329;2.124197;1.152185;2.394283,1.030426;0.000057;1.163634;0.053169;0.004461;0.001087;1.680520,1,right
213,0.37502699687994084,106.07071655607216,0.16087688409040468,100.04075541735801,6.402390863513574e-05,0.131569504737854,0.0,0.4285714626312256,0,3,left_arm_joint3,upper,0.025556564331054688,right_arm_joint2,lower,3.814697265625e-06,0.539478;0.894539;0.025557;0.384315;2.124266;1.152244;2.394222,1.029873;0.000004;1.162714;0.051059;0.006303;0.001226;1.615070,1,right
214,0.3750937938734454,106.16276691921045,0.15999533526409332,101.07248421889913,6.332567863864824e-05,0.13135145604610443,0.0,0.4285714626312256,0,3,left_arm_joint3,upper,0.025647401809692383,right_arm_joint6,upper,9.5367431640625e-07,0.539601;0.894509;0.025647;0.384300;2.124335;1.152302;2.394163,1.029390;0.000012;1.163747;0.053628;0.005719;0.000001;1.548912,1,right
215,0.37543989198024613,106.21801887703973,0.15989818376695838,102.18189558968199,6.350449257297441e-05,0.1311224400997162,0.0,0.4285714626312256,0,3,left_arm_joint3,upper,0.02573871612548828,right_arm_joint6,upper,7.152557373046875e-06,0.539724;0.894478;0.025739;0.384286;2.124404;1.152360;2.394105,1.028850;0.000030;1.163286;0.055778;0.004840;0.000007;1.483056,1,right
216,0.37572653814143486,106.20251608418153,0.16094056097805157,103.8384462532865,6.349597970256582e-05,0.13277779519557953,0.0,0.4285714626312256,0,3,left_arm_joint3,upper,0.025830507278442383,right_arm_joint2,lower,3.337860107421875e-06,0.539847;0.894448;0.025831;0.384272;2.124474;1.152419;2.394049,1.029100;0.000003;1.163833;0.053918;0.006531;0.000127;1.417089,1,right
217,0.3761111703742215,106.2090252179713,0.16096822348991052,105.36322473150474,6.389617919921875e-05,0.1332719922065735,0.0,0.4285714626312256,0,3,left_arm_joint3,upper,0.02592158317565918,right_arm_joint6,upper,-1.9073486328125e-06,0.539970;0.894418;0.025922;0.384258;2.124543;1.152478;2.393988,1.028257;0.000175;1.166813;0.056598;0.005713;-0.000002;1.350487,1,right
218,0.37659807956431396,106.23142780331088,0.16062440289120442,106.79194529103381,6.337677041301504e-05,0.1332767754793167,0.0,0.4285714626312256,0,3,left_arm_joint3,upper,0.026014328002929688,right_arm_joint2,lower,1.5020370483398438e-05,0.540093;0.894388;0.026014;0.384245;2.124613;1.152537;2.393932,1.028458;0.000015;1.169381;0.059265;0.004097;0.000739;1.284199,1,right
219,0.3772474207912578,106.20115754839487,0.16116997862229132,108.37447184945387,6.42452941974625e-05,0.13453324139118195,0.0,0.4285714626312256,0,3,left_arm_joint3,upper,0.02610611915588379,right_arm_joint2,lower,1.3113021850585938e-06,0.540217;0.894357;0.026106;0.384230;2.124683;1.152596;2.393872,1.030863;0.000001;1.171877;0.058655;0.005541;0.002419;1.218054,1,right
220,0.37770049707096165,106.03772921098371,0.16110337786705206,110.01580319584848,6.383657455444336e-05,0.13516578078269958,0.0,0.4285714626312256,0,3,left_arm_joint3,upper,0.026196956634521484,right_arm_joint2,lower,1.0251998901367188e-05,0.540340;0.894326;0.026197;0.384215;2.124752;1.152656;2.393814,1.034470;0.000010;1.175841;0.061396;0.005254;0.000638;1.150478,1,right
221,0.3780274854435128,105.91417588579891,0.16047236131859724,111.64797181429775,6.41942024230957e-05,0.1350410282611847,0.0,0.4285714626312256,0,3,left_arm_joint3,upper,0.026290178298950195,right_arm_joint6,upper,4.76837158203125e-07,0.540464;0.894296;0.026290;0.384201;2.124822;1.152715;2.393756,1.039885;0.000046;1.178649;0.065324;0.004967;0.000000;1.082523,1,right
222,0.3784867112515409,105.7003314392161,0.1610928613880664,113.36208213771445,6.393024523276836e-05,0.13548143208026886,0.0,0.4285714626312256,0,3,left_arm_joint3,upper,0.0263822078704834,right_arm_joint6,upper,-3.337860107421875e-06,0.540588;0.894264;0.026382;0.384187;2.124892;1.152773;2.393698,1.048191;0.000010;1.180215;0.065330;0.006807;-0.000003;1.014528,1,right
223,0.37825969164283546,105.34304163810069,0.15942777964350702,114.75812998339555,6.376845703925937e-05,0.13393428921699524,0.0,0.4285714626312256,0,3,left_arm_joint3,upper,0.0264742374420166,right_arm_joint2,lower,1.5020370483398438e-05,0.540711;0.894235;0.026474;0.384173;2.124962;1.152832;2.393640,1.053530;0.000015;1.182693;0.069370;0.005303;0.000031;0.946603,1,right
224,0.3778272993910409,105.03018059433862,0.1581554929644887,116.47539749747453,6.439004937419668e-05,0.13165538012981415,0.0,0.4285714626312256,0,3,left_arm_joint3,upper,0.026566267013549805,right_arm_joint2,lower,4.76837158203125e-07,0.540835;0.894204;0.026566;0.384158;2.125032;1.152892;2.393580,1.058444;0.000000;1.182442;0.069930;0.005315;0.000054;0.880099,1,right
225,0.37722868759999933,104.72680730982862,0.15774248456021925,118.53866862281637,6.433044472942129e-05,0.13039834797382355,0.0,0.4285714626312256,0,3,left_arm_joint3,upper,0.02665853500366211,right_arm_joint6,upper,4.76837158203125e-06,0.540959;0.894173;0.026659;0.384144;2.125102;1.152951;2.393520,1.059462;0.000009;1.182393;0.068377;0.006058;0.000005;0.814746,1,right
226,0.37660202150697514,104.40889623347958,0.15685082104402714,120.7676292083911,6.404093437595293e-05,0.12897630035877228,0.0,0.4285714626312256,0,3,left_arm_joint3,upper,0.02675151824951172,right_arm_joint2,lower,8.344650268554688e-06,0.541084;0.894143;0.026752;0.384130;2.125173;1.153010;2.393463,1.058177;0.000008;1.181698;0.067588;0.006002;0.000010;0.749973,1,right
227,0.376471879161306,104.06348323824221,0.15618451763784272,123.18258427630408,6.488391954917461e-05,0.12894491851329803,0.0,0.4285714626312256,0,3,left_arm_joint3,upper,0.026843786239624023,right_arm_joint6,upper,3.337860107421875e-06,0.541209;0.894112;0.026844;0.384116;2.125243;1.153070;2.393402,1.057391;0.000006;1.181994;0.067655;0.006879;0.000003;0.685317,1,right
228,0.3764972376072188,103.70204171822981,0.15583156471428458,125.5936946947836,6.438153650378808e-05,0.12853774428367615,0.0,0.4285714626312256,0,3,left_arm_joint3,upper,0.026937007904052734,right_arm_joint2,lower,9.417533874511719e-06,0.541334;0.894081;0.026937;0.384101;2.125314;1.153128;2.393343,1.060047;0.000009;1.182509;0.067818;0.005867;0.000147;0.620357,1,right
229,0.37636427126175187,103.27701292798204,0.15550899456759043,127.99500154391163,6.4849853515625e-05,0.12802815437316895,0.0,0.4285714626312256,0,3,left_arm_joint3,upper,0.027029991149902344,right_arm_joint2,lower,0.0,0.541459;0.894051;0.027030;0.384088;2.125384;1.153190;2.393283,1.062258;0.000000;1.182580;0.068354;0.005272;0.000302;0.555867,1,right
230,0.3765587842992431,102.96251913109317,0.15563061554417743,130.86275498057444,6.470510561484843e-05,0.12850701808929443,0.0,0.4285714626312256,0,3,left_arm_joint3,upper,0.027122974395751953,right_arm_joint2,lower,1.1444091796875e-05,0.541584;0.894018;0.027123;0.384072;2.125455;1.153249;2.393226,1.063138;0.000011;1.184856;0.068110;0.005626;0.000161;0.491806,1,right
231,0.3763212269683722,102.64353270109882,0.15473896990178598,133.54818131754055,6.513085099868476e-05,0.12696783244609833,0.0,0.4285714626312256,0,3,left_arm_joint3,upper,0.02721691131591797,right_arm_joint2,lower,-2.384185791015625e-07,0.541709;0.893988;0.027217;0.384058;2.125526;1.153308;2.393163,1.062704;-0.000000;1.185874;0.069435;0.005323;0.000105;0.428346,1,right
232,0.3760637941436483,102.21878831957682,0.15431462847862903,136.39249201096374,6.432193185901269e-05,0.1262323260307312,0.0,0.4285714626312256,0,3,left_arm_joint3,upper,0.027309417724609375,right_arm_joint2,lower,2.9802322387695312e-06,0.541834;0.893956;0.027309;0.384043;2.125596;1.153368;2.393108,1.061243;0.000003;1.188039;0.068943;0.006545;0.000007;0.365734,1,right
233,0.3761257574343591,101.94598919013458,0.15378618529619836,139.4536472239219,6.556510925292969e-05,0.12578700482845306,0.0,0.4285714626312256,0,3,left_arm_joint3,upper,0.02740311622619629,right_arm_joint2,lower,1.4424324035644531e-05,0.541960;0.893925;0.027403;0.384030;2.125668;1.153428;2.393044,1.061759;0.000014;1.188937;0.070122;0.005756;0.000177;0.302474,1,right
234,0.37640171569157976,101.74604355466931,0.15307349666629627,142.48167648076804,6.488391954917461e-05,0.12568187713623047,0.0,0.4285714626312256,0,3,left_arm_joint3,upper,0.027497291564941406,right_arm_joint2,lower,7.271766662597656e-06,0.542085;0.893895;0.027497;0.384015;2.125739;1.153488;2.392986,1.061748;0.000007;1.189657;0.072295;0.005186;0.000336;0.239341,1,right
235,0.37626872743005413,101.50654208084016,0.15273486275791232,145.1548213260889,6.530115206260234e-05,0.12572427093982697,0.0,0.4285714626312256,0,3,left_arm_joint3,upper,0.02759075164794922,right_arm_joint2,lower,6.794929504394531e-06,0.542211;0.893864;0.027591;0.384001;2.125810;1.153549;2.392926,1.063051;0.000007;1.189140;0.071290;0.007051;0.000007;0.176204,1,right
236,0.37638566929507244,101.32952409038937,0.15202724789669672,147.46918966658515,6.506273348350078e-05,0.12474039942026138,0.0,0.4285714626312256,0,3,left_arm_joint3,upper,0.02768421173095703,right_arm_joint2,lower,1.537799835205078e-05,0.542336;0.893832;0.027684;0.383985;2.125882;1.153608;2.392868,1.063949;0.000015;1.188563;0.072323;0.006104;0.000150;0.112942,1,right
237,0.37647221505673945,101.10221191692345,0.15156345704024235,149.68701953824655,6.558214226970449e-05,0.12425452470779419,0.0,0.4285714626312256,0,3,left_arm_joint3,upper,0.027778148651123047,right_arm_joint2,lower,1.1920928955078125e-07,0.542463;0.893800;0.027778;0.383971;2.125952;1.153668;2.392806,1.064867;0.000000;1.186816;0.073898;0.005465;0.000348;0.049925,1,right
238,0.37601421284146586,100.98971400304798,0.15159886698230052,165.2948148796986,6.508827209472656e-05,0.1294528692960739,0.0,0.4285714626312256,0,3,left_arm_joint3,upper,0.027872085571289062,right_arm_joint2,lower,7.867813110351562e-06,0.542590;0.893769;0.027872;0.383957;2.126024;1.153728;2.392747,1.065151;0.000008;1.186520;0.073050;0.007312;0.000008;0.020607,1,right
239,0.3760013656177006,100.87286157286741,0.1511273067211981,167.51584832265783,6.55055046081543e-05,0.13169796764850616,0.0,0.5714285969734192,0,4,left_arm_joint3,upper,0.027966022491455078,right_arm_joint2,lower,8.463859558105469e-06,0.542716;0.893738;0.027966;0.383942;2.126095;1.153790;2.392687,1.066885;0.000008;1.185425;0.074076;0.006498;0.000080;0.008508,1,right
240,0.37557289606813277,100.71991112094149,0.1502176920280096,167.81826498523438,6.605897942790762e-05,0.13212449848651886,0.0,0.5714285969734192,0,4,left_arm_joint3,upper,0.0280606746673584,right_arm_joint2,lower,0.0,0.542842;0.893707;0.028061;0.383928;2.126167;1.153849;2.392623,1.068391;0.000000;1.183801;0.075474;0.005608;0.000338;0.003515,1,right
241,0.37486147116945495,100.48806323403558,0.14971082571569141,168.70178608062602,6.582056084880605e-05,0.13281933963298798,0.0,0.5714285969734192,0,4,left_arm_joint3,upper,0.028154611587524414,right_arm_joint6,upper,6.67572021484375e-06,0.542969;0.893675;0.028155;0.383913;2.126239;1.153910;2.392563,1.070807;0.000007;1.182459;0.074548;0.007580;0.000007;0.001472,1,right
242,0.3745072108643842,100.44737110495095,0.14861294898975638,168.5534206602386,6.542036135215312e-05,0.13164971768856049,0.0,0.5714285969734192,0,4,left_arm_joint3,upper,0.028250455856323242,right_arm_joint2,lower,4.291534423828125e-06,0.543096;0.893644;0.028250;0.383899;2.126311;1.153970;2.392505,1.072788;0.000004;1.180183;0.075354;0.006674;0.000088;0.000619,1,right
243,0.3740420953513622,100.37990928595275,0.14769392702495232,169.2822864460134,6.609303818549961e-05,0.13036833703517914,0.0,0.5714285969734192,0,4,left_arm_joint3,upper,0.028344392776489258,right_arm_joint2,lower,3.5762786865234375e-07,0.543223;0.893612;0.028344;0.383884;2.126383;1.154031;2.392443,1.074519;0.000000;1.177552;0.076573;0.005787;0.000359;0.000265,1,right
244,0.37347405094720887,100.10532110640186,0.14724798472229894,171.49634598072666,6.561620102729648e-05,0.1305418759584427,0.0,0.5714285969734192,0,4,left_arm_joint3,upper,0.02843952178955078,right_arm_joint2,lower,6.67572021484375e-06,0.543350;0.893580;0.028440;0.383870;2.126455;1.154091;2.392384,1.076579;0.000007;1.175874;0.075723;0.007782;0.000008;0.000135,1,right
245,0.37351805033841284,99.77783838909808,0.14718874066451726,157.0255017391991,6.635700265178457e-05,0.13050051033496857,0.0,0.5714285969734192,0,4,left_arm_joint3,upper,0.028533458709716797,right_arm_joint2,lower,1.6570091247558594e-05,0.543478;0.893549;0.028533;0.383855;2.126527;1.154152;2.392321,1.079295;0.000017;1.174453;0.076218;0.006334;0.000206;0.000068,1,right
246,0.3736551037506436,99.43117064283827,0.14661059288545733,155.50007093401666,6.584610673598945e-05,0.1299280822277069,0.0,0.5714285969734192,0,4,left_arm_joint3,upper,0.02862858772277832,right_arm_joint2,lower,3.5762786865234375e-07,0.543605;0.893516;0.028629;0.383839;2.126599;1.154214;2.392264,1.081841;0.000000;1.172179;0.077018;0.005832;0.000369;0.000048,1,right
247,0.37352254323348244,98.98452748519665,0.14596046881449173,102.12319061391777,6.61015510559082e-05,0.1297188550233841,0.0,0.5714285969734192,0,4,left_arm_joint3,upper,0.028723955154418945,right_arm_joint6,upper,4.76837158203125e-06,0.543733;0.893485;0.028724;0.383826;2.126671;1.154274;2.392202,1.084123;0.000006;1.170815;0.076513;0.007799;0.000005;0.000049,1,right
248,0.37352901710474173,98.45121124882814,0.14475433376065797,101.62316130622821,6.719146767864004e-05,0.12833774089813232,0.0,0.5714285969734192,0,4,left_arm_joint3,upper,0.028819561004638672,right_arm_joint2,lower,5.9604644775390625e-06,0.543862;0.893454;0.028820;0.383809;2.126744;1.154336;2.392138,1.086657;0.000006;1.167609;0.077014;0.007723;0.000082;0.000041,1,right
249,0.37317882874297564,97.97097689217837,0.14317829062393134,117.970810371366,6.628036499023438e-05,0.12656372785568237,0.0,0.5714285969734192,0,4,left_arm_joint3,upper,0.028914690017700195,right_arm_joint2,lower,0.0,0.543990;0.893421;0.028915;0.383795;2.126818;1.154397;2.392079,1.088460;0.000000;1.163503;0.078330;0.008694;0.000367;0.000037,1,right
250,0.3729321457796785,97.72274812837937,0.14182024765854384,153.0363651499854,6.679126818198711e-05,0.1252930462360382,0.0,0.4285714626312256,0,3,left_arm_joint3,upper,0.029010772705078125,right_arm_joint6,upper,5.245208740234375e-06,0.544118;0.893389;0.029011;0.383780;2.126890;1.154459;2.392017,1.089558;0.000007;1.159829;0.077590;0.012314;0.000005;0.000044,1,right
251,0.3727829447516617,97.53908606467809,0.1401308474841431,102.28981631999059,6.646769907092676e-05,0.12332268059253693,0.0,0.4285714626312256,0,3,left_arm_joint3,upper,0.02910637855529785,right_arm_joint2,lower,1.9669532775878906e-05,0.544247;0.893358;0.029106;0.383766;2.126963;1.154521;2.391956,1.090770;0.000020;1.156883;0.078828;0.012715;0.000190;0.000033,1,right
252,0.37267801756677127,97.53094705152556,0.1383195429947859,102.5452035138585,6.708929140586406e-05,0.12096892297267914,0.0,0.4285714626312256,0,3,left_arm_joint3,upper,0.029203414916992188,right_arm_joint2,lower,-8.344650268554688e-07,0.544376;0.893325;0.029203;0.383751;2.127036;1.154582;2.391896,1.089853;-0.000001;1.153980;0.081303;0.012137;0.000369;0.000036,1,right
253,0.3721146375874591,97.4131012743302,0.13722877506487605,68.28221801960576,6.653581658611074e-05,0.11980515718460083,0.0,0.4285714626312256,0,3,left_arm_joint3,upper,0.029299259185791016,right_arm_joint6,upper,5.245208740234375e-06,0.544505;0.893293;0.029299;0.383736;2.127110;1.154643;2.391836,1.087256;0.000006;1.153303;0.081158;0.013054;0.000005;0.000041,1,right
254,0.3718721715100318,97.60361609021822,0.13582863282797158,118.2278456506508,6.771939661120996e-05,0.11813540756702423,0.0,0.4285714626312256,0,3,left_arm_joint3,upper,0.029395341873168945,right_arm_joint2,lower,2.0265579223632812e-05,0.544635;0.893261;0.029395;0.383721;2.127182;1.154706;2.391770,1.085135;0.000020;1.152356;0.083282;0.011595;0.000238;0.000030,1,right
255,0.3716406701922534,97.62055186397696,0.13447722056671269,154.05515383444333,6.68253269395791e-05,0.11737401783466339,0.0,0.4285714626312256,0,3,left_arm_joint3,upper,0.029491662979125977,right_arm_joint2,lower,-1.3113021850585938e-06,0.544764;0.893228;0.029492;0.383707;2.127256;1.154766;2.391709,1.082042;-0.000001;1.151013;0.086165;0.011391;0.000262;0.000032,1,right
256,0.37137771785993273,97.39002994190422,0.13447834884054313,152.8727543550348,6.725958519382402e-05,0.11791396886110306,0.0,0.4285714626312256,0,3,left_arm_joint3,upper,0.02958846092224121,right_arm_joint6,upper,2.86102294921875e-06,0.544894;0.893195;0.029588;0.383691;2.127330;1.154827;2.391648,1.080609;0.000006;1.150140;0.085905;0.012956;0.000003;0.000042,1,right
257,0.3714059253918325,97.25444013317798,0.13416428710055303,152.28303623562908,6.699562072753906e-05,0.11819487810134888,0.0,0.4285714626312256,0,3,left_arm_joint3,upper,0.029684782028198242,right_arm_joint2,lower,1.5735626220703125e-05,0.545023;0.893163;0.029685;0.383677;2.127403;1.154891;2.391587,1.081426;0.000016;1.149471;0.087385;0.012363;0.000148;0.000034,1,right
258,0.37139425756819583,97.10502748340639,0.13429337267189975,153.35248039753657,6.80855373502709e-05,0.11811168491840363,0.0,0.4285714626312256,0,3,left_arm_joint3,upper,0.02978205680847168,right_arm_joint2,lower,2.384185791015625e-07,0.545153;0.893131;0.029782;0.383662;2.127477;1.154953;2.391522,1.081997;0.000000;1.147461;0.088492;0.012188;0.000305;0.000031,1,right
259,0.3711818527970568,97.0342013338973,0.13439376895799476,153.47623491741447,6.724255945300683e-05,0.11885832250118256,0.0,0.4285714626312256,0,3,left_arm_joint3,upper,0.029878616333007812,right_arm_joint6,upper,4.291534423828125e-06,0.545284;0.893098;0.029879;0.383646;2.127552;1.155014;2.391463,1.082297;0.000008;1.147278;0.088081;0.014442;0.000004;0.000039,1,right
260,0.3710161233017667,97.01590670945819,0.13403004355954526,152.68292613105422,6.779602699680254e-05,0.11856825649738312,0.0,0.4285714626312256,0,3,left_arm_joint3,upper,0.029975414276123047,right_arm_joint2,lower,1.8596649169921875e-05,0.545414;0.893065;0.029975;0.383630;2.127625;1.155077;2.391400,1.083377;0.000019;1.145755;0.089412;0.015404;0.000152;0.000031,1,right
261,0.3708406243370171,97.13103902776224,0.13369523272835263,151.63856662655007,6.80088996887207e-05,0.11826243251562119,0.0,0.4285714626312256,0,3,left_arm_joint3,upper,0.030073165893554688,right_arm_joint2,lower,0.0,0.545544;0.893034;0.030073;0.383616;2.127700;1.155139;2.391335,1.083869;0.000000;1.142604;0.091151;0.017487;0.000304;0.000031,1,right
262,0.37057495182473427,97.21537093796488,0.13407595716112106,151.0759403401993,6.782157288398594e-05,0.11887271702289581,0.0,0.4285714626312256,0,3,left_arm_joint3,upper,0.03016972541809082,right_arm_joint6,upper,3.814697265625e-06,0.545675;0.893001;0.030170;0.383601;2.127774;1.155203;2.391272,1.084083;0.000008;1.141193;0.090958;0.021089;0.000004;0.000038,1,right
263,0.3707445051853427,97.24344396848778,0.13411482547498402,150.98211090758357,6.764275894965976e-05,0.11878492683172226,0.0,0.4285714626312256,0,3,left_arm_joint3,upper,0.030267715454101562,right_arm_joint2,lower,1.811981201171875e-05,0.545805;0.892967;0.030268;0.383586;2.127848;1.155264;2.391211,1.084771;0.000018;1.139692;0.092636;0.021736;0.000166;0.000031,1,right
264,0.370882159747441,97.1314095279364,0.1338867603190927,151.52205195417034,6.760870019206777e-05,0.11831527948379517,0.0,0.4285714626312256,0,3,left_arm_joint3,upper,0.030364990234375,right_arm_joint2,lower,1.1920928955078125e-07,0.545936;0.892933;0.030365;0.383571;2.127923;1.155325;2.391151,1.084934;0.000000;1.137445;0.094130;0.022571;0.000278;0.000031,1,right
265,0.3707171405946104,96.7688828010834,0.13381085459559164,152.02456366901728,6.840059359092265e-05,0.11877015978097916,0.0,0.4285714626312256,0,3,left_arm_joint3,upper,0.030463218688964844,right_arm_joint6,upper,2.384185791015625e-06,0.546068;0.892902;0.030463;0.383556;2.127997;1.155388;2.391086,1.084792;0.000008;1.137107;0.094007;0.025193;0.000002;0.000038,1,right
266,0.37080914525427394,96.29483748078239,0.1333585153630432,151.6562114662659,6.857940752524883e-05,0.11815783381462097,0.0,0.4285714626312256,0,3,left_arm_joint3,upper,0.030560731887817383,right_arm_joint2,lower,2.0503997802734375e-05,0.546199;0.892868;0.030561;0.383541;2.128072;1.155451;2.391022,1.085172;0.000021;1.136186;0.095708;0.025107;0.000201;0.000032,1,right
