gaolecheng/EgoVLA_Release/ik_debug/Push-Box_room_1_table_2_episode_('episode_51.hdf5', 0.01127)_0_ik_debug.csv
step,left_pos_err_m,left_rot_err_deg,right_pos_err_m,right_rot_err_deg,left_joint_track_err,right_joint_track_err,left_near_limit_ratio,right_near_limit_ratio,left_near_limit_count,right_near_limit_count,left_worst_joint,left_worst_side,left_min_margin_rad,right_worst_joint,right_worst_side,right_min_margin_rad,left_joint_margin_rad_list,right_joint_margin_rad_list,ik_ignore_orientation,ik_active_arm
0,0.6768673751869647,133.2246455846165,0.11923929056143345,100.65340196052715,0.0030983176548033953,0.23273825645446777,0.0,0.4285714626312256,0,3,left_arm_joint1,lower,0.017429113388061523,right_arm_joint7,lower,0.0,0.017429;1.177740;0.349566;0.813103;2.354659;1.427223;1.961566,0.019387;0.000074;1.173943;0.000004;0.064621;0.156344;0.000000,1,right
1,0.6751262835721548,135.4591239499932,0.12771174971442034,91.23156204416476,0.0027982848696410656,0.2516244351863861,0.0,0.2857142984867096,0,2,left_arm_joint1,lower,0.01649785041809082,right_arm_joint7,lower,-4.76837158203125e-07,0.016498;1.181299;0.348748;0.815864;2.353705;1.427183;1.972091,0.038563;0.011603;1.155710;0.000001;0.078924;0.284226;-0.000000,1,right
2,0.6777292162210895,136.44546662851425,0.12859148143885588,100.29010598218632,0.002836840692907572,0.25486239790916443,0.0,0.2857142984867096,0,2,left_arm_joint1,lower,0.015555143356323242,right_arm_joint4,lower,2.384185791015625e-07,0.015555;1.184807;0.347964;0.818742;2.352817;1.427201;1.982930,0.058687;0.032623;1.136747;0.000000;0.089993;0.415480;0.000000,1,right
3,0.6805110680871013,137.6440426657692,0.12841179939342706,95.6355900034501,0.002919652732089162,0.2519221603870392,0.0,0.2857142984867096,0,2,left_arm_joint1,lower,0.01468205451965332,right_arm_joint7,lower,-2.384185791015625e-07,0.014682;1.188430;0.347132;0.821511;2.351903;1.427180;1.994336,0.073638;0.064711;1.116462;0.000000;0.103863;0.541663;-0.000000,1,right
4,0.6831938296198474,139.37164139432298,0.13033507180706827,88.23579547391502,0.0027544840704649687,0.25393179059028625,0.0,0.2857142984867096,0,2,left_arm_joint1,lower,0.013735294342041016,right_arm_joint4,lower,-6.9141387939453125e-06,0.013735;1.191988;0.346343;0.824535;2.350893;1.427195;2.004274,0.081145;0.097583;1.100993;-0.000007;0.110410;0.654436;0.000000,1,right
5,0.684713063420181,141.99006520382133,0.1323303468246472,80.71257386534481,0.002880816115066409,0.2564094662666321,0.0,0.2857142984867096,0,2,left_arm_joint1,lower,0.012863397598266602,right_arm_joint7,lower,2.384185791015625e-07,0.012863;1.195585;0.345519;0.827407;2.349980;1.427225;2.015333,0.098425;0.113378;1.085376;0.000003;0.111705;0.758886;0.000000,1,right
6,0.6862963779606165,144.08238317310202,0.13417282783185022,74.64642041302764,0.002968660555779934,0.2557089030742645,0.0,0.2857142984867096,0,2,left_arm_joint1,lower,0.012064218521118164,right_arm_joint4,lower,-1.1920928955078125e-06,0.012064;1.199284;0.344643;0.830228;2.348990;1.427220;2.026925,0.113982;0.113657;1.078153;-0.000001;0.120057;0.861723;0.000000,1,right
7,0.6877073750633649,145.94964563448903,0.13479266539147153,69.78191826731303,0.0030049087945371866,0.24928951263427734,0.0,0.2857142984867096,0,2,left_arm_joint1,lower,0.011224746704101562,right_arm_joint7,lower,-2.384185791015625e-07,0.011225;1.203084;0.343840;0.833000;2.347966;1.427197;2.038697,0.131962;0.103586;1.071345;0.000003;0.129992;0.956988;-0.000000,1,right
8,0.6886251386783069,147.60266959371594,0.13559473838765024,66.68391423251822,0.00306680821813643,0.24296285212039948,0.0,0.2857142984867096,0,2,left_arm_joint1,lower,0.01043081283569336,right_arm_joint7,lower,9.5367431640625e-07,0.010431;1.206928;0.343018;0.835745;2.346928;1.427162;2.050885,0.149850;0.082111;1.070891;0.000004;0.139905;1.037471;0.000001,1,right
9,0.6898755752972127,148.9246299409541,0.1372158906395555,65.36382580599951,0.0031946429517120123,0.2391742765903473,0.1428571492433548,0.2857142984867096,1,2,left_arm_joint1,lower,0.00971221923828125,right_arm_joint7,lower,2.384185791015625e-07,0.009712;1.210861;0.342156;0.838406;2.345877;1.427104;2.063966,0.164922;0.055636;1.074018;0.000005;0.147391;1.097489;0.000000,1,right
10,0.6907938770382128,149.90478747343198,0.1391068695189031,65.5087828024251,0.0033666323870420456,0.23657464981079102,0.1428571492433548,0.2857142984867096,1,2,left_arm_joint1,lower,0.009080171585083008,right_arm_joint7,lower,2.384185791015625e-07,0.009080;1.214877;0.341236;0.840983;2.344820;1.427023;2.078248,0.174789;0.029051;1.077688;0.000004;0.155498;1.134963;0.000000,1,right
11,0.6913809385003276,150.1707026588618,0.14025553219031564,65.70155011981657,0.003556111129000783,0.23664967715740204,0.1428571492433548,0.2857142984867096,1,2,left_arm_joint1,lower,0.008557796478271484,right_arm_joint7,lower,-7.152557373046875e-07,0.008558;1.218991;0.340238;0.843468;2.343760;1.426919;2.093858,0.179890;0.015281;1.079965;0.000001;0.159240;1.156249;-0.000001,1,right
12,0.6933895207338618,150.141250831022,0.1386652857308584,65.71075888278014,0.0037710200995206833,0.232784241437912,0.1428571492433548,0.2857142984867096,1,2,left_arm_joint1,lower,0.008160591125488281,right_arm_joint7,lower,-2.384185791015625e-07,0.008161;1.223206;0.339143;0.845850;2.342702;1.426791;2.110980,0.181947;0.010068;1.081132;0.000000;0.161143;1.167998;-0.000000,1,right
13,0.6951257198439972,150.56628325788546,0.13700736654095635,65.82571632094647,0.004549707751721144,0.22778916358947754,0.1428571492433548,0.4285714626312256,1,3,left_arm_joint1,lower,0.008309364318847656,right_arm_joint4,lower,-1.6689300537109375e-06,0.008309;1.227511;0.337693;0.847775;2.342004;1.426615;2.134125,0.183486;0.008178;1.081393;-0.000002;0.162542;1.173095;-0.000001,1,right
14,0.6970109031771686,150.96677727854012,0.1355881850073142,65.87693822769582,0.004385279957205057,0.22271423041820526,0.1428571492433548,0.4285714626312256,1,3,left_arm_joint1,lower,0.008295059204101562,right_arm_joint7,lower,-7.152557373046875e-07,0.008295;1.232028;0.336225;0.849961;2.340879;1.426420;2.155316,0.183761;0.006586;1.081907;0.000000;0.162627;1.173164;-0.000001,1,right
15,0.6979620607307158,151.43777189307403,0.135972210882005,66.35820635734802,0.004157735034823418,0.21986205875873566,0.1428571492433548,0.4285714626312256,1,3,left_arm_joint1,lower,0.008199691772460938,right_arm_joint7,lower,-4.76837158203125e-07,0.008200;1.236723;0.335022;0.851952;2.339782;1.426234;2.175154,0.183437;0.002805;1.083133;0.000001;0.162055;1.169371;-0.000000,1,right
16,0.6977218102572829,152.0094396496256,0.13688594495024264,66.91708778999005,0.004365976434201002,0.22212927043437958,0.1428571492433548,0.4285714626312256,1,3,left_arm_joint1,lower,0.008239984512329102,right_arm_joint7,lower,-9.5367431640625e-07,0.008240;1.241611;0.333738;0.853792;2.338671;1.426020;2.196338,0.182993;0.001008;1.083436;0.000002;0.163342;1.164411;-0.000001,1,right
17,0.6970129527737278,152.48391477267967,0.13725913584044852,67.54878532480305,0.004557831212878227,0.22389888763427734,0.1428571492433548,0.4285714626312256,1,3,left_arm_joint1,lower,0.008419990539550781,right_arm_joint7,lower,-7.152557373046875e-07,0.008420;1.246663;0.332373;0.855492;2.337561;1.425788;2.218604,0.182827;0.000237;1.083073;0.000003;0.163253;1.161920;-0.000001,1,right
18,0.6964381444353495,152.92800265385185,0.13609624643444662,68.19436680607676,0.0048178392462432384,0.222433403134346,0.1428571492433548,0.4285714626312256,1,3,left_arm_joint1,lower,0.008795022964477539,right_arm_joint7,lower,-2.384185791015625e-07,0.008795;1.251907;0.330862;0.857005;2.336400;1.425519;2.242256,0.182358;0.000116;1.082323;0.000003;0.163735;1.158410;-0.000000,1,right
19,0.6956437014801633,153.5564944801501,0.1350325149464075,68.76266366777111,0.00519644794985652,0.2207087278366089,0.1428571492433548,0.4285714626312256,1,3,left_arm_joint1,lower,0.009418725967407227,right_arm_joint7,lower,-4.76837158203125e-07,0.009419;1.257437;0.329194;0.858237;2.335244;1.425193;2.268097,0.181034;0.000110;1.082110;0.000003;0.163298;1.153235;-0.000000,1,right
20,0.6948542135076836,154.129929255653,0.13439436041339542,69.2171153537503,0.005200075451284647,0.21919061243534088,0.0,0.4285714626312256,0,3,left_arm_joint1,lower,0.01009058952331543,right_arm_joint7,lower,2.384185791015625e-07,0.010091;1.263181;0.327564;0.859345;2.334079;1.424872;2.293856,0.180053;0.000108;1.082172;0.000004;0.162416;1.147951;0.000000,1,right
21,0.6941607822573568,154.70053425887636,0.13424127762281507,69.78170093187151,0.005223904736340046,0.2187497615814209,0.0,0.4285714626312256,0,3,left_arm_joint1,lower,0.010830879211425781,right_arm_joint7,lower,2.384185791015625e-07,0.010831;1.269105;0.325936;0.860365;2.332922;1.424566;2.319647,0.178754;0.000099;1.081783;0.000001;0.163838;1.141114;0.000000,1,right
22,0.6932281229076468,155.27430982147055,0.13397998747369236,70.00372171052462,0.005320872645825148,0.2181045562028885,0.0,0.4285714626312256,0,3,left_arm_joint1,lower,0.011699914932250977,right_arm_joint7,lower,-4.76837158203125e-07,0.011700;1.275223;0.324250;0.861246;2.331751;1.424254;2.345857,0.178103;0.000097;1.081838;0.000005;0.163378;1.137150;-0.000000,1,right
23,0.6922127571187955,155.91468613524464,0.1335723514217671,70.15207373643534,0.005448247771710157,0.21677908301353455,0.0,0.4285714626312256,0,3,left_arm_joint1,lower,0.012721061706542969,right_arm_joint7,lower,7.152557373046875e-07,0.012721;1.281548;0.322481;0.861968;2.330571;1.423931;2.372655,0.177258;0.000105;1.081781;0.000004;0.162217;1.133329;0.000001,1,right
24,0.6923804678838169,156.49350812936143,0.13261595749807267,70.61587915531872,0.005588548723608255,0.21359771490097046,0.0,0.4285714626312256,0,3,left_arm_joint1,lower,0.013904333114624023,right_arm_joint7,lower,2.384185791015625e-07,0.013904;1.288077;0.320613;0.862544;2.329359;1.423634;2.400110,0.176738;0.000107;1.082023;0.000004;0.162042;1.130676;0.000000,1,right
25,0.6926308898275281,157.1438813745931,0.13126203825921545,71.57028086044049,0.0057052080519497395,0.21063469350337982,0.0,0.4285714626312256,0,3,left_arm_joint1,lower,0.015250205993652344,right_arm_joint7,lower,4.76837158203125e-07,0.015250;1.294802;0.318649;0.862982;2.328146;1.423337;2.428063,0.176137;0.000105;1.081980;0.000003;0.161390;1.126829;0.000000,1,right
26,0.6923966216288739,157.87783421868306,0.130106073277843,72.49779149781611,0.005810405593365431,0.20819075405597687,0.0,0.4285714626312256,0,3,left_arm_joint1,lower,0.016760826110839844,right_arm_joint7,lower,-4.76837158203125e-07,0.016761;1.301714;0.316590;0.863279;2.326947;1.423035;2.456455,0.175298;0.000104;1.081928;0.000004;0.161214;1.122293;-0.000000,1,right
27,0.6919876495666352,158.45512461133777,0.128795840767636,74.20633097721135,0.0058931284584105015,0.20725102722644806,0.0,0.4285714626312256,0,3,left_arm_joint1,lower,0.018431425094604492,right_arm_joint7,lower,0.0,0.018431;1.308805;0.314443;0.863439;2.325794;1.422701;2.485152,0.174761;0.000099;1.081520;0.000004;0.162452;1.116789;0.000000,1,right
28,0.69056702972311,159.29793137216103,0.12792378478537078,75.2589685929862,0.006003797519952059,0.20639583468437195,0.0,0.4285714626312256,0,3,left_arm_joint1,lower,0.020267248153686523,right_arm_joint7,lower,0.0,0.020267;1.316061;0.312187;0.863490;2.324634;1.422394;2.514313,0.174227;0.000096;1.081281;0.000005;0.162495;1.113698;0.000000,1,right
29,0.6888113076047129,160.16643626747558,0.12688844910049193,76.03998710464423,0.00608246261253953,0.20501817762851715,0.0,0.4285714626312256,0,3,left_arm_joint1,lower,0.022271156311035156,right_arm_joint7,lower,2.384185791015625e-07,0.022271;1.323464;0.309824;0.863441;2.323503;1.422091;2.543637,0.173813;0.000098;1.081187;0.000005;0.161834;1.111283;0.000000,1,right
30,0.6882871620868076,161.15886916618447,0.12528054118336213,76.91509858977658,0.006176812574267387,0.20366083085536957,0.0,0.4285714626312256,0,3,left_arm_joint1,lower,0.02443528175354004,right_arm_joint7,lower,-4.76837158203125e-07,0.024435;1.331007;0.307359;0.863301;2.322404;1.421791;2.573164,0.173778;0.000100;1.081285;0.000005;0.161713;1.111233;-0.000000,1,right
31,0.6869953925492214,162.10629654450995,0.12431889154119942,77.77429124956096,0.006247831508517265,0.20275069773197174,0.0,0.4285714626312256,0,3,left_arm_joint1,lower,0.02675938606262207,right_arm_joint7,lower,0.0,0.026759;1.338674;0.304790;0.863082;2.321346;1.421497;2.602769,0.173879;0.000099;1.081278;0.000004;0.161655;1.111531;0.000000,1,right
32,0.6850592781834058,163.04967233519386,0.12400075609749386,78.18982064432605,0.006332678720355034,0.20242911577224731,0.0,0.4285714626312256,0,3,left_arm_joint1,lower,0.029238224029541016,right_arm_joint7,lower,0.0,0.029238;1.346453;0.302121;0.862800;2.320322;1.421207;2.632573,0.173928;0.000099;1.081281;0.000005;0.161598;1.111762;0.000000,1,right
33,0.6835564772592796,163.5462994009198,0.12371837890258554,78.31434241316543,0.004358470439910889,0.2020677924156189,0.0,0.4285714626312256,0,3,left_arm_joint1,lower,0.030086278915405273,right_arm_joint7,lower,-2.384185791015625e-07,0.030086;1.352192;0.300034;0.863426;2.319468;1.420240;2.651960,0.174000;0.000099;1.081296;0.000004;0.161479;1.112211;-0.000000,1,right
34,0.6833190016819461,163.57013872359147,0.12366079145699108,77.97564386296489,0.0012597058666869998,0.20233526825904846,0.0,0.4285714626312256,0,3,left_arm_joint1,lower,0.028975963592529297,right_arm_joint7,lower,0.0,0.028976;1.352982;0.299099;0.864293;2.319299;1.418823;2.655490,0.174161;0.000097;1.081323;0.000003;0.161230;1.113145;0.000000,1,right
35,0.6831525480420094,163.69274860111923,0.12357435981412929,77.5625047561318,0.0013639458920806646,0.20239828526973724,0.0,0.4285714626312256,0,3,left_arm_joint1,lower,0.0278322696685791,right_arm_joint7,lower,-4.76837158203125e-07,0.027832;1.353819;0.298187;0.865246;2.319153;1.417390;2.659613,0.174317;0.000097;1.081353;0.000003;0.160956;1.114125;-0.000000,1,right
36,0.6841281315182497,163.82214100313251,0.12386288950650608,78.19349686128635,0.0014009390724822879,0.2040359526872635,0.0,0.4285714626312256,0,3,left_arm_joint1,lower,0.026684284210205078,right_arm_joint7,lower,-2.384185791015625e-07,0.026684;1.354667;0.297286;0.866201;2.318993;1.415960;2.663977,0.175019;0.000096;1.081045;0.000003;0.161449;1.116906;-0.000000,1,right
37,0.685357916170499,163.76552275008018,0.12299762524754267,79.85586455025229,0.0014158147387206554,0.20394901931285858,0.0,0.4285714626312256,0,3,left_arm_joint1,lower,0.025536060333251953,right_arm_joint7,lower,-2.384185791015625e-07,0.025536;1.355532;0.296391;0.867190;2.318837;1.414530;2.668405,0.175622;0.000095;1.080585;0.000002;0.161364;1.120512;-0.000000,1,right
38,0.6865730062756382,163.70412888589513,0.12129635787364484,82.35759107362527,0.0014572186628356576,0.20203335583209991,0.0,0.4285714626312256,0,3,left_arm_joint1,lower,0.024382352828979492,right_arm_joint7,lower,0.0,0.024382;1.356416;0.295509;0.868189;2.318669;1.413105;2.673094,0.176308;0.000096;1.080197;0.000002;0.161838;1.124106;0.000000,1,right
39,0.6878712099447996,163.46391134322582,0.11872993456438201,85.31747444273144,0.0014878554502502084,0.19918222725391388,0.0,0.4285714626312256,0,3,left_arm_joint1,lower,0.023227691650390625,right_arm_joint7,lower,2.384185791015625e-07,0.023228;1.357313;0.294637;0.869223;2.318452;1.411682;2.677912,0.177153;0.000096;1.079946;0.000002;0.162096;1.129009;0.000000,1,right
40,0.6880383247198952,163.55611126707552,0.1179886209610777,85.80042581307667,0.0016061238711699843,0.19872163236141205,0.0,0.4285714626312256,0,3,left_arm_joint1,lower,0.022040367126464844,right_arm_joint7,lower,4.76837158203125e-07,0.022040;1.358250;0.293777;0.870287;2.318103;1.410360;2.683434,0.178363;0.000094;1.079672;0.000001;0.162285;1.135411;0.000000,1,right
41,0.688417793149658,163.58603345041334,0.11756607755221665,86.39821070699072,0.0016233879141509533,0.19876523315906525,0.0,0.4285714626312256,0,3,left_arm_joint1,lower,0.020844221115112305,right_arm_joint7,lower,-4.76837158203125e-07,0.020844;1.359208;0.292924;0.871338;2.317749;1.409062;2.689088,0.179674;0.000093;1.079340;0.000000;0.162530;1.142306;-0.000000,1,right
42,0.6885981454376322,163.63375890533834,0.11760895235210934,86.91945573868489,0.0016667076852172613,0.19925221800804138,0.0,0.4285714626312256,0,3,left_arm_joint1,lower,0.0196378231048584,right_arm_joint4,lower,2.384185791015625e-07,0.019638;1.360168;0.292076;0.872429;2.317394;1.407755;2.694988,0.180943;0.000093;1.078947;0.000000;0.162915;1.149004;0.000000,1,right
43,0.6884211913259408,163.7761765684919,0.11797580188700449,86.92390960517444,0.0016730044735595584,0.19996675848960876,0.0,0.4285714626312256,0,3,left_arm_joint1,lower,0.01844167709350586,right_arm_joint4,lower,0.0,0.018442;1.361147;0.291235;0.873535;2.317034;1.406461;2.700923,0.182129;0.000092;1.078577;0.000000;0.163181;1.155348;0.000000,1,right
44,0.6877701057250656,163.9811308041345,0.11822260812951708,86.30488115906077,0.0016951519064605236,0.20022299885749817,0.0,0.4285714626312256,0,3,left_arm_joint1,lower,0.017242908477783203,right_arm_joint4,lower,-4.76837158203125e-07,0.017243;1.362137;0.290401;0.874656;2.316672;1.405171;2.706993,0.183255;0.000091;1.078208;-0.000000;0.163387;1.161335;-0.000000,1,right
45,0.6871005431126297,164.17137353303312,0.11888357213372103,85.55079190471619,0.0017211140366271138,0.20141051709651947,0.0,0.4285714626312256,0,3,left_arm_joint1,lower,0.016045093536376953,right_arm_joint7,lower,-4.76837158203125e-07,0.016045;1.363144;0.289577;0.875796;2.316306;1.403887;2.713222,0.184347;0.000084;1.077772;-0.000000;0.164448;1.167665;-0.000000,1,right
46,0.686330169047903,164.4664427057227,0.11979987709138272,84.40959397733063,0.0017263209447264671,0.20269450545310974,0.0,0.4285714626312256,0,3,left_arm_joint1,lower,0.014862537384033203,right_arm_joint4,lower,-2.384185791015625e-07,0.014863;1.364161;0.288765;0.876952;2.315937;1.402583;2.719465,0.185622;0.000083;1.077474;-0.000000;0.164391;1.174141;-0.000000,1,right
47,0.6858348030749695,164.80724319452216,0.12063697460050067,83.22054053219695,0.0017652554670348763,0.20440085232257843,0.0,0.4285714626312256,0,3,left_arm_joint1,lower,0.013671636581420898,right_arm_joint4,lower,-7.152557373046875e-07,0.013672;1.365193;0.287959;0.878127;2.315562;1.401295;2.725956,0.186686;0.000082;1.076824;-0.000001;0.164482;1.181384;0.000000,1,right
48,0.6864019455491646,165.38326418046432,0.12161739256636872,81.99265395424024,0.0017866408452391624,0.20712384581565857,0.0,0.4285714626312256,0,3,left_arm_joint1,lower,0.012479782104492188,right_arm_joint4,lower,-1.1920928955078125e-06,0.012480;1.366239;0.287160;0.879320;2.315185;1.400012;2.732573,0.187838;0.000081;1.076202;-0.000001;0.165248;1.190747;-0.000000,1,right
49,0.6872547441536475,165.75953125566386,0.12256158713779654,81.09075223223316,0.001807685475796461,0.21000990271568298,0.0,0.4285714626312256,0,3,left_arm_joint1,lower,0.011277914047241211,right_arm_joint4,lower,-7.152557373046875e-07,0.011278;1.367310;0.286371;0.880510;2.314802;1.398760;2.739340,0.188608;0.000068;1.075451;-0.000001;0.169480;1.204264;-0.000000,1,right
50,0.6884736234055522,165.9516237276587,0.12288942339567706,81.21754242733287,0.0018439420964568853,0.212306410074234,0.0,0.4285714626312256,0,3,left_arm_joint1,lower,0.010071039199829102,right_arm_joint4,lower,-2.86102294921875e-06,0.010071;1.368395;0.285592;0.881743;2.314418;1.397507;2.746306,0.188706;0.000341;1.075979;-0.000003;0.169362;1.221308;0.000000,1,right
51,0.6901432259113128,166.23774748182768,0.12318425696257342,81.27879834337706,0.0018651358550414443,0.21446889638900757,0.1428571492433548,0.4285714626312256,1,3,left_arm_joint1,lower,0.008871793746948242,right_arm_joint4,lower,-5.4836273193359375e-06,0.008872;1.369490;0.284816;0.882989;2.314029;1.396261;2.753410,0.188752;0.000305;1.077114;-0.000005;0.171188;1.244208;-0.000001,1,right
52,0.6905680266497165,166.6713404120743,0.12349566766468098,79.117620625108,0.001890936167910695,0.2143031805753708,0.1428571492433548,0.4285714626312256,1,3,left_arm_joint1,lower,0.0076715946197509766,right_arm_joint7,lower,-2.384185791015625e-07,0.007672;1.370603;0.284050;0.884255;2.313637;1.395025;2.760674,0.189943;0.000422;1.076852;0.000000;0.169940;1.267345;-0.000000,1,right
53,0.690683932221823,167.14340924173737,0.12385936332314307,76.47612514142563,0.0019000641768798232,0.21285943686962128,0.1428571492433548,0.4285714626312256,1,3,left_arm_joint1,lower,0.006468296051025391,right_arm_joint4,lower,-2.384185791015625e-07,0.006468;1.371743;0.283295;0.885548;2.313241;1.393805;2.767967,0.189028;0.000019;1.076754;-0.000000;0.170727;1.289687;0.000001,1,right
54,0.6905778509953153,167.8158350198633,0.12400015270784402,74.10910618990967,0.0019457468297332525,0.21002337336540222,0.1428571492433548,0.4285714626312256,1,3,left_arm_joint1,lower,0.005265951156616211,right_arm_joint4,lower,7.152557373046875e-07,0.005266;1.372892;0.282546;0.886854;2.312840;1.392585;2.775560,0.191163;0.000020;1.076820;0.000001;0.169744;1.308520;0.000002,1,right
55,0.6895860341919968,168.69371304110047,0.1247899889044479,71.49454122548826,0.001967053394764662,0.20805901288986206,0.1428571492433548,0.4285714626312256,1,3,left_arm_joint1,lower,0.004065036773681641,right_arm_joint4,lower,-2.86102294921875e-06,0.004065;1.374056;0.281804;0.888179;2.312437;1.391371;2.783281,0.189835;0.000024;1.077921;-0.000003;0.170777;1.323377;0.000002,1,right
56,0.6881267345665127,169.4709715860409,0.12533285701009395,69.0914502648247,0.001987585099413991,0.20801779627799988,0.1428571492433548,0.4285714626312256,1,3,left_arm_joint1,lower,0.0028765201568603516,right_arm_joint4,lower,-2.1457672119140625e-06,0.002877;1.375237;0.281075;0.889524;2.312028;1.390135;2.791105,0.189040;0.000029;1.079351;-0.000002;0.168968;1.336107;0.000001,1,right
57,0.6867776044687113,170.11110063170548,0.12596168175502842,67.06398959303007,0.002129659056663513,0.20881567895412445,0.1428571492433548,0.4285714626312256,1,3,left_arm_joint1,lower,0.0016608238220214844,right_arm_joint4,lower,-1.1920928955078125e-06,0.001661;1.376434;0.280346;0.890935;2.311628;1.388970;2.799894,0.188186;0.000037;1.081257;-0.000001;0.168218;1.347869;0.000001,1,right
58,0.6857032919109639,170.6828172433723,0.1269016603858763,65.23022912405901,0.0019360014703124762,0.21007685363292694,0.1428571492433548,0.4285714626312256,1,3,left_arm_joint1,lower,0.00045013427734375,right_arm_joint4,lower,-1.6689300537109375e-06,0.000450;1.377727;0.279663;0.892296;2.311212;1.387788;2.807301,0.187285;0.000037;1.082465;-0.000002;0.168641;1.359550;0.000001,1,right
59,0.6847637375154432,171.20891296669726,0.12841534261121695,64.12631043287372,0.001731962081976235,0.21257860958576202,0.1428571492433548,0.4285714626312256,1,3,left_arm_joint1,lower,-1.430511474609375e-06,right_arm_joint7,lower,-2.384185791015625e-07,-0.000001;1.378783;0.279553;0.893648;2.310702;1.386434;2.814590,0.184621;0.000045;1.084650;0.000003;0.180253;1.368942;-0.000000,1,right
60,0.6839142195273181,171.7360176079162,0.12932081459159017,63.09337105596227,0.0016250589396804571,0.21385537087917328,0.1428571492433548,0.4285714626312256,1,3,left_arm_joint1,lower,-2.86102294921875e-06,right_arm_joint7,lower,2.384185791015625e-07,-0.000003;1.379710;0.279779;0.894996;2.310149;1.384975;2.821451,0.185807;0.000039;1.083512;0.000004;0.176613;1.377973;0.000000,1,right
61,0.6836967631081647,172.25112138206646,0.13072290390256816,62.214719317622766,0.0016488262917846441,0.21620699763298035,0.1428571492433548,0.4285714626312256,1,3,left_arm_joint1,lower,-2.86102294921875e-06,right_arm_joint7,lower,-4.76837158203125e-07,-0.000003;1.380653;0.280014;0.896362;2.309596;1.383517;2.828439,0.185889;0.000041;1.083296;0.000003;0.177011;1.386787;-0.000000,1,right
62,0.684261386993566,172.52334557669508,0.13158784065765353,61.924698898829185,0.0016730236820876598,0.21796591579914093,0.1428571492433548,0.4285714626312256,1,3,left_arm_joint1,lower,-2.86102294921875e-06,right_arm_joint7,lower,-7.152557373046875e-07,-0.000003;1.381613;0.280254;0.897745;2.309041;1.382063;2.835557,0.186477;0.000035;1.082530;0.000005;0.176541;1.396412;-0.000001,1,right
63,0.6848658973309095,172.63754230276407,0.13255671417327114,61.95696576204347,0.0017048142617568374,0.21996678411960602,0.1428571492433548,0.4285714626312256,1,3,left_arm_joint1,lower,-1.9073486328125e-06,right_arm_joint4,lower,2.193450927734375e-05,-0.000002;1.382596;0.280504;0.899153;2.308484;1.380617;2.842848,0.186564;0.000030;1.081600;0.000022;0.178504;1.406958;0.000422,1,right
64,0.6849125628489828,172.85094046975226,0.13251515228482916,61.369581328934004,0.0017105001024901867,0.22064907848834991,0.1428571492433548,0.4285714626312256,1,3,left_arm_joint1,lower,-2.384185791015625e-06,right_arm_joint2,upper,3.2186508178710938e-06,-0.000002;1.383596;0.280757;0.900590;2.307941;1.379176;2.850146,0.186140;0.000003;1.080868;0.000017;0.181234;1.409596;0.001369,1,right
65,0.6847359079582014,173.00440742058416,0.1323569556767721,60.92295397947014,0.0017557868268340826,0.22088409960269928,0.1428571492433548,0.4285714626312256,1,3,left_arm_joint1,lower,-3.0994415283203125e-06,right_arm_joint2,upper,2.1457672119140625e-06,-0.000003;1.384618;0.281022;0.902039;2.307378;1.377742;2.857703,0.185946;0.000002;1.080479;0.000069;0.181421;1.410821;0.002884,1,right
66,0.6843231932051947,173.29973226776687,0.13328588250630344,60.495708882803235,0.0017663794569671154,0.2230529934167862,0.1428571492433548,0.4285714626312256,1,3,left_arm_joint1,lower,-2.6226043701171875e-06,right_arm_joint2,upper,3.170967102050781e-05,-0.000003;1.385660;0.281290;0.903519;2.306832;1.376314;2.865302,0.186430;0.000032;1.079899;0.000110;0.181259;1.412038;0.003160,1,right
67,0.6834638857962991,173.55071745160362,0.13432854397132274,60.12470497013506,0.0017957390518859029,0.22580444812774658,0.1428571492433548,0.4285714626312256,1,3,left_arm_joint1,lower,-3.0994415283203125e-06,right_arm_joint2,upper,3.409385681152344e-05,-0.000003;1.386726;0.281570;0.905022;2.306283;1.374893;2.873054,0.186341;0.000034;1.079891;0.000115;0.181341;1.411790;0.002980,1,right
68,0.6823873378173249,173.64230856995297,0.13410828402218958,60.00124897670134,0.0018178672762587667,0.2259756326675415,0.1428571492433548,0.4285714626312256,1,3,left_arm_joint1,lower,-3.0994415283203125e-06,right_arm_joint2,upper,1.4662742614746094e-05,-0.000003;1.387812;0.281855;0.906544;2.305732;1.373478;2.880920,0.186049;0.000015;1.080357;0.000109;0.181543;1.411350;0.003242,1,right
69,0.6819105962040869,173.7068191351919,0.13366536930960632,59.91025811818396,0.0018527550855651498,0.22552746534347534,0.1428571492433548,0.4285714626312256,1,3,left_arm_joint1,lower,-1.9073486328125e-06,right_arm_joint2,upper,3.1113624572753906e-05,-0.000002;1.388923;0.282151;0.908092;2.305181;1.372070;2.888974,0.186141;0.000031;1.080179;0.000067;0.181204;1.411250;0.004056,1,right
70,0.6820568646433047,173.80886196989053,0.13340349760970255,59.950219854644075,0.0018796336371451616,0.2249649316072464,0.1428571492433548,0.4285714626312256,1,3,left_arm_joint1,lower,-1.6689300537109375e-06,right_arm_joint2,upper,2.956390380859375e-05,-0.000002;1.390054;0.282452;0.909662;2.304629;1.370669;2.897175,0.186128;0.000030;1.080372;0.000053;0.181090;1.410962;0.004917,1,right
71,0.6825151738359901,173.87687302444738,0.13311253798744296,60.02919005630865,0.001907535013742745,0.22398419678211212,0.1428571492433548,0.4285714626312256,1,3,left_arm_joint1,lower,-2.384185791015625e-06,right_arm_joint2,upper,1.8715858459472656e-05,-0.000002;1.391209;0.282760;0.911254;2.304075;1.369275;2.905524,0.185911;0.000019;1.081004;0.000045;0.180845;1.410407;0.005486,1,right
72,0.6828447344948956,173.9757894417199,0.13293835313491176,60.024553602430814,0.0019412031397223473,0.22325855493545532,0.1428571492433548,0.4285714626312256,1,3,left_arm_joint1,lower,-2.384185791015625e-06,right_arm_joint4,lower,1.1444091796875e-05,-0.000002;1.392390;0.283080;0.912872;2.303522;1.367890;2.914055,0.185824;0.000024;1.080982;0.000011;0.179568;1.407935;0.004651,1,right
73,0.6833020643115414,174.04765241257437,0.13300574870795623,60.038758733251406,0.0019644915591925383,0.22231140732765198,0.1428571492433548,0.4285714626312256,1,3,left_arm_joint1,lower,-2.6226043701171875e-06,right_arm_joint4,lower,1.2636184692382812e-05,-0.000003;1.393593;0.283405;0.914509;2.302968;1.366511;2.922709,0.185832;0.000031;1.081228;0.000013;0.180168;1.407280;0.003208,1,right
74,0.6838357926529897,174.1394757198447,0.13288976130945415,59.994286909629935,0.001997046172618866,0.22168020904064178,0.1428571492433548,0.4285714626312256,1,3,left_arm_joint1,lower,-2.6226043701171875e-06,right_arm_joint4,lower,1.1682510375976562e-05,-0.000003;1.394822;0.283738;0.916170;2.302412;1.365140;2.931538,0.185841;0.000036;1.081384;0.000012;0.179830;1.406487;0.002399,1,right
75,0.6846927018950106,174.31511613846075,0.13313076635747664,59.99517522369001,0.0020295053254812956,0.2217155247926712,0.1428571492433548,0.4285714626312256,1,3,left_arm_joint1,lower,-2.6226043701171875e-06,right_arm_joint4,lower,1.52587890625e-05,-0.000003;1.396077;0.284079;0.917857;2.301856;1.363777;2.940542,0.185860;0.000039;1.081419;0.000015;0.179620;1.405843;0.001700,1,right
76,0.6853008039246585,174.59197424406972,0.13335941000008045,59.91686432052919,0.0020555045921355486,0.22162000834941864,0.1428571492433548,0.4285714626312256,1,3,left_arm_joint1,lower,-2.6226043701171875e-06,right_arm_joint4,lower,2.0742416381835938e-05,-0.000003;1.397354;0.284426;0.919565;2.301299;1.362422;2.949686,0.185927;0.000040;1.081396;0.000021;0.179635;1.405714;0.001069,1,right
77,0.6862020372018733,174.81351843851056,0.13353011761037967,60.12794222565999,0.0020902359392493963,0.2216380089521408,0.1428571492433548,0.4285714626312256,1,3,left_arm_joint1,lower,-2.86102294921875e-06,right_arm_joint4,lower,2.1696090698242188e-05,-0.000003;1.398661;0.284783;0.921301;2.300741;1.361076;2.959015,0.186001;0.000034;1.081258;0.000022;0.179919;1.406317;0.000863,1,right
78,0.6865733073644775,175.12141546000805,0.13377042085561006,60.09317573403234,0.002116324845701456,0.2221343219280243,0.1428571492433548,0.4285714626312256,1,3,left_arm_joint1,lower,-2.384185791015625e-06,right_arm_joint4,lower,2.2172927856445312e-05,-0.000002;1.399991;0.285144;0.923058;2.300182;1.359737;2.968483,0.186046;0.000026;1.081084;0.000022;0.180257;1.407044;0.000865,1,right
79,0.6865569567714978,175.37190347313123,0.13381484433707835,60.031905476207854,0.002149770502001047,0.22263416647911072,0.1428571492433548,0.4285714626312256,1,3,left_arm_joint1,lower,-2.6226043701171875e-06,right_arm_joint4,lower,2.2172927856445312e-05,-0.000003;1.401349;0.285513;0.924841;2.299623;1.358409;2.978133,0.186016;0.000023;1.081035;0.000022;0.180413;1.407238;0.000917,1,right
80,0.6865463833385685,175.64598189488592,0.13368441190352176,60.00042627696149,0.002182050608098507,0.22235870361328125,0.1428571492433548,0.4285714626312256,1,3,left_arm_joint1,lower,-3.0994415283203125e-06,right_arm_joint2,upper,1.6808509826660156e-05,-0.000003;1.402736;0.285889;0.926649;2.299063;1.357090;2.987958,0.186058;0.000017;1.080953;0.000021;0.180552;1.407858;0.000993,1,right
81,0.6866419711111666,175.98966485768187,0.133550146705645,60.10145260209927,0.0022085465025156736,0.22213512659072876,0.1428571492433548,0.4285714626312256,1,3,left_arm_joint1,lower,-3.337860107421875e-06,right_arm_joint2,upper,1.3947486877441406e-05,-0.000003;1.404147;0.286271;0.928479;2.298502;1.355779;2.997922,0.186038;0.000014;1.080965;0.000020;0.180555;1.408043;0.001044,1,right
82,0.6873062064702472,176.32143558975355,0.13330559036884282,60.1498081034323,0.002244751900434494,0.2214926928281784,0.1428571492433548,0.4285714626312256,1,3,left_arm_joint1,lower,-2.86102294921875e-06,right_arm_joint2,upper,8.58306884765625e-06,-0.000003;1.405590;0.286661;0.930337;2.297940;1.354480;3.008083,0.186135;0.000009;1.080913;0.000016;0.180410;1.408579;0.001095,1,right
83,0.6880256729096063,176.661677294272,0.13323949706623875,60.09362461234351,0.002314129378646612,0.22107525169849396,0.1428571492433548,0.4285714626312256,1,3,left_arm_joint1,lower,-1.430511474609375e-06,right_arm_joint2,upper,4.649162292480469e-06,-0.000001;1.407045;0.287048;0.932232;2.297289;1.353224;3.013163,0.186197;0.000005;1.080824;0.000015;0.180439;1.409000;0.001248,1,right
84,0.6886455606988582,177.01570808363073,0.13366481650696477,60.00517668961127,0.002363669453188777,0.2215552031993866,0.1428571492433548,0.4285714626312256,1,3,left_arm_joint1,lower,-2.6226043701171875e-06,right_arm_joint2,upper,-5.960464477539062e-07,-0.000003;1.408537;0.287435;0.934134;2.296610;1.352005;3.002297,0.185780;-0.000001;1.080350;0.000016;0.182990;1.410242;0.001927,1,right
85,0.6890510524827675,177.4034504724721,0.1341610635383708,59.574116574786,0.002341944258660078,0.2223319560289383,0.1428571492433548,0.4285714626312256,1,3,left_arm_joint1,lower,-1.9073486328125e-06,right_arm_joint2,upper,2.491474151611328e-05,-0.000002;1.410031;0.287822;0.936037;2.295853;1.350840;2.991610,0.187344;0.000025;1.078217;0.000083;0.181245;1.415890;0.003516,1,right
86,0.6890445129762177,177.8432084603769,0.13522147779416385,59.15569259802023,0.0023289816454052925,0.22386613488197327,0.1428571492433548,0.4285714626312256,1,3,left_arm_joint1,lower,-3.5762786865234375e-06,right_arm_joint2,upper,3.218650817871094e-05,-0.000004;1.411578;0.288236;0.937869;2.295133;1.349599;2.981063,0.188012;0.000032;1.076023;0.000144;0.182020;1.419484;0.003173,1,right
87,0.6888175182756365,178.02429626922324,0.13639680713705643,58.65407882990008,0.0010386141948401928,0.22584201395511627,0.1428571492433548,0.4285714626312256,1,3,left_arm_joint1,lower,2.384185791015625e-07,right_arm_joint2,upper,1.9550323486328125e-05,0.000000;1.412300;0.288139;0.938934;2.294484;1.347897;2.978031,0.189301;0.000020;1.073367;0.000066;0.182353;1.425679;0.002577,1,right
88,0.6883136421300168,178.09170078338164,0.1367713522035299,58.505258752208945,0.0006187835242599249,0.22713522613048553,0.1428571492433548,0.4285714626312256,1,3,left_arm_joint1,lower,2.384185791015625e-07,right_arm_joint2,upper,1.728534698486328e-05,0.000000;1.412635;0.287813;0.939624;2.293881;1.346014;2.978526,0.189481;0.000017;1.072933;0.000084;0.183021;1.427295;0.002775,1,right
89,0.6873584584151985,178.04385971568055,0.13700481856642072,58.762854034602064,0.0006028541829437017,0.2277873009443283,0.1428571492433548,0.4285714626312256,1,3,left_arm_joint1,lower,0.0,right_arm_joint2,upper,1.609325408935547e-05,0.000000;1.412975;0.287487;0.940324;2.293332;1.344093;2.978909,0.189416;0.000016;1.072927;0.000081;0.183038;1.427179;0.002622,1,right
90,0.6866515532309951,178.13909613029554,0.13645066257284572,58.907172644162024,0.000628214911557734,0.22669664025306702,0.1428571492433548,0.4285714626312256,1,3,left_arm_joint1,lower,7.152557373046875e-07,right_arm_joint2,upper,1.8715858459472656e-05,0.000001;1.413323;0.287160;0.941031;2.292768;1.342150;2.979417,0.189427;0.000019;1.073045;0.000074;0.183014;1.426972;0.002471,1,right
91,0.6859831155097385,178.19668874726503,0.13644738618760108,58.96917419610021,0.0006283436669036746,0.22679084539413452,0.1428571492433548,0.4285714626312256,1,3,left_arm_joint1,lower,1.430511474609375e-06,right_arm_joint2,upper,1.8715858459472656e-05,0.000001;1.413678;0.286831;0.941744;2.292192;1.340206;2.979897,0.189317;0.000019;1.072992;0.000075;0.182992;1.426731;0.002529,1,right
92,0.6850425533836381,178.2443944765062,0.13654837635014586,58.98362311161239,0.0002291899872943759,0.22721154987812042,0.1428571492433548,0.4285714626312256,1,3,left_arm_joint1,lower,9.5367431640625e-07,right_arm_joint2,upper,1.3828277587890625e-05,0.000001;1.413775;0.286726;0.942014;2.292107;1.339348;2.980085,0.189343;0.000014;1.073064;0.000041;0.182970;1.427332;0.003368,1,right
93,0.6843637848022086,178.29763941031018,0.13671438421822854,58.9595003200246,0.00023045710986480117,0.227398082613945,0.1428571492433548,0.4285714626312256,1,3,left_arm_joint1,lower,9.5367431640625e-07,right_arm_joint2,upper,1.0013580322265625e-05,0.000001;1.413857;0.286623;0.942284;2.292015;1.338456;2.980261,0.189326;0.000010;1.072842;0.000064;0.183123;1.427515;0.003647,1,right
94,0.6840070553863219,178.2613949772877,0.13697596195252332,58.87108792377493,0.00021646918321494013,0.22806569933891296,0.1428571492433548,0.4285714626312256,1,3,left_arm_joint1,lower,-2.384185791015625e-07,right_arm_joint2,upper,1.2636184692382812e-05,-0.000000;1.413941;0.286527;0.942547;2.291784;1.337641;2.980285,0.189414;0.000013;1.072881;0.000072;0.183094;1.427425;0.003029,1,right
95,0.6837344403638156,178.26118696269126,0.1370366409368826,58.80573979715881,0.00021807797020301223,0.2286626547574997,0.1428571492433548,0.4285714626312256,1,3,left_arm_joint1,lower,0.0,right_arm_joint2,upper,1.1324882507324219e-05,0.000000;1.414013;0.286428;0.942789;2.291426;1.336884;2.980286,0.189413;0.000011;1.072877;0.000067;0.183086;1.427514;0.003063,1,right
96,0.6833726170411716,178.27460036931896,0.13722142666210876,58.77667592494287,0.00021872084471397102,0.22957277297973633,0.1428571492433548,0.4285714626312256,1,3,left_arm_joint1,lower,-2.384185791015625e-07,right_arm_joint2,upper,9.059906005859375e-06,-0.000000;1.414085;0.286329;0.943031;2.291069;1.336126;2.980286,0.189422;0.000009;1.072845;0.000062;0.183127;1.427759;0.003230,1,right
97,0.6829760177611478,178.2762728961347,0.13718801361292682,58.72833931137383,0.00021961863967590034,0.23000521957874298,0.1428571492433548,0.4285714626312256,1,3,left_arm_joint1,lower,0.0,right_arm_joint2,upper,5.841255187988281e-06,0.000000;1.414159;0.286230;0.943276;2.290711;1.335365;2.980287,0.189441;0.000006;1.072798;0.000058;0.183175;1.428057;0.003414,1,right
98,0.6825572906124128,178.25972477871022,0.1373223839779947,58.65438710451957,0.0002200715389335528,0.2306736409664154,0.1428571492433548,0.4285714626312256,1,3,left_arm_joint1,lower,2.384185791015625e-07,right_arm_joint2,upper,5.9604644775390625e-06,0.000000;1.414232;0.286130;0.943521;2.290352;1.334602;2.980287,0.189423;0.000006;1.072796;0.000057;0.183184;1.428092;0.003473,1,right
99,0.6820638511777023,178.2610421977428,0.13732056750849675,58.472978059216096,0.00022134186292532831,0.23095811903476715,0.1428571492433548,0.4285714626312256,1,3,left_arm_joint1,lower,-4.76837158203125e-07,right_arm_joint2,upper,5.602836608886719e-06,-0.000000;1.414305;0.286029;0.943766;2.289991;1.333837;2.980282,0.189409;0.000006;1.072798;0.000057;0.183189;1.428088;0.003493,1,right
100,0.6815187641400028,178.16544789420828,0.13673483623033234,58.30681185951667,0.00022160421940498054,0.2301260381937027,0.1428571492433548,0.4285714626312256,1,3,left_arm_joint1,lower,0.0,right_arm_joint2,upper,4.291534423828125e-06,0.000000;1.414380;0.285929;0.944012;2.289631;1.333069;2.980284,0.189424;0.000004;1.072780;0.000054;0.183208;1.428211;0.003558,1,right
101,0.681300795842909,178.0445712589942,0.13610751575277627,58.13959100717499,0.0002227356453659013,0.22903819382190704,0.1428571492433548,0.4285714626312256,1,3,left_arm_joint1,lower,-2.384185791015625e-07,right_arm_joint2,upper,5.602836608886719e-06,-0.000000;1.414455;0.285828;0.944260;2.289270;1.332301;2.980289,0.189415;0.000006;1.072791;0.000057;0.183195;1.428138;0.003528,1,right
102,0.6812288799421846,177.94123032856763,0.13560123320339373,58.032917135295754,0.0002252943959319964,0.22802850604057312,0.1428571492433548,0.4285714626312256,1,3,left_arm_joint1,lower,0.0,right_arm_joint2,upper,4.649162292480469e-06,0.000000;1.414532;0.285728;0.944510;2.288906;1.331529;2.980274,0.189434;0.000005;1.072783;0.000056;0.183200;1.428186;0.003530,1,right
103,0.6809980449461316,177.8745353596234,0.135340934920481,57.93139746757765,0.00022479839390143752,0.2275003343820572,0.1428571492433548,0.4285714626312256,1,3,left_arm_joint1,lower,0.0,right_arm_joint2,upper,5.125999450683594e-06,0.000000;1.414607;0.285626;0.944757;2.288540;1.330754;2.980281,0.189436;0.000005;1.072785;0.000056;0.183195;1.428174;0.003522,1,right
104,0.6807674348566795,177.85846660006465,0.13516176875181007,57.854752094544594,0.0002261591871501878,0.227153941988945,0.1428571492433548,0.4285714626312256,1,3,left_arm_joint1,lower,0.0,right_arm_joint2,upper,5.841255187988281e-06,0.000000;1.414683;0.285523;0.945008;2.288175;1.329976;2.980292,0.189427;0.000006;1.072795;0.000057;0.183184;1.428101;0.003482,1,right
105,0.6806332086186828,177.84569757252635,0.1349674720576971,57.84723138276006,0.00022532313596457243,0.2268242985010147,0.1428571492433548,0.4285714626312256,1,3,left_arm_joint1,lower,0.0,right_arm_joint2,upper,5.841255187988281e-06,0.000000;1.414759;0.285421;0.945259;2.287808;1.329196;2.980292,0.189423;0.000006;1.072801;0.000058;0.183182;1.428055;0.003456,1,right
106,0.6806030703835887,177.86664176636313,0.1347894858171634,57.80004719848635,0.00022604636615142226,0.22617921233177185,0.1428571492433548,0.4285714626312256,1,3,left_arm_joint1,lower,0.0,right_arm_joint2,upper,5.0067901611328125e-06,0.000000;1.414836;0.285317;0.945509;2.287441;1.328413;2.980293,0.189458;0.000005;1.072777;0.000057;0.183198;1.428190;0.003494,1,right
107,0.6804177243903557,177.9310294987235,0.13477031430469252,57.77573722630403,0.00022784834436606616,0.226218581199646,0.1428571492433548,0.4285714626312256,1,3,left_arm_joint1,lower,2.384185791015625e-07,right_arm_joint2,upper,4.5299530029296875e-06,0.000000;1.414914;0.285213;0.945762;2.287073;1.327628;2.980302,0.189460;0.000005;1.072774;0.000057;0.183196;1.428221;0.003517,1,right
108,0.6801225637683234,177.92650713216594,0.13478013095417443,57.79638493772751,0.00022716607782058418,0.22623863816261292,0.1428571492433548,0.4285714626312256,1,3,left_arm_joint1,lower,2.384185791015625e-07,right_arm_joint2,upper,5.4836273193359375e-06,0.000000;1.414991;0.285109;0.946014;2.286704;1.326842;2.980303,0.189448;0.000005;1.072785;0.000058;0.183191;1.428155;0.003489,1,right
109,0.6796411683143184,177.8548068964854,0.13463900272689902,57.83596265058709,0.00022811975213699043,0.2259121537208557,0.1428571492433548,0.4285714626312256,1,3,left_arm_joint1,lower,2.384185791015625e-07,right_arm_joint2,upper,5.125999450683594e-06,0.000000;1.415069;0.285005;0.946268;2.286336;1.326055;2.980297,0.189455;0.000005;1.072782;0.000057;0.183191;1.428163;0.003482,1,right
110,0.679339336617129,177.64810732110487,0.13439750729710734,57.85158551641438,0.00022870143584441394,0.22543489933013916,0.1428571492433548,0.4285714626312256,1,3,left_arm_joint1,lower,4.76837158203125e-07,right_arm_joint2,upper,7.748603820800781e-06,0.000000;1.415147;0.284901;0.946523;2.285965;1.325264;2.980295,0.189420;0.000008;1.072821;0.000062;0.183157;1.427920;0.003365,1,right
111,0.6789615313234681,177.56992587951845,0.13422209133851817,57.87981399328644,0.00022990204161033034,0.2248789370059967,0.1428571492433548,0.4285714626312256,1,3,left_arm_joint1,lower,0.0,right_arm_joint2,upper,9.179115295410156e-06,0.000000;1.415226;0.284796;0.946777;2.285592;1.324470;2.980299,0.189412;0.000009;1.072846;0.000065;0.183128;1.427761;0.003262,1,right
112,0.678635680364064,177.42968403649493,0.13419099816850447,57.89728845870144,0.00023116118973121047,0.22457027435302734,0.1428571492433548,0.4285714626312256,1,3,left_arm_joint1,lower,0.0,right_arm_joint2,upper,1.2159347534179688e-05,0.000000;1.415306;0.284690;0.947034;2.285219;1.323674;2.980293,0.189386;0.000012;1.072888;0.000070;0.183087;1.427506;0.003118,1,right
113,0.6786815310831181,177.319669907456,0.13404916018876037,57.96373561757866,0.00023175671231001616,0.22404997050762177,0.1428571492433548,0.4285714626312256,1,3,left_arm_joint1,lower,0.0,right_arm_joint2,upper,1.5139579772949219e-05,0.000000;1.415385;0.284584;0.947291;2.284844;1.322875;2.980287,0.189356;0.000015;1.072937;0.000077;0.183043;1.427212;0.002948,1,right
114,0.6785834900048654,177.1603360024655,0.13393804435881076,58.0475459270541,0.00023343361681327224,0.22360831499099731,0.1428571492433548,0.4285714626312256,1,3,left_arm_joint1,lower,-4.76837158203125e-07,right_arm_joint2,upper,1.6689300537109375e-05,-0.000000;1.415466;0.284477;0.947549;2.284469;1.322075;2.980275,0.189293;0.000017;1.072978;0.000070;0.183023;1.426888;0.002795,1,right
115,0.678550990089575,177.0425345932678,0.13369065729233706,58.09659114884566,0.0002329381532035768,0.2227509617805481,0.1428571492433548,0.4285714626312256,1,3,left_arm_joint1,lower,-2.384185791015625e-07,right_arm_joint2,upper,1.3589859008789062e-05,-0.000000;1.415546;0.284370;0.947807;2.284093;1.321270;2.980269,0.189347;0.000014;1.073068;0.000041;0.182965;1.427414;0.003613,1,right
116,0.6783174128196369,176.93986873991355,0.133537539107821,58.15715440309057,0.00023427447013091296,0.2222105711698532,0.1428571492433548,0.4285714626312256,1,3,left_arm_joint1,lower,-2.384185791015625e-07,right_arm_joint2,upper,1.4066696166992188e-05,-0.000000;1.415627;0.284263;0.948066;2.283717;1.320464;2.980259,0.189309;0.000014;1.073091;0.000038;0.182951;1.427417;0.004160,1,right
117,0.6780937601279187,176.88299968496244,0.13338151837846865,58.2121085016143,0.0002345054381294176,0.2214358150959015,0.1428571492433548,0.4285714626312256,1,3,left_arm_joint1,lower,-2.384185791015625e-07,right_arm_joint2,upper,1.4901161193847656e-05,-0.000000;1.415707;0.284156;0.948326;2.283340;1.319657;2.980250,0.189306;0.000015;1.073119;0.000037;0.182927;1.427361;0.004380,1,right
118,0.6781649527307754,176.86918854529986,0.1334632634919846,58.2477005134393,0.00023636381956748664,0.22110190987586975,0.1428571492433548,0.4285714626312256,1,3,left_arm_joint1,lower,0.0,right_arm_joint2,upper,1.5020370483398438e-05,0.000000;1.415789;0.284047;0.948587;2.282959;1.318845;2.980241,0.189311;0.000015;1.073159;0.000035;0.182898;1.427287;0.004507,1,right
119,0.6780896191811031,176.8205653717994,0.13351762322876184,58.29258274645039,0.00023748248349875212,0.22091293334960938,0.1428571492433548,0.4285714626312256,1,3,left_arm_joint1,lower,-2.384185791015625e-07,right_arm_joint2,upper,1.609325408935547e-05,-0.000000;1.415871;0.283939;0.948850;2.282577;1.318031;2.980227,0.189317;0.000016;1.073215;0.000031;0.182862;1.427205;0.004626,1,right
120,0.6780026123421533,176.79702875237487,0.13366000251298923,58.36196150387999,0.00023829512065276504,0.22106711566448212,0.1428571492433548,0.4285714626312256,1,3,left_arm_joint1,lower,2.384185791015625e-07,right_arm_joint2,upper,1.6689300537109375e-05,0.000000;1.415955;0.283830;0.949113;2.282195;1.317214;2.980214,0.189321;0.000017;1.073222;0.000032;0.182857;1.427231;0.004703,1,right
121,0.6779270905572876,176.8055821384806,0.13364411206677573,58.402194412049695,0.00023897524806670845,0.2211507111787796,0.1428571492433548,0.4285714626312256,1,3,left_arm_joint1,lower,-2.384185791015625e-07,right_arm_joint2,upper,1.704692840576172e-05,-0.000000;1.416039;0.283719;0.949377;2.281813;1.316393;2.980202,0.189311;0.000017;1.073264;0.000029;0.182830;1.427146;0.004791,1,right
122,0.6780087393827415,176.84623443689443,0.13365284515515516,58.4425448921966,0.00023934192722663283,0.2211829125881195,0.1428571492433548,0.4285714626312256,1,3,left_arm_joint1,lower,0.0,right_arm_joint2,upper,1.6689300537109375e-05,0.000000;1.416123;0.283609;0.949642;2.281430;1.315573;2.980191,0.189314;0.000017;1.073219;0.000032;0.182862;1.427277;0.004805,1,right
123,0.678100411812573,176.8930383916458,0.1335129269314785,58.45247995725726,0.00023988103203009814,0.2211240828037262,0.1428571492433548,0.4285714626312256,1,3,left_arm_joint1,lower,-2.384185791015625e-07,right_arm_joint2,upper,1.52587890625e-05,-0.000000;1.416206;0.283499;0.949907;2.281046;1.314751;2.980177,0.189311;0.000015;1.073180;0.000034;0.182890;1.427333;0.004747,1,right
124,0.6781929878732188,176.9502531098005,0.13347945357127441,58.42131239222205,0.00024040203425101936,0.22115831077098846,0.1428571492433548,0.4285714626312256,1,3,left_arm_joint1,lower,-2.384185791015625e-07,right_arm_joint2,upper,1.5139579772949219e-05,-0.000000;1.416291;0.283388;0.950173;2.280661;1.313927;2.980164,0.189302;0.000015;1.073190;0.000032;0.182888;1.427293;0.004719,1,right
125,0.6783198244737146,176.9754416734065,0.13366902755820512,58.42912891365687,0.00024149248201865703,0.22164000570774078,0.1428571492433548,0.4285714626312256,1,3,left_arm_joint1,lower,-2.384185791015625e-07,right_arm_joint2,upper,1.5020370483398438e-05,-0.000000;1.416375;0.283278;0.950439;2.280273;1.313098;2.980150,0.189296;0.000015;1.073181;0.000033;0.182893;1.427315;0.004706,1,right
126,0.678303902145585,176.99966720986316,0.13379791401503816,58.42308585825569,0.00024269575078506023,0.2222190648317337,0.1428571492433548,0.4285714626312256,1,3,left_arm_joint1,lower,-2.384185791015625e-07,right_arm_joint2,upper,1.5974044799804688e-05,-0.000000;1.416461;0.283166;0.950707;2.279886;1.312266;2.980137,0.189278;0.000016;1.073231;0.000028;0.182862;1.427201;0.004768,1,right
127,0.6782775862040631,177.03884737787078,0.13393039037166918,58.410777104177335,0.00024395011132583022,0.2225130945444107,0.1428571492433548,0.4285714626312256,1,3,left_arm_joint1,lower,2.384185791015625e-07,right_arm_joint2,upper,1.4662742614746094e-05,0.000000;1.416547;0.283054;0.950978;2.279496;1.311431;2.980123,0.189280;0.000015;1.073175;0.000033;0.182905;1.427345;0.004760,1,right
128,0.6780493217403848,177.05182356300628,0.1340592087690072,58.3910079991537,0.00024454350932501256,0.2230418175458908,0.1428571492433548,0.4285714626312256,1,3,left_arm_joint1,lower,-2.384185791015625e-07,right_arm_joint2,upper,1.4424324035644531e-05,-0.000000;1.416633;0.282941;0.951247;2.279105;1.310594;2.980108,0.189259;0.000014;1.073192;0.000030;0.182899;1.427289;0.004759,1,right
129,0.6778440711784951,177.06905794635793,0.13428810854418308,58.40019403084757,0.0002454178757034242,0.22351373732089996,0.1428571492433548,0.4285714626312256,1,3,left_arm_joint1,lower,-7.152557373046875e-07,right_arm_joint2,upper,1.3828277587890625e-05,-0.000001;1.416721;0.282829;0.951518;2.278714;1.309754;2.980093,0.189259;0.000014;1.073159;0.000032;0.182922;1.427368;0.004729,1,right
130,0.6777493312046553,177.10296302828144,0.13468666959326636,58.40471341525009,0.0002458255330566317,0.2241552472114563,0.1428571492433548,0.4285714626312256,1,3,left_arm_joint1,lower,0.0,right_arm_joint2,upper,1.3470649719238281e-05,0.000000;1.416808;0.282714;0.951790;2.278322;1.308913;2.980078,0.189264;0.000013;1.073140;0.000034;0.182934;1.427396;0.004675,1,right
131,0.6775581451181794,177.08502159041169,0.13499430571680765,58.39987606774402,0.00024684306117706,0.22479291260242462,0.1428571492433548,0.4285714626312256,1,3,left_arm_joint1,lower,-7.152557373046875e-07,right_arm_joint2,upper,1.3709068298339844e-05,-0.000001;1.416896;0.282600;0.952063;2.277930;1.308069;2.980064,0.189254;0.000014;1.073148;0.000033;0.182934;1.427367;0.004652,1,right
132,0.6774161614365906,177.03941948098554,0.13511167177288222,58.424063559992824,0.00024697292246855795,0.2250186651945114,0.1428571492433548,0.4285714626312256,1,3,left_arm_joint1,lower,-4.76837158203125e-07,right_arm_joint2,upper,1.3470649719238281e-05,-0.000000;1.416985;0.282486;0.952335;2.277537;1.307223;2.980049,0.189254;0.000013;1.073139;0.000034;0.182943;1.427387;0.004636,1,right
133,0.6773957244282005,177.03104002675556,0.13514826379624442,58.4386099543852,0.000249086762778461,0.22516866028308868,0.1428571492433548,0.4285714626312256,1,3,left_arm_joint1,lower,4.76837158203125e-07,right_arm_joint2,upper,1.239776611328125e-05,0.000000;1.417074;0.282371;0.952611;2.277140;1.306371;2.980034,0.189268;0.000012;1.073097;0.000035;0.182976;1.427522;0.004605,1,right
134,0.6773450742569288,177.0163504678312,0.13508415698481369,58.453865326575674,0.0001488966663600877,0.22507120668888092,0.1428571492433548,0.4285714626312256,1,3,left_arm_joint1,lower,-2.384185791015625e-07,right_arm_joint2,upper,1.1324882507324219e-05,-0.000000;1.417127;0.282303;0.952773;2.276902;1.305866;2.980019,0.189284;0.000011;1.073069;0.000034;0.182994;1.427623;0.004584,1,right
135,0.6772628625268516,177.01961492732525,0.1351214316280342,58.452444815539955,2.8855035907326965e-06,0.22550252079963684,0.1428571492433548,0.4285714626312256,1,3,left_arm_joint1,lower,-4.76837158203125e-07,right_arm_joint2,upper,1.0609626770019531e-05,-0.000000;1.417126;0.282302;0.952773;2.276903;1.305863;2.980004,0.189262;0.000011;1.073066;0.000033;0.183006;1.427608;0.004577,1,right
136,0.6772390217271106,176.98948072928187,0.13503829511352153,58.445005875749544,2.387911081314087e-06,0.22553695738315582,0.1428571492433548,0.4285714626312256,1,3,left_arm_joint1,lower,-2.384185791015625e-07,right_arm_joint2,upper,1.0251998901367188e-05,-0.000000;1.417127;0.282302;0.952773;2.276904;1.305863;2.979989,0.189261;0.000010;1.073056;0.000034;0.183016;1.427651;0.004579,1,right
137,0.6770911988794716,176.95209069876566,0.13504919000817858,58.4528442593221,2.660921836650232e-06,0.2256757915019989,0.1428571492433548,0.4285714626312256,1,3,left_arm_joint1,lower,2.384185791015625e-07,right_arm_joint2,upper,8.940696716308594e-06,0.000000;1.417127;0.282303;0.952773;2.276904;1.305864;2.979975,0.189291;0.000009;1.073030;0.000033;0.183038;1.427815;0.004602,1,right
138,0.6769555844349695,176.9241018296085,0.13501468711664585,58.419695429895036,2.9264817840157775e-06,0.2257457673549652,0.1428571492433548,0.4285714626312256,1,3,left_arm_joint1,lower,-4.76837158203125e-07,right_arm_joint2,upper,1.0609626770019531e-05,-0.000000;1.417126;0.282302;0.952773;2.276903;1.305863;2.979959,0.189265;0.000011;1.072922;0.000056;0.183116;1.427467;0.004210,1,right
139,0.6769156319905275,176.88524924988326,0.13496824446313777,58.34027717613671,2.4634814508317504e-06,0.22547714412212372,0.1428571492433548,0.4285714626312256,1,3,left_arm_joint1,lower,-2.384185791015625e-07,right_arm_joint2,upper,1.1682510375976562e-05,-0.000000;1.417127;0.282302;0.952774;2.276903;1.305863;2.979945,0.189302;0.000012;1.072861;0.000070;0.183130;1.427310;0.003236,1,right
140,0.6767097037628572,176.838285561812,0.13498336460442417,58.2952100418139,2.473592758178711e-06,0.22539207339286804,0.1428571492433548,0.4285714626312256,1,3,left_arm_joint1,lower,-4.76837158203125e-07,right_arm_joint2,upper,1.5497207641601562e-05,-0.000000;1.417127;0.282302;0.952774;2.276903;1.305862;2.979930,0.189467;0.000015;1.072920;0.000082;0.183120;1.427423;0.002634,1,right
141,0.6764920349543149,176.78032847195917,0.1351337884503366,58.2935534425527,3.082943976551178e-06,0.22563332319259644,0.1428571492433548,0.4285714626312256,1,3,left_arm_joint1,lower,4.76837158203125e-07,right_arm_joint2,upper,1.3947486877441406e-05,0.000000;1.417127;0.282303;0.952774;2.276904;1.305864;2.979915,0.189434;0.000014;1.072892;0.000077;0.183139;1.427336;0.002347,1,right
142,0.6766047045369812,176.73306341625238,0.13537311497970086,58.28482583116182,2.915837967520929e-06,0.22605615854263306,0.1428571492433548,0.4285714626312256,1,3,left_arm_joint1,lower,-2.384185791015625e-07,right_arm_joint2,upper,1.1563301086425781e-05,-0.000000;1.417127;0.282302;0.952773;2.276903;1.305863;2.979900,0.189411;0.000012;1.072813;0.000079;0.183174;1.427353;0.002159,1,right
143,0.6764963914350716,176.68852530530717,0.13557413286351833,58.24632937411653,2.455498588460614e-06,0.22636465728282928,0.1428571492433548,0.4285714626312256,1,3,left_arm_joint1,lower,-2.384185791015625e-07,right_arm_joint2,upper,1.0132789611816406e-05,-0.000000;1.417127;0.282302;0.952774;2.276904;1.305863;2.979885,0.189454;0.000010;1.072753;0.000082;0.183195;1.427550;0.002049,1,right
144,0.6764976895746981,176.62703297287115,0.135680074872145,58.17703099401687,2.5773688321351074e-06,0.2265194058418274,0.1428571492433548,0.4285714626312256,1,3,left_arm_joint1,lower,2.384185791015625e-07,right_arm_joint2,upper,8.940696716308594e-06,0.000000;1.417127;0.282302;0.952774;2.276903;1.305862;2.979870,0.190051;0.000009;1.072147;0.000060;0.183099;1.429052;0.002351,1,right
145,0.6765074504767185,176.55042343800565,0.1357116365013242,58.17536537981819,2.6800803425430786e-06,0.2266962230205536,0.1428571492433548,0.4285714626312256,1,3,left_arm_joint1,lower,-4.76837158203125e-07,right_arm_joint2,upper,9.417533874511719e-06,-0.000000;1.417127;0.282302;0.952774;2.276903;1.305863;2.979855,0.190047;0.000009;1.072033;0.000075;0.183084;1.428879;0.002587,1,right
146,0.6764721687373015,176.45984481563644,0.1356379902849316,58.14408340007036,2.266041065013269e-06,0.2265494018793106,0.1428571492433548,0.4285714626312256,1,3,left_arm_joint1,lower,-2.384185791015625e-07,right_arm_joint2,upper,8.702278137207031e-06,-0.000000;1.417127;0.282302;0.952773;2.276903;1.305863;2.979841,0.190060;0.000009;1.072028;0.000072;0.183086;1.428918;0.002592,1,right
147,0.6764695892806531,176.36554351678393,0.13548095691009596,58.11168537817979,2.3974905616341857e-06,0.22674599289894104,0.1428571492433548,0.4285714626312256,1,3,left_arm_joint1,lower,-4.76837158203125e-07,right_arm_joint2,upper,5.4836273193359375e-06,-0.000000;1.417127;0.282302;0.952774;2.276904;1.305864;2.979826,0.190124;0.000005;1.071975;0.000068;0.183130;1.429257;0.002714,1,right
148,0.6763915675634506,176.2781969526882,0.135348596503398,58.11706836035974,2.595995283627417e-06,0.2269367128610611,0.1428571492433548,0.4285714626312256,1,3,left_arm_joint1,lower,-2.384185791015625e-07,right_arm_joint2,upper,2.86102294921875e-06,-0.000000;1.417127;0.282303;0.952774;2.276904;1.305863;2.979811,0.190154;0.000003;1.071936;0.000063;0.183171;1.429516;0.002852,1,right
149,0.6763473753856971,176.19779420197872,0.13515193191028535,58.117464497014424,2.483704292899347e-06,0.22710363566875458,0.1428571492433548,0.4285714626312256,1,3,left_arm_joint1,lower,-7.152557373046875e-07,right_arm_joint2,upper,3.5762786865234375e-07,-0.000001;1.417127;0.282302;0.952774;2.276904;1.305863;2.979796,0.190200;0.000000;1.071890;0.000058;0.183211;1.429821;0.003001,1,right
150,0.6763215368595952,176.11335084467558,0.13506800414420442,58.10940113016437,2.363430667173816e-06,0.22726187109947205,0.1428571492433548,0.4285714626312256,1,3,left_arm_joint1,lower,0.0,right_arm_joint2,upper,-1.1920928955078125e-07,0.000000;1.417127;0.282302;0.952774;2.276903;1.305863;2.979782,0.190258;-0.000000;1.071939;0.000058;0.183225;1.430138;0.003081,1,right
151,0.6763700163144863,176.08001568398447,0.13505309688878683,58.06979775710075,2.3777997739671264e-06,0.22746998071670532,0.1428571492433548,0.4285714626312256,1,3,left_arm_joint1,lower,-4.76837158203125e-07,right_arm_joint2,upper,-2.2649765014648438e-06,-0.000000;1.417127;0.282302;0.952774;2.276903;1.305863;2.979767,0.190283;-0.000002;1.071904;0.000054;0.183246;1.430317;0.003186,1,right
152,0.6764563868967276,176.0455351207901,0.13502330733170467,58.06320989027197,2.376735210418701e-06,0.2279025763273239,0.1428571492433548,0.4285714626312256,1,3,left_arm_joint1,lower,-2.384185791015625e-07,right_arm_joint2,upper,-4.410743713378906e-06,-0.000000;1.417127;0.282302;0.952774;2.276903;1.305863;2.979752,0.190335;-0.000004;1.071852;0.000050;0.183285;1.430617;0.003330,1,right
153,0.6763949111235615,176.01813173397468,0.13489393449797799,58.06380379859693,2.4677387955307495e-06,0.22794723510742188,0.1428571492433548,0.4285714626312256,1,3,left_arm_joint1,lower,-2.384185791015625e-07,right_arm_joint2,upper,-5.7220458984375e-06,-0.000000;1.417127;0.282302;0.952773;2.276904;1.305864;2.979738,0.190364;-0.000006;1.071820;0.000047;0.183311;1.430812;0.003443,1,right
154,0.6765016676371363,176.02637970914526,0.13489478974501445,58.05167973394307,2.2825386167824036e-06,0.22786705195903778,0.1428571492433548,0.4285714626312256,1,3,left_arm_joint1,lower,-2.384185791015625e-07,right_arm_joint2,upper,-4.76837158203125e-06,-0.000000;1.417127;0.282302;0.952774;2.276904;1.305863;2.979723,0.191407;-0.000005;1.071038;0.000031;0.183406;1.432698;0.003978,1,right
155,0.6765002875471913,176.03630269409177,0.13484440041098453,58.06639245636779,2.7050930384575622e-06,0.22793227434158325,0.1428571492433548,0.4285714626312256,1,3,left_arm_joint1,lower,2.384185791015625e-07,right_arm_joint2,upper,-7.62939453125e-06,0.000000;1.417127;0.282302;0.952774;2.276903;1.305862;2.979708,0.191303;-0.000008;1.070917;0.000034;0.183515;1.432918;0.004303,1,right
156,0.6766597794610588,176.03292289287475,0.13484962351860788,58.05244124781719,2.6321838504372863e-06,0.2280890941619873,0.1428571492433548,0.4285714626312256,1,3,left_arm_joint1,lower,-2.384185791015625e-07,right_arm_joint2,upper,-7.867813110351562e-06,-0.000000;1.417127;0.282302;0.952774;2.276904;1.305863;2.979693,0.191338;-0.000008;1.070895;0.000034;0.183528;1.433067;0.004384,1,right
157,0.6766669407918008,176.0434001165393,0.13482645412191582,58.048045000845576,2.2655087832390564e-06,0.22805817425251007,0.1428571492433548,0.4285714626312256,1,3,left_arm_joint1,lower,0.0,right_arm_joint2,upper,-7.867813110351562e-06,0.000000;1.417127;0.282302;0.952774;2.276904;1.305863;2.979679,0.191344;-0.000008;1.070893;0.000034;0.183532;1.433096;0.004412,1,right
158,0.6767455657263511,176.00310961527873,0.13477893340262034,58.02768035592458,2.5661929612397216e-06,0.22811706364154816,0.1428571492433548,0.4285714626312256,1,3,left_arm_joint1,lower,-2.384185791015625e-07,right_arm_joint2,upper,-8.225440979003906e-06,-0.000000;1.417128;0.282302;0.952774;2.276903;1.305864;2.979664,0.191360;-0.000008;1.070878;0.000033;0.183545;1.433184;0.004455,1,right
159,0.6768363053570046,175.97917992266105,0.13473858649427692,58.00015577454073,2.3884433630882995e-06,0.22814112901687622,0.1428571492433548,0.4285714626312256,1,3,left_arm_joint1,lower,0.0,right_arm_joint2,upper,-8.344650268554688e-06,0.000000;1.417128;0.282302;0.952774;2.276904;1.305863;2.979650,0.191367;-0.000008;1.070870;0.000030;0.183548;1.433241;0.004497,1,right
160,0.6768397848498089,175.94814192411803,0.13487960552046827,57.935640323591336,2.263380110889557e-06,0.2279626429080963,0.1428571492433548,0.4285714626312256,1,3,left_arm_joint1,lower,-2.384185791015625e-07,right_arm_joint2,upper,7.748603820800781e-06,-0.000000;1.417128;0.282302;0.952774;2.276904;1.305863;2.979636,0.193951;0.000008;1.069391;0.000049;0.183562;1.437137;0.005150,1,right
161,0.6769708930630237,175.87708095310646,0.13492851032805567,57.959611141910955,2.418245685475995e-06,0.22794009745121002,0.1428571492433548,0.4285714626312256,1,3,left_arm_joint1,lower,-2.384185791015625e-07,right_arm_joint2,upper,-9.655952453613281e-06,-0.000000;1.417127;0.282303;0.952774;2.276904;1.305863;2.979621,0.193464;-0.000010;1.069171;0.000019;0.183836;1.437370;0.005533,1,right
162,0.6769575108215072,175.86816357549534,0.13490482394141026,57.958103885162046,2.3692846298217773e-06,0.22808346152305603,0.1428571492433548,0.4285714626312256,1,3,left_arm_joint1,lower,-2.384185791015625e-07,right_arm_joint2,upper,-9.894371032714844e-06,-0.000000;1.417127;0.282302;0.952774;2.276903;1.305863;2.979607,0.193494;-0.000010;1.069155;0.000019;0.183840;1.437478;0.005507,1,right
163,0.6769444311513251,175.83751521453755,0.13506357468807273,57.91073304827855,2.3714135295449523e-06,0.2281152606010437,0.1428571492433548,0.4285714626312256,1,3,left_arm_joint1,lower,-4.76837158203125e-07,right_arm_joint2,upper,-9.298324584960938e-06,-0.000000;1.417127;0.282302;0.952773;2.276903;1.305863;2.979592,0.194649;-0.000009;1.068276;0.000018;0.183829;1.439640;0.005863,1,right
164,0.6767637491164669,175.8089631689966,0.13511988046930076,57.90010671276546,2.6077034362970153e-06,0.22776135802268982,0.1428571492433548,0.4285714626312256,1,3,left_arm_joint1,lower,0.0,right_arm_joint2,upper,-1.0371208190917969e-05,0.000000;1.417127;0.282302;0.952773;2.276904;1.305863;2.979578,0.195566;-0.000010;1.067443;0.000016;0.184083;1.441270;0.005988,1,right
165,0.6766178224888725,175.79771034050142,0.13498940390939412,57.92103714318628,2.345336497455719e-06,0.22757619619369507,0.1428571492433548,0.4285714626312256,1,3,left_arm_joint1,lower,-2.384185791015625e-07,right_arm_joint2,upper,-1.0013580322265625e-05,-0.000000;1.417127;0.282302;0.952774;2.276904;1.305863;2.979563,0.195595;-0.000010;1.067408;0.000016;0.184098;1.441387;0.006032,1,right
166,0.6764943066628216,175.8093520686131,0.13488378872438966,57.92801118942754,2.2937144876777893e-06,0.2275526523590088,0.1428571492433548,0.4285714626312256,1,3,left_arm_joint1,lower,-2.384185791015625e-07,right_arm_joint2,upper,-1.049041748046875e-05,-0.000000;1.417127;0.282302;0.952774;2.276903;1.305863;2.979549,0.195615;-0.000010;1.067401;0.000014;0.184113;1.441483;0.006071,1,right
167,0.6765526882371774,175.83696858172928,0.13478197245301946,57.90975301743677,2.1931316496193176e-06,0.22717459499835968,0.1428571492433548,0.4285714626312256,1,3,left_arm_joint1,lower,-4.76837158203125e-07,right_arm_joint2,upper,-1.0132789611816406e-05,-0.000000;1.417127;0.282302;0.952774;2.276904;1.305863;2.979534,0.195578;-0.000010;1.067409;0.000015;0.184096;1.441350;0.006039,1,right
168,0.6764916620958038,175.86913297746273,0.1347611668189846,57.88599488462205,2.3756708742439514e-06,0.22719912230968475,0.1428571492433548,0.4285714626312256,1,3,left_arm_joint1,lower,-2.384185791015625e-07,right_arm_joint2,upper,-1.0132789611816406e-05,-0.000000;1.417127;0.282302;0.952774;2.276903;1.305862;2.979520,0.195598;-0.000010;1.067408;0.000015;0.184099;1.441388;0.006032,1,right
169,0.6765720912310987,175.90037332776873,0.13484951889306648,57.86989378206389,2.437936473143054e-06,0.22679437696933746,0.1428571492433548,0.4285714626312256,1,3,left_arm_joint1,lower,-2.384185791015625e-07,right_arm_joint2,upper,-8.940696716308594e-06,-0.000000;1.417127;0.282302;0.952773;2.276904;1.305863;2.979506,0.195571;-0.000009;1.067473;0.000021;0.184045;1.441082;0.005869,1,right
170,0.6766620590936823,175.9074878198924,0.13486090752258775,57.85741264644997,2.09893505598302e-06,0.22681201994419098,0.1428571492433548,0.4285714626312256,1,3,left_arm_joint1,lower,-2.384185791015625e-07,right_arm_joint2,upper,-9.059906005859375e-06,-0.000000;1.417127;0.282302;0.952773;2.276904;1.305863;2.979491,0.195532;-0.000009;1.067462;0.000017;0.184040;1.441010;0.005862,1,right
171,0.6768790417281917,175.92273362591757,0.13498898727807399,57.8456079724952,2.43261456489563e-06,0.22682727873325348,0.1428571492433548,0.4285714626312256,1,3,left_arm_joint1,lower,-2.384185791015625e-07,right_arm_joint2,upper,-9.179115295410156e-06,-0.000000;1.417127;0.282302;0.952774;2.276902;1.305863;2.979477,0.195508;-0.000009;1.067482;0.000019;0.184032;1.440893;0.005821,1,right
172,0.6769472797757978,175.9637146493883,0.13525570807973786,57.816205946340595,2.3820571186661255e-06,0.22702917456626892,0.1428571492433548,0.4285714626312256,1,3,left_arm_joint1,lower,-2.384185791015625e-07,right_arm_joint2,upper,-7.867813110351562e-06,-0.000000;1.417127;0.282302;0.952773;2.276903;1.305863;2.979463,0.195517;-0.000008;1.067523;0.000023;0.184004;1.440769;0.005719,1,right
173,0.6768211657187719,175.9625155355229,0.135592637900006,57.80014517128938,2.3815250642655883e-06,0.22752316296100616,0.1428571492433548,0.4285714626312256,1,3,left_arm_joint1,lower,-4.76837158203125e-07,right_arm_joint2,upper,-8.344650268554688e-06,-0.000000;1.417127;0.282302;0.952774;2.276903;1.305863;2.979449,0.195464;-0.000008;1.067514;0.000019;0.184000;1.440678;0.005728,1,right
174,0.676701274425028,175.94487118432824,0.13585862573489435,57.79845089230666,2.4358078007935546e-06,0.22790642082691193,0.1428571492433548,0.4285714626312256,1,3,left_arm_joint1,lower,-2.384185791015625e-07,right_arm_joint2,upper,-8.225440979003906e-06,-0.000000;1.417127;0.282303;0.952774;2.276903;1.305862;2.979434,0.195455;-0.000008;1.067508;0.000021;0.184002;1.440661;0.005690,1,right
175,0.6765665436062742,175.92766585699297,0.1360372764950598,57.78334743279354,2.5491631276963744e-06,0.2282448709011078,0.1428571492433548,0.4285714626312256,1,3,left_arm_joint1,lower,-2.384185791015625e-07,right_arm_joint2,upper,-8.463859558105469e-06,-0.000000;1.417127;0.282302;0.952773;2.276903;1.305863;2.979420,0.195458;-0.000008;1.067546;0.000020;0.184010;1.440678;0.005729,1,right
176,0.6762423346239279,175.8887014017519,0.13607580915912265,57.783436598555845,2.2889248612045776e-06,0.22835859656333923,0.1428571492433548,0.4285714626312256,1,3,left_arm_joint1,lower,-2.384185791015625e-07,right_arm_joint2,upper,-8.58306884765625e-06,-0.000000;1.417127;0.282302;0.952774;2.276903;1.305863;2.979406,0.195455;-0.000009;1.067509;0.000020;0.184009;1.440705;0.005737,1,right
177,0.6759536471871163,175.87142376044423,0.13598593481598795,57.786469356150725,2.3857824089645874e-06,0.22812502086162567,0.1428571492433548,0.4285714626312256,1,3,left_arm_joint1,lower,-4.76837158203125e-07,right_arm_joint2,upper,-7.748603820800781e-06,-0.000000;1.417127;0.282302;0.952774;2.276904;1.305864;2.979391,0.195478;-0.000008;1.067540;0.000022;0.183999;1.440676;0.005709,1,right
178,0.6756800791431736,175.8421325313311,0.13591245716966052,57.76542793135206,2.4262285478471313e-06,0.22755500674247742,0.1428571492433548,0.4285714626312256,1,3,left_arm_joint1,lower,-2.384185791015625e-07,right_arm_joint2,upper,-6.556510925292969e-06,-0.000000;1.417127;0.282302;0.952773;2.276903;1.305863;2.979377,0.195425;-0.000007;1.067598;0.000026;0.183965;1.440398;0.005593,1,right
179,0.6755630427087326,175.82828882711942,0.13588917211636678,57.75244824734933,2.4911548734962707e-06,0.22726507484912872,0.1428571492433548,0.4285714626312256,1,3,left_arm_joint1,lower,-4.76837158203125e-07,right_arm_joint2,upper,-6.198883056640625e-06,-0.000000;1.417127;0.282303;0.952773;2.276904;1.305863;2.979362,0.195386;-0.000006;1.067615;0.000026;0.183941;1.440200;0.005506,1,right
180,0.6754992084404926,175.85613464343282,0.13605201547605805,57.7566097956514,2.3809927824913757e-06,0.22750015556812286,0.1428571492433548,0.4285714626312256,1,3,left_arm_joint1,lower,-7.152557373046875e-07,right_arm_joint2,upper,-6.318092346191406e-06,-0.000001;1.417127;0.282302;0.952774;2.276904;1.305863;2.979349,0.195360;-0.000006;1.067594;0.000023;0.183929;1.440145;0.005482,1,right
181,0.6754743771908385,175.86177190716154,0.13620013399954398,57.7828350085576,2.3384179712593323e-06,0.22770623862743378,0.1428571492433548,0.4285714626312256,1,3,left_arm_joint1,lower,-2.384185791015625e-07,right_arm_joint2,upper,-6.318092346191406e-06,-0.000000;1.417127;0.282302;0.952774;2.276903;1.305863;2.979334,0.195356;-0.000006;1.067587;0.000025;0.183931;1.440131;0.005463,1,right
182,0.6754562587652192,175.85278525531484,0.13629397729288142,57.8010804522548,2.1936639313935302e-06,0.22755806148052216,0.1428571492433548,0.4285714626312256,1,3,left_arm_joint1,lower,-2.384185791015625e-07,right_arm_joint2,upper,-4.0531158447265625e-06,-0.000000;1.417127;0.282302;0.952773;2.276904;1.305863;2.979320,0.195343;-0.000004;1.067643;0.000030;0.183894;1.439906;0.005361,1,right
183,0.6755540838281815,175.86821691436708,0.13646074294132354,57.82380184465415,2.267637455588556e-06,0.22790580987930298,0.1428571492433548,0.4285714626312256,1,3,left_arm_joint1,lower,-2.384185791015625e-07,right_arm_joint2,upper,-3.337860107421875e-06,-0.000000;1.417127;0.282302;0.952774;2.276903;1.305863;2.979306,0.195321;-0.000003;1.067681;0.000031;0.183878;1.439789;0.005305,1,right
184,0.6755224043885564,175.88467962538712,0.13651170038080407,57.842685206574046,2.2208052996575134e-06,0.227960005402565,0.1428571492433548,0.4285714626312256,1,3,left_arm_joint1,lower,-2.384185791015625e-07,right_arm_joint2,upper,-2.2649765014648438e-06,-0.000000;1.417127;0.282302;0.952774;2.276903;1.305863;2.979292,0.195293;-0.000002;1.067705;0.000031;0.183851;1.439603;0.005233,1,right
185,0.6754383006511031,175.89434039976572,0.13661357678648886,57.85675998021387,2.4911548734962707e-06,0.2280476838350296,0.1428571492433548,0.4285714626312256,1,3,left_arm_joint1,lower,-7.152557373046875e-07,right_arm_joint2,upper,-1.7881393432617188e-06,-0.000001;1.417127;0.282302;0.952774;2.276904;1.305863;2.979277,0.195264;-0.000002;1.067694;0.000031;0.183833;1.439509;0.005181,1,right
186,0.675396468312138,175.93540636021896,0.13678392193923272,57.868703410017,2.4038768060563598e-06,0.22835752367973328,0.1428571492433548,0.4285714626312256,1,3,left_arm_joint1,lower,-2.384185791015625e-07,right_arm_joint2,upper,-1.430511474609375e-06,-0.000000;1.417127;0.282302;0.952774;2.276903;1.305864;2.979263,0.195223;-0.000001;1.067719;0.000032;0.183827;1.439414;0.005139,1,right
187,0.6753596901062462,175.96758209426076,0.13681888007785745,57.87578013245349,2.3346926809608703e-06,0.22840766608715057,0.1428571492433548,0.4285714626312256,1,3,left_arm_joint1,lower,-4.76837158203125e-07,right_arm_joint2,upper,4.76837158203125e-07,-0.000000;1.417127;0.282302;0.952773;2.276903;1.305863;2.979249,0.195268;0.000000;1.067737;0.000035;0.183811;1.439363;0.005121,1,right
188,0.6753210470026626,175.97414069224385,0.13688958645505292,57.858002549796005,2.4320825104950927e-06,0.2283390462398529,0.1428571492433548,0.4285714626312256,1,3,left_arm_joint1,lower,2.384185791015625e-07,right_arm_joint2,upper,-4.76837158203125e-07,0.000000;1.417127;0.282303;0.952774;2.276904;1.305863;2.979234,0.195234;-0.000000;1.067639;0.000033;0.183840;1.439298;0.005127,1,right
189,0.6752045466037523,175.96959800210556,0.136748908307406,57.84927518152878,2.482639956724597e-06,0.22802767157554626,0.1428571492433548,0.4285714626312256,1,3,left_arm_joint1,lower,-4.76837158203125e-07,right_arm_joint2,upper,4.76837158203125e-07,-0.000000;1.417127;0.282302;0.952774;2.276904;1.305864;2.979220,0.195238;0.000000;1.067765;0.000035;0.183794;1.439240;0.005063,1,right
190,0.6751189461403038,175.90394665276716,0.1366759921256002,57.82462058051073,2.3501261239289306e-06,0.22782786190509796,0.1428571492433548,0.4285714626312256,1,3,left_arm_joint1,lower,-4.76837158203125e-07,right_arm_joint2,upper,1.5497207641601562e-06,-0.000000;1.417127;0.282302;0.952774;2.276903;1.305863;2.979207,0.195188;0.000002;1.067698;0.000035;0.183803;1.439023;0.005026,1,right
191,0.6751007990478954,175.88133461307282,0.1365435463532644,57.78806314721394,2.2820065623818664e-06,0.22767004370689392,0.1428571492433548,0.4285714626312256,1,3,left_arm_joint1,lower,-2.384185791015625e-07,right_arm_joint2,upper,2.9802322387695312e-06,-0.000000;1.417127;0.282302;0.952773;2.276903;1.305863;2.979192,0.195180;0.000003;1.067710;0.000038;0.183776;1.438903;0.004952,1,right
192,0.6749967557323786,175.85030887764506,0.13653043168068735,57.770974181085585,2.3527870780526428e-06,0.22748613357543945,0.1428571492433548,0.4285714626312256,1,3,left_arm_joint1,lower,-2.384185791015625e-07,right_arm_joint2,upper,2.86102294921875e-06,-0.000000;1.417127;0.282302;0.952773;2.276904;1.305864;2.979178,0.195200;0.000003;1.067702;0.000038;0.183784;1.438966;0.004951,1,right
193,0.6749342809822807,175.86031985876147,0.13643924226210813,57.78607996185623,2.5135066152870422e-06,0.2273738533258438,0.1428571492433548,0.4285714626312256,1,3,left_arm_joint1,lower,-4.76837158203125e-07,right_arm_joint2,upper,1.7881393432617188e-06,-0.000000;1.417127;0.282302;0.952774;2.276904;1.305863;2.979164,0.195206;0.000002;1.067696;0.000037;0.183791;1.439009;0.004979,1,right
194,0.6748526845078143,175.89006735252076,0.1363826182963985,57.78391694828712,2.3336283447861206e-06,0.22727811336517334,0.1428571492433548,0.4285714626312256,1,3,left_arm_joint1,lower,-4.76837158203125e-07,right_arm_joint2,upper,3.0994415283203125e-06,-0.000000;1.417127;0.282302;0.952774;2.276903;1.305863;2.979150,0.195194;0.000003;1.067705;0.000038;0.183782;1.438942;0.004951,1,right
195,0.6747825258921283,175.88435575365736,0.13641637244038915,57.77758935043488,2.754586148512317e-06,0.22710365056991577,0.1428571492433548,0.4285714626312256,1,3,left_arm_joint1,lower,-4.76837158203125e-07,right_arm_joint2,upper,3.2186508178710938e-06,-0.000000;1.417128;0.282302;0.952775;2.276903;1.305862;2.979135,0.195198;0.000003;1.067709;0.000039;0.183770;1.438895;0.004905,1,right
196,0.674647343128989,175.8655995843123,0.13625706609096336,57.7938191347498,2.608767772471765e-06,0.22668768465518951,0.1428571492433548,0.4285714626312256,1,3,left_arm_joint1,lower,-4.76837158203125e-07,right_arm_joint2,upper,3.0994415283203125e-06,-0.000000;1.417127;0.282302;0.952773;2.276903;1.305863;2.979120,0.195210;0.000003;1.067705;0.000039;0.183773;1.438924;0.004904,1,right
197,0.674499094133981,175.86773599634157,0.13610008648832222,57.79597047244168,2.300633013874176e-06,0.22631554305553436,0.1428571492433548,0.4285714626312256,1,3,left_arm_joint1,lower,-2.384185791015625e-07,right_arm_joint2,upper,3.5762786865234375e-06,-0.000000;1.417127;0.282302;0.952774;2.276904;1.305862;2.979107,0.195210;0.000004;1.067709;0.000039;0.183768;1.438883;0.004879,1,right
198,0.6745810372695651,175.88925787726453,0.13615811188344729,57.82382162584619,2.173973143726471e-06,0.2264096736907959,0.1428571492433548,0.4285714626312256,1,3,left_arm_joint1,lower,-2.384185791015625e-07,right_arm_joint2,upper,3.6954879760742188e-06,-0.000000;1.417127;0.282302;0.952774;2.276904;1.305863;2.979093,0.195207;0.000004;1.067713;0.000040;0.183763;1.438858;0.004865,1,right
199,0.6747586061196568,175.8838114155775,0.13605374598094352,57.84439960139538,2.1569430828094482e-06,0.22601355612277985,0.1428571492433548,0.4285714626312256,1,3,left_arm_joint1,lower,-2.384185791015625e-07,right_arm_joint2,upper,3.814697265625e-06,-0.000000;1.417127;0.282302;0.952774;2.276903;1.305863;2.979079,0.195220;0.000004;1.067712;0.000040;0.183759;1.438867;0.004853,1,right
200,0.6749746764085467,175.89192134283792,0.1359667022781692,57.871025506296796,2.2410283690987853e-06,0.22580938041210175,0.1428571492433548,0.4285714626312256,1,3,left_arm_joint1,lower,-4.76837158203125e-07,right_arm_joint2,upper,2.6226043701171875e-06,-0.000000;1.417127;0.282302;0.952774;2.276904;1.305863;2.979065,0.195220;0.000003;1.067706;0.000036;0.183771;1.438931;0.004904,1,right
201,0.6751016400806968,175.8820032755075,0.1358439515753795,57.8782972622923,2.3448042156815063e-06,0.22548002004623413,0.1428571492433548,0.4285714626312256,1,3,left_arm_joint1,lower,-4.76837158203125e-07,right_arm_joint2,upper,2.1457672119140625e-06,-0.000000;1.417127;0.282302;0.952774;2.276903;1.305862;2.979052,0.195253;0.000002;1.067689;0.000039;0.183782;1.439029;0.004929,1,right
202,0.6752024999136813,175.87179445207767,0.13573796859066756,57.87488136620086,2.490090537321521e-06,0.22531259059906006,0.1428571492433548,0.4285714626312256,1,3,left_arm_joint1,lower,-2.384185791015625e-07,right_arm_joint2,upper,1.7881393432617188e-06,-0.000000;1.417128;0.282302;0.952774;2.276904;1.305864;2.979038,0.195261;0.000002;1.067686;0.000038;0.183786;1.439065;0.004931,1,right
203,0.6752915694580353,175.85623942274296,0.13564026656436962,57.865793882943095,2.478382612025598e-06,0.22548623383045197,0.1428571492433548,0.4285714626312256,1,3,left_arm_joint1,lower,-2.384185791015625e-07,right_arm_joint2,upper,9.5367431640625e-07,-0.000000;1.417127;0.282302;0.952774;2.276903;1.305862;2.979024,0.195316;0.000001;1.067647;0.000036;0.183806;1.439261;0.004998,1,right
204,0.6753196998586998,175.86129783069413,0.13551396589063702,57.84942291588378,2.4219709757744567e-06,0.22539202868938446,0.1428571492433548,0.4285714626312256,1,3,left_arm_joint1,lower,-4.76837158203125e-07,right_arm_joint2,upper,5.960464477539062e-07,-0.000000;1.417127;0.282302;0.952773;2.276903;1.305864;2.979010,0.195335;0.000001;1.067751;0.000037;0.183808;1.439439;0.004993,1,right
205,0.6752876978306859,175.86957133347266,0.1355702427238522,57.85808767093397,2.454434252285864e-06,0.2255329042673111,0.1428571492433548,0.4285714626312256,1,3,left_arm_joint1,lower,0.0,right_arm_joint2,upper,-1.0728836059570312e-06,0.000000;1.417127;0.282302;0.952774;2.276904;1.305863;2.978997,0.195320;-0.000001;1.067615;0.000034;0.183838;1.439411;0.005053,1,right
206,0.6752507678328917,175.86707676131735,0.13562780219759088,57.841161521417604,2.522021532058716e-06,0.2257152497768402,0.1428571492433548,0.4285714626312256,1,3,left_arm_joint1,lower,-4.76837158203125e-07,right_arm_joint2,upper,-8.344650268554688e-07,-0.000000;1.417127;0.282302;0.952774;2.276904;1.305864;2.978982,0.195359;-0.000001;1.067603;0.000035;0.183833;1.439481;0.005070,1,right
207,0.6751247287863146,175.88410869571152,0.13561283867113114,57.85274009293046,2.3666239030717406e-06,0.22585244476795197,0.1428571492433548,0.4285714626312256,1,3,left_arm_joint1,lower,-2.384185791015625e-07,right_arm_joint2,upper,-8.344650268554688e-07,-0.000000;1.417127;0.282302;0.952774;2.276904;1.305863;2.978969,0.195407;-0.000001;1.067686;0.000036;0.183821;1.439636;0.005071,1,right
208,0.6750242887497558,175.88108241362534,0.13541892308600273,57.88244535284767,2.106385636579944e-06,0.22550156712532043,0.1428571492433548,0.4285714626312256,1,3,left_arm_joint1,lower,-2.384185791015625e-07,right_arm_joint2,upper,-8.344650268554688e-07,-0.000000;1.417127;0.282302;0.952774;2.276903;1.305863;2.978956,0.195399;-0.000001;1.067703;0.000036;0.183828;1.439639;0.005075,1,right
209,0.674935906261837,175.85891847812525,0.1352836719635371,57.91887816967941,2.315001893293811e-06,0.2254219800233841,0.1428571492433548,0.4285714626312256,1,3,left_arm_joint1,lower,-2.384185791015625e-07,right_arm_joint2,upper,-2.384185791015625e-06,-0.000000;1.417127;0.282302;0.952774;2.276904;1.305862;2.978942,0.195398;-0.000002;1.067684;0.000034;0.183842;1.439696;0.005120,1,right
210,0.6751222092730342,175.83135757643393,0.13519147109333943,57.95701648865245,2.308615648871637e-06,0.2255011796951294,0.1428571492433548,0.4285714626312256,1,3,left_arm_joint1,lower,0.0,right_arm_joint2,upper,-3.814697265625e-06,0.000000;1.417127;0.282302;0.952773;2.276904;1.305863;2.978929,0.195415;-0.000004;1.067632;0.000031;0.183856;1.439840;0.005175,1,right
211,0.6752426608947327,175.81850110364593,0.13510810926405287,57.96641100419163,2.5406479835510254e-06,0.22513875365257263,0.1428571492433548,0.4285714626312256,1,3,left_arm_joint1,lower,-4.76837158203125e-07,right_arm_joint2,upper,-1.430511474609375e-06,-0.000000;1.417128;0.282303;0.952774;2.276904;1.305863;2.978914,0.195422;-0.000001;1.067665;0.000036;0.183838;1.439747;0.005126,1,right
212,0.6754378626178739,175.82729476542232,0.1350777711845477,58.02357650997096,2.3410789253830444e-06,0.22556501626968384,0.1428571492433548,0.4285714626312256,1,3,left_arm_joint1,lower,-2.384185791015625e-07,right_arm_joint2,upper,-5.125999450683594e-06,-0.000000;1.417127;0.282302;0.952774;2.276903;1.305863;2.978901,0.195441;-0.000005;1.067612;0.000028;0.183876;1.439988;0.005250,1,right
213,0.6755533073831685,175.82553103154433,0.13514527582176236,58.08296013811499,2.5869480850815307e-06,0.22588039934635162,0.1428571492433548,0.4285714626312256,1,3,left_arm_joint1,lower,-7.152557373046875e-07,right_arm_joint2,upper,-6.318092346191406e-06,-0.000001;1.417127;0.282302;0.952774;2.276903;1.305862;2.978887,0.195460;-0.000006;1.067590;0.000027;0.183902;1.440145;0.005347,1,right
214,0.6756378808310385,175.80813642962457,0.13527867770853216,58.12669067434454,2.7072217108070618e-06,0.22619648277759552,0.1428571492433548,0.4285714626312256,1,3,left_arm_joint1,lower,-2.384185791015625e-07,right_arm_joint2,upper,-6.079673767089844e-06,-0.000000;1.417127;0.282302;0.952774;2.276904;1.305864;2.978873,0.195464;-0.000006;1.067578;0.000026;0.183912;1.440214;0.005389,1,right
215,0.6757071771159667,175.77819695032295,0.1354171406527351,58.1325837484724,2.3373536350845825e-06,0.2263655662536621,0.1428571492433548,0.4285714626312256,1,3,left_arm_joint1,lower,-4.76837158203125e-07,right_arm_joint2,upper,-5.125999450683594e-06,-0.000000;1.417128;0.282303;0.952774;2.276904;1.305863;2.978860,0.195489;-0.000005;1.067622;0.000030;0.183910;1.440215;0.005364,1,right
216,0.6757049900208587,175.77344043832895,0.13541447457433484,58.15029131696388,2.5369226932525635e-06,0.22673481702804565,0.1428571492433548,0.4285714626312256,1,3,left_arm_joint1,lower,-4.76837158203125e-07,right_arm_joint2,upper,-7.033348083496094e-06,-0.000000;1.417127;0.282302;0.952773;2.276902;1.305862;2.978847,0.195493;-0.000007;1.067551;0.000024;0.183940;1.440398;0.005465,1,right
217,0.6756204074096039,175.77173799865457,0.13544145531420115,58.15610071215462,2.7104149467049865e-06,0.22693927586078644,0.1428571492433548,0.4285714626312256,1,3,left_arm_joint1,lower,-4.76837158203125e-07,right_arm_joint2,upper,-7.62939453125e-06,-0.000000;1.417128;0.282302;0.952775;2.276905;1.305863;2.978833,0.195508;-0.000008;1.067535;0.000024;0.183961;1.440529;0.005543,1,right
218,0.6756826706939719,175.79032868335065,0.13550619078907616,58.14537783369609,2.4038768060563598e-06,0.2269502878189087,0.1428571492433548,0.4285714626312256,1,3,left_arm_joint1,lower,-4.76837158203125e-07,right_arm_joint2,upper,-7.3909759521484375e-06,-0.000000;1.417127;0.282302;0.952774;2.276904;1.305863;2.978820,0.195492;-0.000007;1.067538;0.000024;0.183954;1.440476;0.005537,1,right
219,0.6757639869536244,175.80041619806238,0.1355745978307479,58.13471378377784,2.1963248855172424e-06,0.2271393984556198,0.1428571492433548,0.4285714626312256,1,3,left_arm_joint1,lower,-2.384185791015625e-07,right_arm_joint2,upper,-7.62939453125e-06,-0.000000;1.417127;0.282302;0.952774;2.276903;1.305862;2.978807,0.195496;-0.000008;1.067534;0.000023;0.183964;1.440515;0.005557,1,right
220,0.6757465949883407,175.79381704749704,0.13546981978439743,58.18256982231379,2.238367414975073e-06,0.2270611822605133,0.1428571492433548,0.4285714626312256,1,3,left_arm_joint1,lower,-2.384185791015625e-07,right_arm_joint2,upper,-7.867813110351562e-06,-0.000000;1.417128;0.282302;0.952774;2.276904;1.305863;2.978794,0.195507;-0.000008;1.067527;0.000023;0.183968;1.440575;0.005579,1,right
221,0.6757440328822778,175.7951716368952,0.13528576959397184,58.22552832846704,2.263380110889557e-06,0.22678285837173462,0.1428571492433548,0.4285714626312256,1,3,left_arm_joint1,lower,-4.76837158203125e-07,right_arm_joint2,upper,-7.867813110351562e-06,-0.000000;1.417127;0.282302;0.952774;2.276903;1.305863;2.978780,0.195517;-0.000008;1.067522;0.000023;0.183974;1.440601;0.005585,1,right
222,0.6759602800053708,175.76593193829427,0.13519006191171343,58.27310894999789,2.2005822302162414e-06,0.22647729516029358,0.1428571492433548,0.4285714626312256,1,3,left_arm_joint1,lower,2.384185791015625e-07,right_arm_joint2,upper,-7.62939453125e-06,0.000000;1.417127;0.282303;0.952773;2.276903;1.305863;2.978767,0.195511;-0.000008;1.067530;0.000025;0.183958;1.440523;0.005544,1,right
223,0.6760924377185183,175.73334281009596,0.13506726789390852,58.327162431180824,2.271362745887018e-06,0.22622008621692657,0.1428571492433548,0.4285714626312256,1,3,left_arm_joint1,lower,-2.384185791015625e-07,right_arm_joint2,upper,-7.271766662597656e-06,-0.000000;1.417127;0.282303;0.952774;2.276903;1.305862;2.978754,0.195505;-0.000007;1.067540;0.000025;0.183949;1.440473;0.005522,1,right
224,0.6760221380474504,175.6888108440011,0.1350838727568292,58.37112274148041,2.2548651941178832e-06,0.22627486288547516,0.1428571492433548,0.4285714626312256,1,3,left_arm_joint1,lower,-2.384185791015625e-07,right_arm_joint2,upper,-7.3909759521484375e-06,-0.000000;1.417127;0.282302;0.952774;2.276903;1.305863;2.978740,0.195499;-0.000007;1.067539;0.000024;0.183953;1.440477;0.005527,1,right
225,0.6760461311535714,175.68219574744347,0.1348651206209945,58.4397344799083,2.184084678447107e-06,0.22583799064159393,0.1428571492433548,0.4285714626312256,1,3,left_arm_joint1,lower,-4.76837158203125e-07,right_arm_joint2,upper,-6.9141387939453125e-06,-0.000000;1.417127;0.282302;0.952773;2.276904;1.305864;2.978728,0.195491;-0.000007;1.067545;0.000025;0.183947;1.440426;0.005505,1,right
226,0.6760485485197641,175.69618625954357,0.13479610938477293,58.44639825216245,2.3038260223984253e-06,0.2258865088224411,0.1428571492433548,0.4285714626312256,1,3,left_arm_joint1,lower,-2.384185791015625e-07,right_arm_joint2,upper,-7.271766662597656e-06,-0.000000;1.417127;0.282303;0.952774;2.276903;1.305863;2.978715,0.195517;-0.000007;1.067535;0.000023;0.183961;1.440526;0.005533,1,right
227,0.6760127446383825,175.70342264929278,0.13471400958263702,58.431393030342214,2.1415098672150634e-06,0.22575312852859497,0.1428571492433548,0.4285714626312256,1,3,left_arm_joint1,lower,-4.76837158203125e-07,right_arm_joint2,upper,-7.748603820800781e-06,-0.000000;1.417127;0.282302;0.952774;2.276903;1.305863;2.978702,0.195512;-0.000008;1.067530;0.000024;0.183964;1.440533;0.005543,1,right
228,0.6758517755641443,175.7008422833864,0.13460059336846278,58.42026600071776,2.403344524282147e-06,0.22554762661457062,0.1428571492433548,0.4285714626312256,1,3,left_arm_joint1,lower,-4.76837158203125e-07,right_arm_joint2,upper,-7.510185241699219e-06,-0.000000;1.417127;0.282302;0.952773;2.276904;1.305864;2.978688,0.195518;-0.000008;1.067530;0.000025;0.183961;1.440531;0.005532,1,right
229,0.6758022784791138,175.72372947334406,0.13450281275988438,58.39502165971615,2.1723765257775085e-06,0.225306898355484,0.1428571492433548,0.4285714626312256,1,3,left_arm_joint1,lower,-2.384185791015625e-07,right_arm_joint2,upper,-7.271766662597656e-06,-0.000000;1.417127;0.282303;0.952774;2.276904;1.305865;2.978675,0.195507;-0.000007;1.067540;0.000025;0.183949;1.440471;0.005512,1,right
230,0.6757435889661716,175.75850806537997,0.13458141308270208,58.37548243582999,2.212822437286377e-06,0.2255525290966034,0.1428571492433548,0.4285714626312256,1,3,left_arm_joint1,lower,-2.384185791015625e-07,right_arm_joint2,upper,-7.62939453125e-06,-0.000000;1.417127;0.282302;0.952774;2.276904;1.305863;2.978663,0.195522;-0.000008;1.067532;0.000024;0.183959;1.440541;0.005533,1,right
231,0.6758220975854529,175.76775197808496,0.13455829082649676,58.34932851117197,2.0175109511910705e-06,0.22528009116649628,0.1428571492433548,0.4285714626312256,1,3,left_arm_joint1,lower,-4.76837158203125e-07,right_arm_joint2,upper,-7.033348083496094e-06,-0.000000;1.417127;0.282302;0.952774;2.276903;1.305863;2.978650,0.195496;-0.000007;1.067546;0.000025;0.183942;1.440406;0.005483,1,right
232,0.6758171040365931,175.77400996743862,0.1345779323383813,58.337558527589835,2.221869635832263e-06,0.2257123738527298,0.1428571492433548,0.4285714626312256,1,3,left_arm_joint1,lower,-2.384185791015625e-07,right_arm_joint2,upper,-7.748603820800781e-06,-0.000000;1.417127;0.282302;0.952773;2.276903;1.305864;2.978637,0.195547;-0.000008;1.067513;0.000023;0.183972;1.440647;0.005537,1,right
233,0.6759487323410276,175.79166946800956,0.13459549834519885,58.325937279369825,2.146299493688275e-06,0.22563806176185608,0.1428571492433548,0.4285714626312256,1,3,left_arm_joint1,lower,-2.384185791015625e-07,right_arm_joint2,upper,-7.867813110351562e-06,-0.000000;1.417127;0.282302;0.952774;2.276904;1.305864;2.978625,0.195528;-0.000008;1.067523;0.000023;0.183965;1.440595;0.005566,1,right
234,0.6761679013776203,175.81017813361908,0.13447979186556627,58.31241785381935,2.2069684746384155e-06,0.2253553569316864,0.1428571492433548,0.4285714626312256,1,3,left_arm_joint1,lower,4.76837158203125e-07,right_arm_joint2,upper,-7.62939453125e-06,0.000000;1.417127;0.282303;0.952774;2.276905;1.305864;2.978612,0.195518;-0.000008;1.067529;0.000025;0.183961;1.440536;0.005540,1,right
235,0.6762775280284122,175.7879411819158,0.13435340557078182,58.30455164374513,2.754586148512317e-06,0.2252381592988968,0.1428571492433548,0.4285714626312256,1,3,left_arm_joint1,lower,-7.152557373046875e-07,right_arm_joint2,upper,-7.987022399902344e-06,-0.000001;1.417127;0.282302;0.952774;2.276903;1.305862;2.978599,0.195531;-0.000008;1.067527;0.000024;0.183964;1.440584;0.005551,1,right
236,0.6764151280167428,175.77362443518973,0.1342943568835954,58.30523975961066,2.311276602995349e-06,0.22507870197296143,0.1428571492433548,0.4285714626312256,1,3,left_arm_joint1,lower,-2.384185791015625e-07,right_arm_joint2,upper,-7.748603820800781e-06,-0.000000;1.417127;0.282302;0.952773;2.276904;1.305864;2.978586,0.195524;-0.000008;1.067528;0.000024;0.183961;1.440550;0.005538,1,right
237,0.6762617869173805,175.74628704151237,0.1343338627412102,58.2999647020573,2.1223511339485412e-06,0.22547557950019836,0.1428571492433548,0.4285714626312256,1,3,left_arm_joint1,lower,-2.384185791015625e-07,right_arm_joint2,upper,-8.463859558105469e-06,-0.000000;1.417127;0.282302;0.952773;2.276903;1.305863;2.978573,0.195573;-0.000008;1.067502;0.000022;0.183991;1.440765;0.005606,1,right
238,0.676111014818674,175.7202350522063,0.1343278334837415,58.316787850046246,2.191002977269818e-06,0.22560496628284454,0.1428571492433548,0.4285714626312256,1,3,left_arm_joint1,lower,-2.384185791015625e-07,right_arm_joint2,upper,-8.58306884765625e-06,-0.000000;1.417127;0.282302;0.952774;2.276903;1.305862;2.978560,0.195581;-0.000009;1.067487;0.000021;0.184005;1.440859;0.005667,1,right
239,0.6759252260117661,175.68346817536988,0.13434985559217452,58.31836964530864,2.2756203179596923e-06,0.22576062381267548,0.1428571492433548,0.4285714626312256,1,3,left_arm_joint1,lower,-4.76837158203125e-07,right_arm_joint2,upper,-8.940696716308594e-06,-0.000000;1.417126;0.282303;0.952773;2.276903;1.305863;2.978547,0.195593;-0.000009;1.067471;0.000020;0.184017;1.440946;0.005708,1,right
240,0.6758473278998336,175.63213024713266,0.13425177364563307,58.33739712580054,2.4304858925461303e-06,0.22558845579624176,0.1428571492433548,0.4285714626312256,1,3,left_arm_joint1,lower,-2.384185791015625e-07,right_arm_joint2,upper,-8.940696716308594e-06,-0.000000;1.417127;0.282302;0.952774;2.276904;1.305864;2.978534,0.195588;-0.000009;1.067472;0.000020;0.184017;1.440941;0.005718,1,right
241,0.6756707034864173,175.6076967104647,0.1341933583681105,58.34696399559019,2.1925995952187805e-06,0.22547687590122223,0.1428571492433548,0.4285714626312256,1,3,left_arm_joint1,lower,-2.384185791015625e-07,right_arm_joint2,upper,-8.702278137207031e-06,-0.000000;1.417127;0.282302;0.952774;2.276903;1.305863;2.978520,0.195587;-0.000009;1.067474;0.000021;0.184011;1.440931;0.005714,1,right
242,0.6756643475622408,175.59366378754362,0.1341814411607962,58.354914872738796,2.0994673377572326e-06,0.22528083622455597,0.1428571492433548,0.4285714626312256,1,3,left_arm_joint1,lower,-2.384185791015625e-07,right_arm_joint2,upper,-8.702278137207031e-06,-0.000000;1.417127;0.282302;0.952773;2.276903;1.305863;2.978508,0.195565;-0.000009;1.067486;0.000021;0.183999;1.440820;0.005671,1,right
243,0.6756195282914221,175.58497916796574,0.13418583132920486,58.35219709096778,2.191002977269818e-06,0.22510237991809845,0.1428571492433548,0.4285714626312256,1,3,left_arm_joint1,lower,-2.384185791015625e-07,right_arm_joint2,upper,-8.106231689453125e-06,-0.000000;1.417127;0.282302;0.952774;2.276903;1.305863;2.978495,0.195549;-0.000008;1.067506;0.000023;0.183977;1.440695;0.005614,1,right
244,0.6757765328484155,175.57154445537284,0.13416973153207448,58.36652641873605,2.245817995571997e-06,0.22516824305057526,0.1428571492433548,0.4285714626312256,1,3,left_arm_joint1,lower,-2.384185791015625e-07,right_arm_joint2,upper,-8.463859558105469e-06,-0.000000;1.417128;0.282302;0.952774;2.276905;1.305863;2.978482,0.195559;-0.000008;1.067502;0.000023;0.183986;1.440739;0.005619,1,right
245,0.6759217336780391,175.55489163405196,0.13425440460817287,58.40808757599934,2.260186874991632e-06,0.22534514963626862,0.1428571492433548,0.4285714626312256,1,3,left_arm_joint1,lower,-4.76837158203125e-07,right_arm_joint2,upper,-8.58306884765625e-06,-0.000000;1.417127;0.282302;0.952773;2.276904;1.305864;2.978470,0.195559;-0.000009;1.067499;0.000022;0.183991;1.440763;0.005639,1,right
246,0.6760352975343136,175.5549113885133,0.13430496661128155,58.42805104897645,2.3448042156815063e-06,0.22555245459079742,0.1428571492433548,0.4285714626312256,1,3,left_arm_joint1,lower,-2.384185791015625e-07,right_arm_joint2,upper,-8.58306884765625e-06,-0.000000;1.417126;0.282302;0.952774;2.276903;1.305862;2.978457,0.195567;-0.000009;1.067490;0.000021;0.184003;1.440837;0.005674,1,right
247,0.6759950961705287,175.54656608590025,0.1344498952613134,58.438734399074946,2.261251211166382e-06,0.2258186787366867,0.1428571492433548,0.4285714626312256,1,3,left_arm_joint1,lower,-4.76837158203125e-07,right_arm_joint2,upper,-8.702278137207031e-06,-0.000000;1.417128;0.282303;0.952774;2.276903;1.305863;2.978444,0.195567;-0.000009;1.067485;0.000021;0.184007;1.440861;0.005694,1,right
248,0.6760658897268432,175.54463782289935,0.13437194854325787,58.455508209012976,2.286796188855078e-06,0.22574463486671448,0.1428571492433548,0.4285714626312256,1,3,left_arm_joint1,lower,-2.384185791015625e-07,right_arm_joint2,upper,-8.702278137207031e-06,-0.000000;1.417127;0.282302;0.952773;2.276904;1.305864;2.978431,0.195568;-0.000009;1.067481;0.000020;0.184014;1.440890;0.005713,1,right
249,0.675981861662561,175.52674805080795,0.13436784582994935,58.46772448405463,2.4778503302513855e-06,0.22604429721832275,0.1428571492433548,0.4285714626312256,1,3,left_arm_joint1,lower,-2.384185791015625e-07,right_arm_joint2,upper,-9.179115295410156e-06,-0.000000;1.417127;0.282303;0.952773;2.276903;1.305864;2.978416,0.195603;-0.000009;1.067456;0.000019;0.184039;1.441081;0.005791,1,right
250,0.6758608145213377,175.52790695396754,0.1344140652123883,58.46720526667013,2.2335777885018615e-06,0.22605721652507782,0.1428571492433548,0.4285714626312256,1,3,left_arm_joint1,lower,-2.384185791015625e-07,right_arm_joint2,upper,-9.298324584960938e-06,-0.000000;1.417126;0.282302;0.952773;2.276903;1.305863;2.978403,0.195591;-0.000009;1.067454;0.000019;0.184040;1.441061;0.005802,1,right
251,0.6757561216059639,175.54908938576355,0.13438399744797544,58.48556609348449,2.0792442683159607e-06,0.22603511810302734,0.1428571492433548,0.4285714626312256,1,3,left_arm_joint1,lower,-2.384185791015625e-07,right_arm_joint2,upper,-9.417533874511719e-06,-0.000000;1.417127;0.282302;0.952773;2.276903;1.305863;2.978390,0.195596;-0.000009;1.067451;0.000019;0.184042;1.441079;0.005805,1,right
252,0.6757565024330566,175.56298348409274,0.13442319905131261,58.48611946473757,2.3128732209443115e-06,0.22616542875766754,0.1428571492433548,0.4285714626312256,1,3,left_arm_joint1,lower,-4.76837158203125e-07,right_arm_joint2,upper,-9.298324584960938e-06,-0.000000;1.417128;0.282302;0.952774;2.276904;1.305862;2.978377,0.195604;-0.000009;1.067446;0.000019;0.184043;1.441118;0.005824,1,right
253,0.6757311369706228,175.57696483418724,0.13445661124042899,58.49221639835504,2.040394747382379e-06,0.22604186832904816,0.1428571492433548,0.4285714626312256,1,3,left_arm_joint1,lower,-2.384185791015625e-07,right_arm_joint2,upper,-9.179115295410156e-06,-0.000000;1.417127;0.282303;0.952774;2.276904;1.305863;2.978365,0.195583;-0.000009;1.067457;0.000020;0.184031;1.441020;0.005785,1,right
254,0.6758187874921936,175.5616913029513,0.1344526324116083,58.48416143470109,2.1750374799012206e-06,0.22593598067760468,0.1428571492433548,0.4285714626312256,1,3,left_arm_joint1,lower,-4.76837158203125e-07,right_arm_joint2,upper,-8.821487426757812e-06,-0.000000;1.417127;0.282302;0.952774;2.276903;1.305863;2.978352,0.195578;-0.000009;1.067467;0.000020;0.184022;1.440953;0.005747,1,right
255,0.6758544818769652,175.55053732545943,0.13444836718846967,58.49049216696804,1.8440188114254852e-06,0.22573116421699524,0.1428571492433548,0.4285714626312256,1,3,left_arm_joint1,lower,-2.384185791015625e-07,right_arm_joint2,upper,-8.344650268554688e-06,-0.000000;1.417127;0.282302;0.952774;2.276903;1.305862;2.978341,0.195559;-0.000008;1.067486;0.000021;0.184003;1.440826;0.005689,1,right
256,0.6758599548587212,175.53651718171815,0.1342717120948969,58.51270098439876,2.03613740268338e-06,0.2254967838525772,0.1428571492433548,0.4285714626312256,1,3,left_arm_joint1,lower,-2.384185791015625e-07,right_arm_joint2,upper,-8.821487426757812e-06,-0.000000;1.417126;0.282302;0.952773;2.276903;1.305863;2.978329,0.195557;-0.000009;1.067490;0.000021;0.184004;1.440832;0.005691,1,right
257,0.6759623876223864,175.52578236804277,0.1343218565514718,58.552255453071,2.3464008336304687e-06,0.22553861141204834,0.1428571492433548,0.4285714626312256,1,3,left_arm_joint1,lower,-4.76837158203125e-07,right_arm_joint2,upper,-8.702278137207031e-06,-0.000000;1.417127;0.282303;0.952774;2.276904;1.305863;2.978316,0.195555;-0.000009;1.067493;0.000021;0.183999;1.440810;0.005683,1,right
258,0.675978494030891,175.54036237510851,0.13437747371033495,58.57242306350229,2.46561012318125e-06,0.22591502964496613,0.1428571492433548,0.4285714626312256,1,3,left_arm_joint1,lower,-2.384185791015625e-07,right_arm_joint2,upper,-9.179115295410156e-06,-0.000000;1.417127;0.282303;0.952773;2.276904;1.305865;2.978302,0.195593;-0.000009;1.067471;0.000020;0.184024;1.440989;0.005745,1,right
